<?xml version="1.0" encoding="UTF-8"?>
<map version="1.10" tiledversion="1.11.2" orientation="orthogonal" renderorder="right-down" width="150" height="188" tilewidth="16" tileheight="16" infinite="0" nextlayerid="6" nextobjectid="2939">
 <tileset firstgid="1" source="Overworld.tsx"/>
 <tileset firstgid="1441" source="tree.tsx"/>
 <tileset firstgid="1456" source="bush.tsx"/>
 <tileset firstgid="1463" source="thornbush.tsx"/>
 <layer id="1" name="Tile Layer 1" width="150" height="188">
  <data encoding="csv">
1,1,1,1,1,1,1,1,1,1,1,1,1,1,1,1,1,1,1,1,1,1,1,1,1,1,1,1,1,1,1,1,1,1,1,1,1,1,1,1,1,1,1,1,1,1,1,1,1,1,1,1,1,1,1,1,1,1,1,1,1,1,1,1,1,1,1,1,1,1,1,1,1,1,1,1,1,1,1,1,1,1,1,1,1,1,1,1,1,1,1,1,1,1,1,1,1,1,1,1,1,1,1,1,1,1,1,1,1,1,1,1,1,1,1,1,1,1,1,1,1,1,1,1,1,1,1,1,1,1,1,1,1,1,1,1,1,1,1,1,1,1,1,1,1,1,1,1,1,1,
1,1,1,1,1,1,1,1,1,1,1,1,1,1,1,1,1,1,1,1,1,1,1,1,1,1,1,1,1,1,1,1,1,1,1,1,1,1,1,1,1,1,1,1,1,1,1,1,1,1,1,1,1,1,1,1,1,1,1,1,1,1,1,1,1,1,1,1,1,1,1,1,1,1,1,1,1,1,1,1,1,1,1,1,1,1,1,1,1,1,1,1,1,1,1,1,1,1,1,1,1,1,1,1,1,1,1,1,1,1,1,1,1,1,1,1,1,1,1,1,1,1,1,1,1,1,1,1,1,1,1,1,1,1,1,1,1,1,1,1,1,1,1,1,1,1,1,1,1,1,
1,1,1,1,1,1,1,1,1,1,1,1,1,1,1,1,1,1,1,1,1,1,1,1,1,1,1,1,1,1,1,1,1,1,1,1,1,1,1,1,1,1,1,1,1,1,1,1,1,1,1,1,1,1,1,1,1,1,1,1,1,1,1,1,1,1,1,1,1,1,1,1,1,1,1,1,1,1,1,1,1,1,1,1,1,1,1,1,1,1,1,1,1,1,1,1,1,1,1,1,1,1,1,1,1,1,1,1,1,1,1,1,1,1,1,1,1,1,1,1,1,1,1,1,1,1,1,1,1,1,1,1,1,1,1,1,1,1,1,1,1,1,1,1,1,1,1,1,1,1,
1,1,1,1,1,1,1,1,1,1,1,1,1,1,1,1,1,1,1,1,1,1,1,1,1,1,1,1,1,1,1,1,1,1,1,1,1,1,1,1,1,1,1,1,1,1,1,1,1,1,1,1,1,1,1,1,1,1,1,1,1,1,1,1,1,1,1,1,1,1,1,1,1,1,1,1,1,1,1,1,1,1,1,1,1,1,1,1,1,1,1,1,1,1,1,1,1,1,1,1,1,1,1,1,1,1,1,1,1,1,1,1,1,1,1,1,1,1,1,1,1,1,1,1,1,1,1,1,1,1,1,1,1,1,1,1,1,1,1,1,1,1,1,1,1,1,1,1,1,1,
1,1,1,1,1,1,1,1,1,1,1,1,1,1,1,1,1,1,1,1,1,1,1,1,1,1,1,1,1,1,1,1,1,1,1,1,1,1,1,1,1,1,1,1,1,1,1,1,1,1,1,1,1,1,1,1,1,1,1,1,1,1,1,1,1,1,1,1,1,1,1,1,1,1,1,1,1,1,1,1,1,1,1,1,1,1,1,1,1,1,1,1,1,1,1,1,1,1,1,1,1,1,1,1,1,1,1,1,1,1,1,1,1,1,1,1,1,1,1,1,1,1,1,1,1,1,1,1,1,1,1,1,1,1,1,1,1,1,1,1,1,1,1,1,1,1,1,1,1,1,
1,1,1,1,1,1,1,1,1,1,1,1,1,1,1,1,1,1,1,1,1,1,1,1,1,1,1,1,1,1,1,1,1,1,1,1,1,1,1,1,1,1,1,1,1,1,1,1,1,1,1,1,1,1,1,1,1,1,1,1,1,1,1,1,1,1,1,1,1,1,1,1,1,1,1,1,1,1,1,1,1,1,1,1,1,1,1,1,1,1,1,1,1,1,1,1,1,1,1,1,1,1,1,1,1,1,1,1,1,1,1,1,1,1,1,1,1,1,1,1,1,1,1,1,1,1,1,1,1,1,1,1,1,1,1,1,1,1,1,1,1,1,1,1,1,1,1,1,1,1,
1,1,1,1,1,1,1,1,1,1,1,1,1,1,1,1,1,1,1,1,1,1,1,1,1,1,1,1,1,1,1,1,1,1,1,1,1,1,1,1,1,1,1,1,1,1,1,1,1,1,1,1,1,1,1,1,1,1,1,1,1,1,1,1,1,1,1,1,1,1,1,1,1,1,1,1,1,1,1,1,1,1,1,1,1,1,1,1,1,1,1,1,1,1,1,1,1,1,1,1,1,1,1,1,1,1,1,1,1,1,1,1,1,1,1,1,1,1,1,1,1,1,1,1,1,1,1,1,1,1,1,1,1,1,1,1,1,1,1,1,1,1,1,1,1,1,1,1,1,1,
1,1,1,1,1,1,1,1,1,1,1,1,1,1,1,1,1,1,1,1,1,1,1,1,1,1,1,1,1,1,1,1,1,1,1,1,1,1,1,1,1,1,1,1,1,1,1,1,1,1,1,1,1,1,1,1,1,1,1,1,1,1,1,1,1,1,1,1,1,1,1,1,1,1,1,1,1,1,1,1,1,1,1,1,1,1,1,1,1,1,1,1,1,1,1,1,1,1,1,1,1,1,1,1,1,1,1,1,1,1,1,1,1,1,1,1,1,1,1,1,1,1,1,1,1,1,1,1,1,1,1,1,1,1,1,1,1,1,1,1,1,1,1,1,1,1,1,1,1,1,
1,1,1,1,1,1,1,1,1,1,1,1,1,1,1,1,1,1,1,1,1,1,1,1,1,1,1,1,1,1,1,1,1,1,1,1,1,1,1,1,1,1,1,1,1,1,1,1,1,1,1,1,1,1,1,1,1,1,1,1,1,1,1,1,1,1,1,1,1,1,1,1,1,1,1,1,1,1,1,1,1,1,1,1,1,1,1,1,1,1,1,1,1,1,1,1,1,1,1,1,1,1,1,1,1,1,1,1,1,1,1,1,1,1,1,1,1,1,1,1,1,1,1,1,1,1,1,1,1,1,1,1,1,1,1,1,1,1,1,1,1,1,1,1,1,1,1,1,1,1,
1,1,1,1,1,1,1,1,1,1,1,1,1,1,1,1,1,1,1,1,1,1,1,1,1,1,1,1,1,1,1,1,1,1,1,1,1,1,1,1,1,1,1,1,1,1,1,1,1,1,1,1,1,1,1,1,1,1,1,1,1,1,1,1,1,1,1,1,1,1,1,1,1,1,1,1,1,1,1,1,1,1,1,1,1,1,1,1,1,1,1,1,1,1,1,1,1,1,1,1,1,1,1,1,1,1,1,1,1,1,1,1,1,1,1,1,1,1,1,1,1,1,1,1,1,1,1,1,1,1,1,1,1,1,1,1,1,1,1,1,1,1,1,1,1,1,1,1,1,1,
1,1,1,1,1,1,1,1,1,1,1,1,1,1,1,1,1,1,1,1,1,1,1,1,1,1,1,1,1,1,1,1,1,1,1,1,1,1,1,1,1,1,1,1,1,1,1,1,1,1,1,1,1,1,1,1,1,1,1,1,1,1,1,1,1,1,1,1,1,1,1,1,1,1,1,1,1,1,1,1,1,1,1,1,1,1,1,1,1,1,1,1,1,1,1,1,1,1,1,1,1,1,1,1,1,1,1,1,1,1,1,1,1,1,1,1,1,1,1,1,1,1,1,1,1,1,1,1,1,1,1,1,1,1,1,1,1,1,1,1,1,1,1,1,1,1,1,1,1,1,
1,1,1,1,1,1,1,1,1,1,1,1,1,1,1,1,1,1,1,1,1,1,1,1,1,1,1,1,1,1,1,1,1,1,1,1,1,1,1,1,1,1,1,1,1,1,1,1,1,1,1,1,1,1,1,1,1,1,1,1,1,1,1,1,1,1,1,1,1,1,1,1,1,1,1,1,1,1,1,1,1,1,1,1,1,1,1,1,1,1,1,1,1,1,1,1,1,1,1,1,1,1,1,1,1,1,1,1,1,1,1,1,1,1,1,1,1,1,1,1,1,1,1,1,1,1,1,1,1,1,1,1,1,1,1,1,1,1,1,1,1,1,1,1,1,1,1,1,1,1,
1,1,1,1,1,1,1,1,1,1,1,1,1,1,1,1,1,1,1,1,1,1,1,1,1,1,1,1,1,1,1,1,1,1,1,1,1,1,1,1,1,1,1,1,1,1,1,1,1,1,1,1,1,1,1,1,1,1,1,1,1,1,1,1,1,1,1,1,1,1,1,1,1,1,1,1,1,1,1,1,1,1,1,1,1,1,1,1,1,1,1,1,1,1,1,1,1,1,1,1,1,1,1,1,1,1,1,1,1,1,1,1,1,1,1,1,1,1,1,1,1,1,1,1,1,1,1,1,1,1,1,1,1,1,1,1,1,1,1,1,1,1,1,1,1,1,1,1,1,366,
1,1,1,1,1,1,1,1,1,1,1,1,1,1,1,1,1,1,1,1,1,1,1,1,1,1,1,1,1,1,1,1,1,1,1,1,1,1,1,1,1,1,1,1,1,1,1,1,1,1,1,1,1,1,1,1,1,1,1,1,1,1,1,1,1,1,1,1,1,1,1,1,1,1,1,1,1,1,1,1,1,1,1,1,1,1,1,1,1,1,1,1,1,1,1,1,1,1,1,1,1,1,1,1,1,1,1,1,1,1,1,1,1,1,1,1,1,1,1,1,1,1,1,1,1,1,1,1,1,1,1,1,1,1,1,1,1,1,1,1,1,1,1,1,1,1,1,1,366,366,
1,1,1,1,1,1,1,1,1,1,1,1,1,1,1,1,1,1,1,1,1,1,1,1,1,1,1,1,1,1,1,1,1,1,1,1,1,1,1,1,1,1,1,1,1,1,1,1,1,1,1,1,1,1,1,1,1,1,1,1,1,1,1,1,1,1,1,1,1,1,1,1,1,1,1,1,1,1,1,1,1,1,1,1,1,1,1,1,1,1,1,1,1,1,1,1,1,1,1,1,1,1,1,1,1,1,1,1,1,1,1,1,1,1,1,1,1,1,1,1,1,1,1,1,1,1,1,1,1,1,1,1,1,1,1,1,1,1,1,1,1,1,1,1,1,1,1,366,1,366,
1,1,1,1,1,1,1,1,1,1,1,1,1,1,1,1,1,1,1,1,1,1,1,1,1,1,1,1,1,1,1,1,1,1,1,1,1,1,1,1,1,1,1,1,1,1,1,1,1,1,1,1,1,1,1,1,1,1,1,1,1,1,1,1,1,1,1,1,1,1,1,1,1,1,1,1,1,1,1,1,1,1,1,1,1,1,1,1,1,1,1,1,1,1,1,1,1,1,1,1,1,1,1,1,1,1,1,1,1,1,1,1,1,1,1,1,1,1,1,1,1,1,1,1,1,1,1,1,1,1,1,1,1,1,1,1,1,1,1,1,1,1,1,1,1,1,366,1,366,1,
1,1,1,1,1,1,1,1,1,1,1,1,1,1,1,1,1,1,1,1,1,1,1,1,1,1,1,1,1,1,1,1,1,1,1,1,1,1,1,1,1,1,1,1,1,1,1,1,1,1,1,1,1,1,1,1,1,1,1,1,1,1,1,1,1,1,1,1,1,1,1,1,1,1,1,1,1,1,1,1,1,1,1,1,1,1,1,1,1,1,1,1,1,1,1,1,1,1,1,1,1,1,1,1,1,1,1,1,1,1,1,1,1,1,1,1,1,1,1,1,1,1,1,1,1,1,1,1,1,1,1,1,1,1,1,1,1,1,1,1,1,1,1,1,1,1,1,366,1,366,
1,1,1,1,1,1,1,1,1,1,1,1,1,1,1,1,1,1,1,1,1,1,1,1,1,1,1,1,1,1,1,1,1,1,1,1,1,1,1,1,1,1,1,366,366,366,366,1,1,1,1,1,1,1,1,1,1,1,1,1,1,1,1,1,1,1,1,1,1,1,1,1,1,1,1,1,1,1,1,1,1,1,1,1,1,1,1,1,1,1,1,1,1,1,1,1,1,1,1,1,1,1,1,1,1,1,1,1,1,1,1,1,1,1,1,1,1,1,1,1,1,1,1,1,1,1,1,1,1,1,1,1,1,1,1,1,1,1,1,1,1,1,1,1,1,1,1,366,1,1,
1,1,1,1,1,1,1,1,1,1,1,1,1,1,1,1,1,1,1,1,1,1,1,1,1,1,1,1,1,1,1,1,1,1,1,1,1,1,1,1,1,366,366,366,1,1,1,1,1,1,1,1,1,1,1,1,1,1,1,1,1,1,1,1,1,1,1,1,1,1,1,1,1,1,1,1,1,1,1,1,1,1,1,1,1,1,1,1,1,1,1,1,1,1,1,1,1,1,1,1,1,1,1,1,1,1,1,1,1,1,1,1,1,1,1,1,1,1,1,1,1,1,1,1,1,1,1,1,1,1,1,1,1,1,1,1,1,1,1,1,1,1,1,1,1,1,1,366,366,1,
1,1,1,1,1,1,1,1,1,1,1,1,1,1,1,1,1,1,1,1,1,1,1,1,1,1,1,1,1,1,1,1,1,1,1,1,1,1,1,1,1,366,1,1,1,1,1,1,1,1,1,1,1,1,1,1,1,1,1,1,1,1,1,1,1,1,1,1,1,1,1,1,1,1,1,1,1,1,1,1,1,1,1,1,1,1,1,1,1,1,1,1,1,1,1,1,1,1,1,1,1,1,1,1,1,1,1,1,1,1,1,1,1,1,1,1,1,1,1,1,1,1,1,1,1,1,1,1,1,1,1,1,1,1,1,1,1,1,1,1,1,1,1,1,1,1,1,1,1,366,
1,1,1,1,1,1,1,1,1,1,1,1,1,1,1,1,1,1,1,366,366,366,366,1,1,1,1,1,1,1,1,1,1,1,1,1,1,1,1,1,366,366,1,1,1,1,1,1,1,1,1,1,1,1,1,1,1,1,1,1,1,1,1,1,1,1,1,1,1,1,1,1,1,1,1,1,1,1,1,1,1,1,1,1,1,1,1,1,1,1,1,1,1,1,1,1,1,1,1,1,1,1,1,1,1,1,1,1,1,1,1,1,1,1,1,1,1,1,1,1,1,1,1,1,1,1,1,1,1,1,1,1,1,1,1,1,1,1,1,1,1,1,1,1,1,1,1,1,1,366,
366,1,1,1,1,1,1,1,1,1,1,1,1,1,1,1,1,1,1,1,1,1,366,1,1,1,1,1,1,1,1,1,1,1,1,1,1,1,1,366,366,1,1,1,1,1,1,1,1,1,1,1,1,1,1,1,1,1,1,1,1,1,1,1,366,366,1,1,1,1,1,1,1,1,1,1,1,1,1,1,1,1,1,1,1,1,1,1,1,1,1,1,1,1,1,1,1,1,1,1,1,1,1,1,1,1,1,1,1,1,1,1,1,1,1,1,1,1,1,1,1,1,1,1,1,1,1,1,1,1,1,1,1,1,1,1,1,1,1,1,1,1,1,1,1,1,1,1,366,366,
366,1,1,1,1,1,1,1,1,1,1,1,1,1,1,1,1,1,1,1,1,1,1,366,366,1,1,1,1,1,1,1,1,1,1,1,1,1,366,366,1,1,1,1,1,1,1,1,1,1,1,1,1,1,1,1,1,1,1,1,1,366,366,366,366,1,1,1,1,1,1,1,1,1,1,1,1,1,1,1,1,1,1,1,1,1,1,1,1,1,1,1,1,1,1,1,1,1,1,1,1,1,1,1,1,1,1,1,1,1,1,1,1,1,1,1,1,1,1,1,1,1,1,1,1,1,1,1,1,1,1,1,1,1,1,1,1,1,1,1,1,1,1,1,1,1,1,1,1,1,
366,1,1,1,1,1,1,1,1,1,1,1,1,1,1,1,1,1,1,1,1,1,1,1,366,1,1,1,1,1,1,1,1,1,1,1,1,1,366,1,1,1,1,1,1,1,1,1,1,1,1,1,1,1,1,1,1,1,1,366,366,1,1,1,1,1,1,1,1,1,1,1,1,1,1,1,1,1,1,1,1,1,1,1,1,1,1,1,1,1,1,1,1,1,1,1,1,1,1,1,1,1,1,1,1,1,1,1,1,1,1,1,1,1,1,1,1,1,1,1,1,1,1,1,1,1,1,1,1,1,1,1,1,1,1,1,1,1,1,1,1,1,1,1,1,1,1,1,1,366,
1,366,1,1,1,1,1,1,1,1,1,1,1,1,1,1,1,1,1,1,1,1,1,1,366,366,366,1,1,1,1,1,1,1,1,1,1,1,366,1,1,1,1,1,1,1,1,1,1,1,1,1,1,1,1,1,1,366,366,1,1,1,366,1,1,1,1,1,1,1,1,1,1,1,1,1,1,1,1,1,1,1,366,366,366,366,366,366,366,366,366,366,366,1,1,1,1,1,1,1,1,1,1,1,1,1,1,1,1,1,1,1,1,1,1,1,1,1,1,1,1,1,1,1,1,1,1,1,1,1,1,1,1,1,1,1,1,1,1,1,1,1,1,1,1,1,1,1,1,366,
1,1,1,1,1,1,1,1,1,1,1,1,1,1,1,1,1,1,1,1,1,1,1,1,1,1,366,366,1,1,366,366,366,366,366,366,366,366,366,1,1,1,1,1,1,1,1,1,1,1,1,1,1,1,1,1,366,366,1,1,1,1,1,366,366,366,1,1,1,1,1,1,1,1,1,1,1,1,1,1,366,366,366,1,1,1,1,1,1,1,1,1,366,366,366,366,366,1,1,1,1,1,1,1,1,1,1,1,1,1,1,1,1,1,1,1,1,1,1,1,1,1,1,1,1,1,1,1,1,1,1,1,1,1,1,1,1,1,1,1,1,1,1,1,1,1,1,1,1,1,
1,1,1,1,1,1,1,1,1,1,1,1,1,1,1,1,1,1,1,1,1,1,1,1,1,1,1,366,366,366,366,1,1,1,1,1,1,366,366,366,366,366,1,1,1,1,1,1,1,1,1,1,1,1,366,366,1,1,1,1,1,1,1,1,1,366,366,366,366,1,1,1,1,1,1,1,1,1,366,366,1,1,1,366,366,366,1,1,1,1,1,1,1,1,1,1,366,366,366,366,1,1,1,1,1,1,1,1,1,1,1,1,1,1,1,1,1,1,1,1,1,1,1,1,1,1,1,1,1,1,1,1,1,1,1,1,1,1,1,1,1,1,1,1,1,1,1,1,1,366,
366,1,1,1,1,1,1,1,1,1,1,1,1,1,1,1,1,1,1,1,1,1,1,1,1,1,1,366,366,1,1,1,1,1,1,1,1,366,1,1,1,366,366,366,366,1,1,1,1,1,1,1,1,1,366,1,1,1,1,1,1,1,1,1,1,1,1,1,366,366,1,1,1,1,1,1,366,366,366,1,1,366,366,366,366,1,1,1,1,1,1,1,1,1,1,1,1,1,1,366,1,1,1,1,1,1,1,1,1,1,1,1,1,1,1,1,1,1,1,1,1,1,1,1,1,1,1,1,1,1,1,1,1,1,1,1,1,1,1,1,1,1,1,1,1,1,1,1,366,1,
366,1,1,1,1,1,1,1,1,1,1,1,1,1,1,1,1,1,1,1,1,1,1,1,1,1,366,366,366,1,1,1,1,1,1,1,366,366,1,1,1,1,1,1,366,366,366,366,366,366,366,366,366,366,366,1,1,1,1,1,1,1,1,1,1,1,1,1,1,366,366,1,1,1,366,366,366,1,1,1,1,366,1,1,366,366,366,366,1,1,1,1,1,1,1,1,1,1,1,1,1,1,1,1,1,1,1,1,1,1,1,1,1,1,1,1,1,1,1,1,1,1,1,1,1,1,1,1,1,1,1,1,1,1,1,1,1,1,1,1,1,1,1,1,1,1,1,1,1,1,
366,1,1,1,1,1,1,1,1,1,1,1,1,1,1,1,1,1,1,1,1,1,1,1,1,366,366,1,366,1,1,1,1,1,1,1,366,1,1,1,1,1,1,1,1,1,1,366,366,366,1,1,366,366,1,1,1,1,1,1,1,1,1,1,1,1,1,1,1,1,366,1,1,366,366,1,1,1,1,1,366,366,1,1,1,1,1,366,366,366,1,1,1,1,1,1,1,1,1,1,1,1,1,1,1,1,1,1,1,1,1,1,1,1,1,1,1,1,1,1,1,1,1,1,1,1,1,1,1,1,1,1,1,1,1,1,1,1,1,1,1,1,1,1,1,1,1,366,366,1,
1,1,1,1,1,1,1,1,1,1,1,1,1,1,1,1,1,1,1,1,1,1,1,1,1,366,1,1,366,1,1,1,1,1,1,1,366,1,1,1,1,1,1,1,1,1,1,1,1,366,366,366,366,1,366,1,1,1,1,1,1,1,1,1,1,1,1,1,1,1,1,366,366,366,1,1,1,1,1,1,366,1,1,1,1,1,1,1,1,366,366,1,1,1,1,1,1,1,1,1,1,1,1,1,1,1,1,1,1,1,1,1,1,1,1,1,1,1,1,1,1,1,1,1,1,1,1,1,1,1,1,1,1,1,1,1,1,1,1,1,1,1,1,1,1,1,1,1,1,1,
1,1,1,1,1,1,1,1,1,1,1,1,1,1,1,1,1,1,1,1,1,1,1,1,366,366,1,1,366,1,1,1,1,1,1,1,366,1,1,1,1,1,1,1,1,1,1,1,1,1,366,366,1,1,366,366,1,1,1,1,1,1,1,1,1,1,1,1,1,1,366,366,1,1,1,1,1,1,1,366,366,1,1,1,1,1,1,1,1,1,366,366,366,1,1,1,1,1,1,1,1,1,1,1,1,1,1,1,1,1,1,1,1,1,1,1,1,1,1,1,1,1,1,1,1,1,1,1,1,1,1,1,1,1,1,1,1,1,1,1,1,1,1,1,1,1,1,1,366,366,
1,1,1,1,1,1,1,1,1,1,1,1,1,1,1,1,1,1,1,1,1,1,1,366,366,1,1,1,366,1,1,1,1,1,1,1,366,1,1,1,1,1,1,1,1,1,1,1,1,366,366,1,1,1,1,366,1,1,1,1,1,1,1,1,1,1,1,1,1,366,366,366,1,1,1,1,1,1,366,366,1,1,1,1,1,1,1,1,1,1,1,366,366,366,366,366,366,366,366,1,1,1,1,1,1,1,1,1,1,1,1,1,1,1,1,1,1,1,1,1,1,1,1,1,1,1,1,1,1,1,1,1,1,1,1,1,1,1,1,1,1,1,1,1,1,1,1,1,366,1,
366,1,1,1,1,1,1,1,1,1,1,1,1,1,1,1,1,1,1,1,1,1,1,366,1,1,1,1,366,1,1,1,1,1,1,1,1,1,1,1,1,1,1,1,1,1,1,1,366,366,1,1,1,1,1,366,1,1,1,1,1,1,1,1,1,1,1,1,366,366,1,366,1,1,1,1,1,1,366,1,1,1,1,1,1,1,1,1,366,366,366,366,1,366,1,1,1,1,1,1,1,1,1,1,1,1,1,1,1,1,1,1,1,1,1,1,1,1,1,1,1,1,1,1,1,1,1,1,1,1,1,1,1,1,1,1,1,1,1,1,1,1,1,1,1,1,1,1,366,1,
1,1,1,1,1,1,1,1,1,1,1,1,1,1,1,1,1,1,1,1,1,1,1,366,1,1,1,1,366,1,1,1,1,1,1,1,1,1,1,1,1,1,1,1,1,1,1,1,1,1,1,1,1,1,1,366,366,1,1,1,1,1,1,1,1,1,1,366,366,1,1,366,1,1,1,1,1,1,366,1,1,1,1,1,1,1,366,366,366,1,1,1,1,366,366,1,1,1,1,1,1,1,1,1,1,1,1,1,1,1,1,1,1,1,1,1,1,1,1,1,1,1,1,1,1,1,1,1,1,1,1,1,1,1,1,1,1,1,1,1,1,1,1,1,1,1,1,1,1,1,
1,1,1,1,1,1,1,1,1,1,1,1,1,1,1,1,1,1,1,1,1,1,366,366,1,1,1,1,1,1,1,1,1,1,1,1,1,1,1,1,1,1,1,1,1,1,1,1,1,1,1,1,1,1,1,1,366,1,1,1,1,1,1,1,1,366,366,366,1,366,366,366,1,1,1,1,1,1,1,1,1,1,1,1,1,366,366,1,1,1,1,1,1,1,366,1,1,1,1,1,1,1,1,1,1,1,1,1,1,1,1,1,1,1,1,1,1,1,1,1,1,1,1,1,1,1,1,1,1,1,1,1,1,1,1,1,1,1,1,1,1,1,1,1,1,1,1,1,1,1,
1,1,1,1,1,1,1,1,1,1,1,1,1,1,1,1,1,1,1,1,1,1,366,1,1,1,1,1,1,1,1,1,1,1,1,1,1,1,1,1,1,1,1,1,1,1,1,1,1,1,1,1,1,1,1,1,366,1,1,1,1,1,1,1,366,366,1,1,1,1,1,1,1,1,1,1,1,1,1,1,1,1,1,1,366,366,1,1,1,1,1,1,1,1,366,1,1,1,1,1,1,1,1,1,1,1,1,1,1,1,1,1,1,1,1,1,1,1,1,1,1,1,1,1,1,1,1,1,1,1,1,1,1,1,1,1,1,1,1,1,1,1,1,1,1,1,1,1,1,1,
1,1,1,1,1,1,1,1,1,1,1,1,1,1,1,1,1,1,1,1,1,1,366,1,1,1,1,1,1,1,1,1,1,1,1,1,1,1,1,1,1,1,1,1,1,1,1,1,1,1,1,1,1,1,1,1,366,366,1,1,1,1,1,366,366,1,1,1,1,1,1,1,1,1,1,1,1,1,1,1,1,1,1,1,1,1,1,1,1,1,1,1,1,1,366,1,1,1,1,1,1,1,1,1,1,1,1,1,1,1,1,1,1,1,1,1,1,1,1,1,1,1,1,1,1,1,1,1,1,1,1,1,1,1,1,1,1,1,1,1,1,1,1,1,1,1,1,1,1,1,
366,1,1,1,1,1,1,1,1,1,1,1,1,1,1,1,1,1,1,1,1,1,366,1,1,1,1,1,1,1,1,1,1,1,1,1,1,1,1,1,1,1,1,1,1,1,1,1,1,1,1,1,1,1,1,1,1,366,1,1,1,1,366,366,1,1,1,1,1,1,1,1,1,1,1,1,1,1,1,1,1,1,1,1,1,1,1,1,1,1,1,1,1,1,366,1,1,1,1,1,1,1,1,1,1,1,1,1,1,1,1,1,1,1,1,1,1,1,1,1,1,1,1,1,1,1,1,1,1,1,1,1,1,1,1,1,1,1,1,1,1,1,1,1,1,1,1,1,1,1,
366,1,1,1,1,1,1,1,1,1,1,1,1,1,1,366,366,366,366,366,1,1,366,1,1,1,1,1,1,1,1,1,1,1,1,1,1,1,1,1,1,1,1,1,1,1,1,1,1,1,1,1,1,1,1,1,1,366,1,1,366,366,366,1,1,1,1,1,1,1,1,1,1,1,1,1,1,1,1,1,1,1,1,1,1,1,1,1,1,1,366,366,366,1,366,1,1,1,1,1,1,1,1,1,1,1,1,1,1,1,1,1,1,1,1,1,1,1,1,1,1,1,1,1,1,1,1,1,1,1,1,1,1,1,1,1,1,1,1,1,1,1,1,1,1,1,1,1,1,1,
366,1,1,1,1,1,1,1,1,1,1,1,366,366,366,366,1,1,1,366,366,366,366,366,1,1,1,1,1,1,1,1,1,1,1,1,1,1,1,1,1,1,1,1,1,1,1,1,1,1,1,1,1,1,1,1,366,366,1,366,366,1,1,1,1,1,1,1,1,1,1,1,1,1,1,1,1,1,1,1,1,1,1,1,1,1,1,1,1,1,1,1,366,366,366,366,1,1,1,1,1,1,1,1,1,1,1,1,1,1,1,1,1,1,1,1,1,1,1,1,1,1,1,1,1,1,1,1,1,1,1,1,1,1,1,1,1,1,1,1,1,1,1,1,1,1,1,1,1,1,
1,1,1,1,1,1,1,1,1,1,1,366,366,1,1,1,1,1,1,1,1,366,1,366,366,366,366,366,1,1,1,1,1,1,1,1,1,1,1,1,1,1,1,1,1,1,1,1,1,1,1,1,1,1,1,1,366,1,366,366,1,1,1,1,1,1,1,1,1,1,1,1,1,1,1,1,1,1,1,1,1,1,1,1,1,1,1,1,1,1,1,1,1,366,1,1,366,366,366,1,1,1,1,1,1,1,1,1,1,1,1,1,1,1,1,1,1,1,1,1,1,1,1,1,1,1,1,1,1,1,1,1,1,1,1,1,1,1,1,1,1,1,1,1,1,1,1,1,1,1,
366,1,1,1,1,1,1,1,1,1,1,366,1,1,1,1,1,1,1,1,1,366,366,1,1,1,1,1,1,1,1,1,1,1,1,1,1,1,1,1,1,1,1,1,1,1,1,1,1,1,1,1,1,1,1,1,366,366,366,1,1,1,1,1,1,1,1,1,1,1,1,1,1,1,1,1,1,1,1,1,1,1,1,1,1,1,1,1,1,1,1,1,366,1,1,1,1,1,366,366,1,1,1,1,1,1,1,1,1,1,1,1,1,1,1,1,1,1,1,1,1,1,1,1,1,1,1,1,1,1,1,1,1,1,1,1,1,1,1,1,1,1,1,1,1,1,1,1,1,1,
366,366,1,1,1,1,1,1,1,1,1,366,1,1,1,1,1,1,1,1,1,1,366,1,1,1,1,1,1,1,1,1,1,1,1,1,1,1,1,1,1,1,1,1,1,1,1,1,1,1,1,1,1,1,1,1,366,366,1,1,1,1,1,1,1,1,1,1,1,1,1,1,1,1,1,1,1,1,1,1,1,1,1,1,1,1,1,1,1,1,1,366,366,1,1,1,1,1,1,366,366,1,1,1,1,1,1,1,1,1,1,1,1,1,1,1,1,1,1,1,1,1,1,1,1,1,1,1,1,1,1,1,1,1,1,1,1,1,1,1,1,1,1,1,1,1,1,1,1,1,
1,1,1,1,1,1,1,1,1,1,1,366,1,1,1,1,1,1,1,1,1,1,366,1,1,1,1,1,1,1,1,1,1,1,1,1,1,1,1,1,1,1,1,1,1,1,1,1,1,1,1,1,1,1,1,366,366,1,1,1,1,1,1,1,1,1,1,1,1,1,1,1,1,1,1,1,1,1,1,1,1,1,1,1,1,1,1,1,1,1,366,366,1,1,1,1,1,1,1,1,366,1,1,1,1,1,1,1,1,1,1,1,1,1,1,1,1,1,1,1,1,1,1,1,1,1,1,1,1,1,1,1,1,1,1,1,1,1,1,1,1,1,1,1,1,1,1,1,1,1,
1,1,1,1,1,1,1,1,1,1,1,366,1,1,1,1,1,1,1,1,1,1,366,1,1,1,1,1,1,1,1,1,1,1,1,1,1,1,1,1,1,1,1,1,1,1,1,1,1,1,1,1,1,1,366,366,1,1,1,1,1,1,1,1,1,1,1,1,1,1,1,1,1,1,1,1,1,1,1,1,1,1,1,1,1,1,1,1,1,366,366,1,1,1,1,1,1,1,1,1,366,366,1,1,1,1,1,1,1,1,1,1,1,1,1,1,1,1,1,1,1,1,1,1,1,1,1,1,1,1,1,1,1,1,1,1,1,1,1,1,1,1,1,1,1,1,1,1,1,1,
366,366,366,1,1,1,1,1,1,1,1,1,1,1,1,1,1,1,1,1,1,1,366,366,1,1,1,1,1,1,1,1,1,1,1,1,1,1,1,1,1,1,1,1,1,1,1,1,1,1,1,1,1,366,366,1,1,1,1,1,1,1,1,1,1,1,1,1,1,366,366,366,1,1,1,1,1,1,1,1,1,1,1,1,1,1,1,1,366,366,1,1,1,1,1,1,1,1,1,1,1,366,1,1,1,1,1,1,1,1,1,1,1,1,1,1,1,1,1,1,1,1,1,1,1,1,1,1,1,1,1,1,1,1,1,1,1,1,1,1,1,1,1,1,1,1,1,1,366,1,
1,366,1,1,1,1,1,1,1,1,1,1,1,1,1,1,1,1,1,1,1,1,1,366,1,1,1,1,1,1,1,1,1,1,1,1,1,1,1,1,1,1,1,1,1,1,1,1,1,1,1,1,1,366,366,1,1,1,1,1,1,1,1,1,1,1,1,1,1,1,1,1,366,366,366,1,1,1,1,1,1,1,366,366,366,1,366,366,366,1,1,1,1,1,1,1,1,1,1,1,1,366,1,1,1,1,1,1,1,1,1,1,1,1,1,1,1,1,1,1,1,1,1,1,1,1,1,1,1,1,1,1,1,1,1,1,1,1,1,1,1,1,1,1,1,1,1,1,1,366,
1,366,1,1,1,1,1,1,1,1,1,1,1,1,1,1,1,1,1,1,1,1,1,366,1,1,1,1,1,1,1,1,1,1,1,1,1,1,1,1,1,1,1,1,1,1,1,1,1,1,1,1,366,366,366,1,1,1,1,1,1,1,1,1,1,1,1,1,1,1,1,1,1,1,366,366,1,1,1,1,1,1,1,1,366,366,366,1,1,1,1,1,1,1,1,1,1,1,1,1,1,366,1,1,1,1,1,1,1,1,1,1,1,1,1,1,1,1,1,1,1,1,1,1,1,1,1,1,1,1,1,1,1,1,1,1,1,1,1,1,1,1,1,1,1,1,1,1,366,366,
1,366,1,1,1,1,1,1,1,1,1,1,1,1,1,1,1,1,1,1,1,1,1,1,366,1,1,1,1,1,1,1,1,1,1,1,1,1,1,1,1,1,1,1,1,1,1,1,1,1,1,366,366,1,366,366,366,1,1,1,1,1,1,1,1,1,1,1,1,1,1,1,1,1,1,1,366,366,1,1,1,366,366,366,1,366,366,1,1,1,1,1,1,1,1,1,1,1,1,1,366,1,1,1,1,1,1,1,1,1,1,1,1,1,1,1,1,1,1,1,1,1,1,1,1,1,1,1,1,1,1,1,1,1,1,1,1,1,1,1,1,1,1,1,1,1,1,1,1,1,
1,366,1,1,1,1,1,1,1,1,1,1,1,1,1,1,1,1,1,1,1,1,1,1,366,366,1,1,1,1,1,1,366,366,366,1,1,1,1,1,1,1,1,1,1,1,1,1,1,1,366,366,1,1,1,1,366,366,366,366,1,1,1,1,1,1,1,1,1,1,1,1,1,1,1,1,366,366,366,366,366,1,1,1,1,1,1,366,366,1,1,1,1,1,1,1,1,1,1,1,366,1,1,1,1,1,1,1,1,1,1,1,1,1,1,1,1,1,1,1,1,1,1,1,1,1,1,1,1,1,1,1,1,1,1,1,1,1,1,1,1,1,1,1,1,1,1,366,366,1,
1,1,1,1,1,1,1,1,1,1,1,1,1,1,1,1,1,1,1,1,1,1,1,1,1,366,366,1,1,366,366,366,366,1,1,1,1,1,1,1,1,1,1,1,1,1,1,1,1,366,1,1,1,1,1,1,1,1,1,366,366,366,366,366,366,366,366,366,366,366,366,366,366,366,366,366,366,1,366,1,1,1,1,1,1,1,1,1,366,366,1,1,1,1,1,1,1,1,1,1,1,1,1,1,1,1,1,1,1,1,1,1,1,1,1,1,1,1,1,1,1,1,1,1,1,1,1,1,1,1,1,1,1,1,1,1,1,1,1,1,1,1,1,1,1,1,1,1,366,1,
1,1,1,1,1,1,1,1,1,1,1,1,1,1,1,1,1,1,1,1,1,1,1,1,1,366,366,366,366,1,1,1,1,1,1,1,1,1,1,1,1,1,1,1,1,1,1,1,366,366,1,1,1,1,1,1,1,1,1,1,1,1,1,1,1,1,1,1,1,1,1,1,1,366,1,1,1,1,1,366,1,1,1,1,1,1,1,1,1,366,366,366,1,1,1,1,1,1,1,1,1,1,1,1,1,1,1,1,1,1,1,1,1,1,1,1,1,1,1,1,1,1,1,1,1,1,1,1,1,1,1,1,1,1,1,1,1,1,1,1,1,1,1,1,1,1,1,1,366,1,
1,1,1,1,1,1,1,1,1,1,1,1,1,1,1,1,1,1,1,1,1,1,1,366,366,366,1,366,366,366,1,1,1,1,1,1,1,1,1,1,1,1,1,1,1,1,366,366,1,1,1,1,1,1,1,1,1,1,1,1,1,1,1,1,1,1,1,1,1,1,1,1,1,366,1,1,1,1,1,1,366,366,1,1,1,1,1,1,1,1,1,366,1,1,1,1,1,1,1,1,1,1,1,1,1,1,1,1,1,1,1,1,1,1,1,1,1,1,1,1,1,1,1,1,1,1,1,1,1,1,1,1,1,1,1,1,1,1,1,1,1,1,1,1,1,1,366,1,1,1,
1,366,1,1,1,1,1,1,1,1,1,1,1,1,1,1,1,1,1,1,1,1,366,366,1,1,1,1,1,366,366,1,1,1,1,1,1,1,1,1,1,1,1,1,1,366,366,1,1,1,1,1,1,1,1,1,1,1,1,1,1,1,1,1,1,1,1,1,1,1,1,1,1,366,1,1,1,1,1,1,1,366,1,1,1,1,1,1,1,1,1,366,1,1,1,1,1,1,1,1,1,1,1,1,1,1,1,1,1,1,1,1,1,1,1,1,1,1,1,1,1,1,1,1,1,1,1,1,1,1,1,1,1,1,1,1,1,1,1,1,1,1,1,1,1,1,366,366,1,1,
1,366,1,1,1,1,1,1,1,1,1,1,1,1,1,1,1,1,1,1,366,366,366,1,1,1,1,1,1,1,366,366,366,366,1,1,1,1,1,366,1,1,366,366,366,1,1,1,1,1,1,1,1,1,1,1,1,1,1,1,1,1,1,1,1,1,1,1,1,1,1,1,1,366,1,1,1,1,1,1,1,366,1,1,1,1,1,1,1,1,1,366,1,1,1,1,1,1,1,1,1,1,1,1,1,1,1,1,1,1,1,1,1,1,1,1,1,1,1,1,1,1,1,1,1,1,1,1,1,1,1,1,1,1,1,1,1,1,1,1,1,1,1,1,1,1,1,366,366,1,
1,366,1,1,1,1,1,1,1,1,1,1,1,1,1,1,1,1,366,366,366,1,1,1,1,1,1,1,1,1,1,1,1,366,366,366,366,366,366,366,366,366,366,1,1,1,1,1,1,1,1,1,366,366,366,1,1,1,1,1,1,1,1,1,1,1,1,1,1,1,1,1,1,366,366,1,1,1,1,1,1,366,1,1,1,1,1,1,1,1,1,366,1,1,1,1,1,1,1,1,1,1,1,1,1,1,1,1,1,1,1,1,1,1,1,1,1,1,1,1,1,1,1,1,1,1,1,1,1,1,1,1,1,1,1,1,1,1,1,1,1,1,1,1,1,1,1,1,366,1,
1,366,1,1,1,1,1,1,1,1,1,1,1,1,1,1,1,366,366,1,1,1,1,1,1,1,1,1,1,1,1,1,1,1,1,1,1,1,366,366,1,1,1,1,1,1,1,1,1,1,1,1,366,1,1,1,1,1,1,1,1,1,1,1,1,1,1,1,1,1,1,1,1,1,366,1,1,1,1,1,366,366,1,1,1,1,1,1,1,1,1,366,1,1,1,1,1,1,1,1,1,1,1,1,1,1,1,1,1,1,1,1,1,1,1,1,1,1,1,1,1,1,1,1,1,1,1,1,1,1,1,1,1,1,1,1,1,1,1,1,1,1,1,1,1,1,1,1,366,1,
1,366,366,1,1,1,1,1,1,1,1,1,1,1,366,366,366,1,1,1,1,1,1,1,1,1,1,1,1,1,1,1,1,1,1,1,1,1,366,1,1,1,1,1,1,1,1,1,1,1,1,366,366,1,1,1,1,1,1,1,1,1,1,1,1,1,1,1,1,1,1,1,1,1,366,1,1,1,1,366,366,1,1,1,1,1,1,1,1,1,366,366,1,1,1,1,1,1,1,1,1,1,1,1,1,1,1,1,1,1,1,1,1,1,1,1,1,1,1,1,1,1,1,1,1,1,1,1,1,1,1,1,1,1,1,1,1,1,1,1,1,1,1,1,1,1,1,1,366,366,
1,1,366,1,1,1,1,1,1,1,1,1,1,1,366,1,1,1,1,1,1,1,1,1,1,1,1,1,1,1,1,1,1,1,1,1,1,1,366,1,1,1,1,1,1,1,1,1,1,1,366,366,1,1,1,1,1,1,1,1,366,1,1,1,1,1,1,1,1,1,1,1,1,1,366,1,1,1,366,366,1,1,1,1,1,1,1,1,1,1,366,1,1,1,1,1,1,1,1,1,1,1,1,1,1,1,1,1,1,1,1,1,1,1,1,1,1,1,1,1,1,1,1,1,1,1,1,1,1,1,1,1,1,1,1,1,1,1,1,1,1,1,1,1,1,1,1,1,1,1,
1,1,1,1,1,1,1,1,1,1,1,1,1,1,1,1,1,1,1,1,1,1,1,1,1,1,1,1,1,1,1,1,1,1,1,1,1,1,366,1,1,1,1,1,1,1,1,1,1,366,366,1,1,1,1,1,1,1,1,366,366,1,1,1,1,1,1,1,1,1,1,1,1,1,366,1,1,1,366,1,1,1,1,1,1,1,1,1,1,366,366,1,1,1,1,1,1,1,1,1,1,1,1,1,1,1,1,1,1,1,1,1,1,1,1,1,1,1,1,1,1,1,1,1,1,1,1,1,1,1,1,1,1,1,1,1,1,1,1,1,1,1,1,1,1,1,1,1,366,1,
1,1,1,366,366,366,1,1,1,1,1,1,1,1,1,1,1,1,1,1,1,1,1,1,1,1,1,1,1,1,1,1,1,1,1,1,1,1,366,1,1,1,1,1,1,1,1,1,366,366,1,1,1,1,1,1,1,1,366,366,1,1,1,1,1,1,1,1,1,1,1,1,1,1,366,1,1,1,1,1,1,1,1,1,1,1,1,1,1,366,1,1,1,1,1,1,1,1,1,1,1,1,1,1,1,1,1,1,1,1,1,1,1,1,1,1,1,1,1,1,1,1,1,1,1,1,1,1,1,1,1,1,1,1,1,1,1,1,1,1,1,1,1,1,1,1,1,1,1,1,
1,1,1,366,1,1,1,1,1,1,1,1,1,1,1,1,1,1,1,1,1,1,1,1,1,1,1,1,1,1,1,1,1,1,1,1,1,1,366,1,1,1,1,1,1,1,1,366,366,1,1,1,1,1,1,1,1,366,366,1,1,1,1,1,1,1,1,1,1,1,1,1,1,1,366,1,1,1,1,1,1,1,1,1,1,1,1,1,1,366,1,1,1,1,1,1,1,1,1,1,1,1,1,1,1,1,1,1,1,1,1,1,1,1,1,1,1,1,1,1,1,1,1,1,1,1,1,1,1,1,1,1,1,1,1,1,1,1,1,1,1,1,1,1,1,1,1,1,366,1,
1,1,1,1,1,1,1,1,1,1,1,1,1,1,1,1,1,1,1,1,1,1,1,1,1,1,1,1,1,1,1,1,1,1,1,1,1,1,366,1,1,1,1,1,1,1,366,366,1,1,1,1,1,1,1,1,1,366,1,1,1,1,1,1,1,1,1,1,1,1,1,1,1,1,366,1,1,1,1,1,1,1,1,1,1,1,1,1,1,366,1,1,1,1,1,1,1,1,1,1,1,1,1,1,1,1,1,1,1,1,1,1,1,1,1,1,1,1,1,1,1,1,1,1,1,1,1,1,1,1,1,1,1,1,1,1,1,1,1,1,1,1,1,1,1,1,1,1,1,1,
1,366,366,366,366,1,1,1,1,1,1,1,1,1,1,1,1,1,1,1,1,1,1,1,1,1,1,1,1,1,1,1,1,1,1,1,1,1,366,1,1,1,1,1,1,366,366,1,1,1,1,1,1,1,1,1,1,366,1,1,1,1,1,1,1,1,1,1,1,1,1,1,1,1,366,1,1,1,1,1,1,1,1,1,1,1,1,1,366,366,1,1,1,1,1,1,1,1,1,1,1,1,1,1,1,1,1,1,1,1,1,1,1,1,1,1,1,1,1,1,1,1,1,1,1,1,1,1,1,1,1,1,1,1,1,1,1,1,1,1,1,1,1,1,1,1,1,1,1,1,
1,1,1,1,1,1,1,1,1,1,1,1,1,1,1,1,1,1,1,1,1,1,1,1,1,1,1,1,1,1,1,1,1,1,1,1,1,1,366,1,1,1,1,1,366,366,1,1,1,1,1,1,1,1,1,1,1,366,1,1,1,1,1,1,1,1,1,1,1,1,1,1,1,1,366,1,1,1,1,1,1,1,1,1,1,1,1,1,366,1,1,1,1,1,1,1,1,1,1,1,1,1,1,1,1,1,1,1,1,1,1,1,1,1,1,1,1,1,1,1,1,1,1,1,1,1,1,1,1,1,1,1,1,1,1,1,1,1,1,1,1,1,1,1,1,1,1,1,1,1,
1,1,1,1,1,1,1,1,1,1,1,1,1,1,1,1,1,1,1,1,1,1,1,1,1,1,1,1,1,1,1,1,1,1,1,1,1,1,366,1,1,1,1,1,366,1,1,1,1,1,1,1,1,1,1,1,1,366,1,1,1,1,1,1,1,1,1,1,1,1,1,1,1,1,366,1,1,1,1,1,1,1,1,1,1,1,1,1,1,1,1,1,1,1,1,1,1,1,1,1,1,1,1,1,1,1,1,1,1,1,1,1,1,1,1,1,1,1,1,1,1,1,1,1,1,1,1,1,1,1,1,1,1,1,1,1,1,1,1,1,1,1,1,1,1,1,1,1,1,1,
1,366,1,1,1,1,1,1,1,1,1,1,1,1,1,1,1,1,1,1,1,1,1,1,1,1,1,1,1,1,1,1,1,1,1,1,1,1,366,1,1,1,1,1,366,1,1,1,1,1,1,1,1,1,1,1,1,366,1,1,1,1,1,1,1,1,1,1,1,1,1,1,1,1,366,1,1,1,1,1,1,1,1,1,1,1,1,1,1,1,1,1,1,1,1,1,1,1,1,1,1,1,1,1,1,1,1,1,1,1,1,1,1,1,1,1,1,1,1,1,1,1,1,1,1,1,1,1,1,1,1,1,1,1,1,1,1,1,1,1,1,1,1,1,1,1,1,1,1,1,
366,366,1,1,1,1,1,1,1,1,1,1,1,1,1,1,1,1,1,1,1,1,1,1,1,1,1,1,1,1,1,1,1,1,1,1,1,1,366,1,1,1,1,1,366,1,1,1,1,1,1,1,1,1,1,1,1,366,1,1,1,1,1,1,1,1,1,1,1,1,1,1,1,1,366,1,1,1,1,1,1,1,1,1,1,1,1,1,1,1,1,1,1,1,1,1,1,1,1,1,1,1,1,1,1,1,1,1,1,1,1,1,1,1,1,1,1,1,1,1,1,1,1,1,1,1,1,1,1,1,1,1,1,1,1,1,1,1,1,1,1,1,1,1,1,1,1,1,1,1,
366,1,1,1,1,1,1,1,1,1,1,1,1,1,1,1,1,1,1,1,1,1,1,1,1,1,1,1,1,1,1,1,1,1,1,1,1,1,366,1,1,1,1,1,1,366,366,1,1,1,1,1,1,1,1,1,1,1,366,1,1,1,1,1,1,1,1,1,1,1,1,1,1,1,366,1,1,1,1,1,1,1,1,1,1,1,1,1,1,1,1,1,1,1,1,1,1,1,1,1,1,1,1,1,1,1,1,1,1,1,1,1,1,1,1,1,1,1,1,1,1,1,1,1,1,1,1,1,1,1,1,1,1,1,1,1,1,1,1,1,1,1,1,1,1,1,1,1,1,1,
1,1,1,1,1,1,1,1,1,1,1,1,1,1,1,1,1,1,1,1,1,1,1,1,1,1,1,1,1,1,1,1,1,1,1,1,1,1,366,1,1,1,1,1,1,1,366,366,366,1,1,1,1,1,1,1,1,1,366,1,1,1,1,1,1,1,1,1,1,1,1,1,1,1,366,1,1,1,1,1,1,1,1,1,1,1,1,1,1,1,1,1,1,1,1,1,1,1,1,1,1,1,1,1,1,1,1,1,1,1,1,1,1,1,1,1,1,1,1,1,1,1,1,1,1,1,1,1,1,1,1,1,1,1,1,1,1,1,1,1,1,1,1,1,1,1,1,1,1,366,
1,1,1,1,1,1,1,1,1,1,1,1,1,1,1,1,1,1,1,1,1,1,1,1,1,1,1,1,1,1,1,1,1,1,1,1,1,1,366,1,1,1,1,1,1,1,1,1,366,366,1,1,1,1,1,1,1,1,366,366,1,1,1,1,1,1,1,1,1,1,1,1,1,1,366,1,1,1,1,1,1,1,1,1,1,1,1,1,1,1,1,1,1,1,1,1,1,1,1,1,1,1,1,1,1,1,1,1,1,1,1,1,1,1,1,1,1,1,1,1,1,1,1,1,1,1,1,1,1,1,1,1,1,1,1,1,1,1,1,1,1,1,1,1,1,1,1,1,1,366,
1,1,1,1,1,1,1,1,1,1,1,1,1,1,1,1,1,1,1,1,1,1,1,1,1,1,1,1,1,1,1,1,1,1,1,1,1,1,366,1,1,1,1,1,1,1,1,1,1,366,366,1,1,1,1,1,1,1,1,366,366,1,1,1,1,1,1,1,1,1,1,1,1,366,366,1,1,1,1,1,1,1,1,1,1,1,1,1,1,1,1,1,1,1,1,1,1,1,1,1,1,1,1,1,1,1,1,1,1,1,1,1,1,1,1,1,1,1,1,1,1,1,1,1,1,1,1,1,1,1,1,1,1,1,1,1,1,1,1,1,1,1,1,1,1,1,1,1,1,366,
1,1,1,1,1,1,1,1,1,1,1,1,1,1,1,1,1,1,1,1,1,1,1,1,1,1,1,1,1,1,1,1,1,1,1,1,1,1,366,1,1,1,1,1,1,1,1,1,1,1,366,366,1,1,1,1,1,1,1,1,366,366,366,1,1,1,1,1,1,1,1,1,1,366,1,1,1,1,1,1,1,1,1,1,1,1,1,1,1,1,1,1,1,1,1,1,1,1,1,1,1,1,1,1,1,1,1,1,1,1,1,1,1,1,1,1,1,1,1,1,1,1,1,1,1,1,1,1,1,1,1,1,1,1,1,1,1,1,1,1,1,1,1,1,1,1,1,1,1,1,
1,1,1,1,1,1,1,1,1,1,1,1,1,1,1,1,1,1,1,1,1,1,1,1,1,1,1,1,1,1,1,1,1,1,1,1,1,1,366,1,1,1,1,1,1,1,1,1,1,1,1,366,366,1,1,1,1,1,1,1,1,1,366,366,1,1,1,1,1,1,1,1,1,366,1,1,1,1,1,1,1,1,1,1,1,1,1,1,1,1,1,1,1,1,1,1,1,1,1,1,1,1,1,1,1,1,1,1,1,1,1,1,1,1,1,1,1,1,1,1,1,1,1,1,1,1,1,1,1,1,1,1,1,1,1,1,1,1,1,1,1,1,1,1,1,1,1,1,1,1,
1,366,1,1,1,1,1,1,1,1,1,1,1,1,1,1,1,1,1,1,1,1,1,1,1,1,1,1,1,1,1,1,1,1,1,1,1,1,366,1,1,1,1,1,1,1,1,1,1,1,1,1,366,1,1,1,1,1,1,1,1,1,1,366,366,1,1,1,1,1,1,1,1,366,1,1,1,1,1,1,1,1,1,1,1,1,1,1,1,1,1,1,1,1,1,1,1,1,1,1,1,1,1,1,1,1,1,1,1,1,1,1,1,1,1,1,1,1,1,1,1,1,1,1,1,1,1,1,1,1,1,1,1,1,1,1,1,1,1,1,1,1,1,1,1,1,1,1,1,1,
1,366,366,1,1,1,1,1,1,1,1,1,1,1,1,1,1,1,1,1,1,1,1,1,1,1,1,1,1,1,1,1,1,1,1,1,1,1,366,1,1,1,1,1,1,1,1,1,1,1,1,366,366,1,1,1,1,1,1,1,1,1,1,1,1,366,366,1,1,1,1,1,1,366,1,1,1,1,1,1,1,1,1,1,1,1,1,1,1,1,1,1,1,1,1,1,1,1,1,1,1,1,1,1,1,1,1,1,1,1,1,1,1,1,1,1,1,1,1,1,1,1,1,1,1,1,1,1,1,1,1,1,1,1,1,1,1,1,1,1,1,1,1,1,1,1,1,1,366,1,
1,1,366,1,1,1,1,1,1,1,1,1,1,1,1,1,1,1,1,1,1,1,1,1,1,1,1,1,1,1,1,1,1,1,1,1,1,1,366,1,1,1,1,1,1,1,1,1,1,1,366,366,1,1,1,1,1,1,1,1,1,1,1,1,1,1,366,366,1,1,1,1,366,366,1,1,1,1,1,1,1,1,1,1,1,1,1,1,1,1,1,1,1,1,1,1,1,1,1,1,1,1,1,1,1,1,1,1,1,1,1,1,1,1,1,1,1,1,1,1,1,1,1,1,1,1,1,1,1,1,1,1,1,1,1,1,1,1,1,1,1,1,1,1,1,1,1,1,366,1,
1,1,1,1,1,1,1,1,1,1,1,1,1,1,1,1,1,1,1,1,1,1,1,1,1,1,1,1,1,1,1,1,1,1,1,1,1,1,366,1,1,1,1,1,1,1,1,1,366,366,366,1,1,1,1,1,366,1,1,1,1,1,1,1,366,366,366,366,1,1,1,1,366,1,1,1,1,1,1,1,1,1,1,1,1,1,1,1,1,1,1,1,1,1,1,1,1,1,1,1,1,1,1,1,1,1,1,1,1,1,1,1,1,1,1,1,1,1,1,1,1,1,1,1,1,1,1,1,1,1,1,1,1,1,1,1,1,1,1,1,1,1,1,1,1,366,366,366,366,366,
1,1,1,1,1,1,1,1,1,1,1,1,1,1,1,1,1,1,1,1,1,1,1,1,1,1,1,1,1,1,1,1,1,1,1,1,1,1,366,1,1,1,1,1,1,1,1,366,366,1,1,1,1,1,1,1,1,1,1,1,1,1,1,366,366,1,1,1,1,1,1,1,366,1,1,1,1,1,1,1,1,1,1,1,1,1,1,1,1,1,1,1,1,1,1,1,1,1,1,1,1,1,1,1,1,1,1,1,1,1,1,1,1,1,1,1,1,1,1,1,1,1,1,1,1,1,1,1,1,1,1,1,1,1,1,1,1,1,1,1,1,1,1,1,1,366,1,366,1,366,
1,366,1,1,1,1,1,1,1,1,1,1,1,1,1,1,1,1,1,1,1,1,1,1,1,1,1,1,1,1,1,1,1,1,1,1,1,1,366,366,1,1,1,1,1,1,1,366,1,1,1,1,1,1,1,1,1,1,1,1,1,1,1,1,1,1,1,1,1,1,1,1,366,1,1,1,1,1,1,1,1,1,1,1,1,1,1,1,1,1,1,1,1,1,1,1,1,1,1,1,1,1,1,1,1,1,1,1,1,1,1,1,1,1,1,1,1,1,1,1,1,1,1,1,1,1,1,1,1,1,1,1,1,1,1,1,1,1,1,1,1,1,1,1,1,1,1,366,1,1,
1,366,366,1,1,1,1,1,1,1,1,1,1,1,1,1,1,1,1,1,1,1,1,1,1,1,1,1,1,1,1,1,1,1,1,1,1,1,1,366,1,1,1,1,1,1,1,1,1,1,1,1,1,1,1,1,1,1,1,1,1,1,1,1,1,1,1,1,1,1,1,1,366,1,1,1,1,1,1,1,1,1,1,1,1,1,1,1,1,1,1,1,1,1,1,1,1,1,1,1,1,1,1,1,1,1,1,1,1,1,1,1,1,1,1,1,1,1,1,1,1,1,1,1,1,1,1,1,1,1,1,1,1,1,1,1,1,1,1,1,1,1,1,1,1,1,1,366,1,1,
1,1,366,1,1,1,1,1,1,1,1,1,1,1,1,1,1,1,1,1,1,1,1,1,1,1,1,1,1,1,1,1,1,1,1,1,1,1,1,366,1,1,1,1,1,1,1,1,1,1,1,1,1,1,366,1,1,1,1,1,1,1,1,1,1,1,1,1,1,1,1,1,366,1,1,1,1,1,1,1,1,1,1,1,1,1,1,1,1,1,1,1,1,1,1,1,1,1,1,1,1,1,1,1,1,1,1,1,1,1,1,1,1,1,1,1,1,1,1,1,1,1,1,1,1,1,1,1,1,1,1,1,1,1,1,1,1,1,1,1,1,1,1,1,1,1,1,366,1,1,
1,1,1,1,1,1,1,1,1,1,1,1,1,1,1,1,1,1,1,1,1,1,1,1,1,1,1,1,1,1,1,1,1,1,1,1,1,1,1,366,1,1,1,1,1,1,1,1,1,1,366,366,366,366,366,366,366,366,366,366,1,1,1,1,1,1,1,1,1,1,1,366,366,1,1,1,1,1,1,1,1,1,1,1,1,1,1,1,1,1,1,1,1,1,1,1,1,1,1,1,1,1,1,1,1,1,1,1,1,1,1,1,1,1,1,1,1,1,1,1,1,1,1,1,1,1,1,1,1,1,1,1,1,1,1,1,1,1,1,1,1,1,1,1,1,1,1,1,1,1,
1,1,366,366,1,1,1,1,1,1,1,1,1,1,1,1,1,1,1,1,1,1,1,1,1,1,1,1,1,1,1,1,1,1,1,1,1,1,1,366,1,1,1,1,1,1,366,366,366,366,366,1,1,1,366,1,1,1,1,366,366,366,366,366,366,366,366,366,366,366,366,366,1,1,1,1,1,1,1,1,1,1,1,1,1,1,1,1,1,1,1,1,1,1,1,1,1,1,1,1,1,1,1,1,1,1,1,1,1,1,1,1,1,1,1,1,1,1,1,1,1,1,1,1,1,1,1,1,1,1,1,1,1,1,1,1,1,1,1,1,1,1,1,1,1,1,1,366,1,1,
1,366,366,1,1,1,1,1,1,1,1,1,1,1,1,1,1,1,1,1,1,1,1,1,1,1,1,1,1,1,1,1,1,1,1,1,1,1,1,366,366,366,366,366,366,366,366,1,1,1,1,1,1,1,366,1,1,1,1,1,1,1,1,1,1,1,1,1,1,1,1,366,1,1,1,1,1,1,1,1,1,1,1,1,1,1,1,1,1,1,1,1,1,1,1,1,1,1,1,1,1,1,1,1,1,1,1,1,1,1,1,1,1,1,1,1,1,1,1,1,1,1,1,1,1,1,1,1,1,1,1,1,1,1,1,1,1,1,1,1,1,1,1,1,1,1,1,366,1,1,
1,1,1,366,1,1,1,1,1,1,1,1,1,1,1,1,1,1,1,1,1,1,1,1,1,1,1,1,1,1,1,1,1,1,1,1,1,1,1,366,1,1,1,1,1,1,1,1,1,1,1,1,1,1,366,1,1,1,1,1,1,1,1,1,1,1,1,1,1,1,366,366,1,1,1,1,1,1,1,1,1,1,1,1,1,1,1,1,1,1,1,1,1,1,1,1,1,1,1,1,1,1,1,1,1,1,1,1,1,1,1,1,1,1,1,1,1,1,1,1,1,1,1,1,1,1,1,1,1,1,1,1,1,1,1,1,1,1,1,1,1,1,1,1,1,1,366,366,366,1,
1,1,1,366,1,1,1,1,1,1,1,1,1,1,1,1,1,1,1,1,1,1,1,1,1,1,1,1,1,1,1,1,1,1,1,1,1,1,1,366,1,1,1,1,1,1,1,1,1,1,1,1,1,1,366,1,1,1,1,1,1,1,1,1,1,1,1,1,1,1,366,1,1,1,1,1,1,1,1,1,1,1,1,1,1,1,1,1,1,1,1,1,1,1,1,1,1,1,1,1,1,1,1,1,1,1,1,1,1,1,1,1,1,1,1,1,1,1,1,1,1,1,1,1,1,1,1,1,1,1,1,1,1,1,1,1,1,1,1,1,1,1,1,1,1,1,1,1,1,1,
1,1,1,366,1,1,1,1,1,1,1,1,1,1,1,1,1,1,1,1,1,1,1,1,1,1,1,1,1,1,1,1,1,1,1,1,1,1,1,366,366,1,1,1,1,1,1,1,1,1,1,1,1,1,366,1,1,1,1,1,1,1,1,1,1,1,1,1,1,1,366,1,1,1,1,1,1,1,1,1,1,1,1,1,1,1,1,1,1,1,1,1,1,1,1,1,1,1,1,1,1,1,1,1,1,1,1,1,1,1,1,1,1,1,1,1,1,1,1,1,1,1,1,1,1,1,1,1,1,1,1,1,1,1,1,1,1,1,1,1,1,1,1,1,1,1,1,1,1,1,
1,1,1,1,1,1,1,1,1,1,1,1,1,1,1,1,1,1,1,1,1,1,1,1,1,1,1,1,1,1,1,1,1,1,1,1,1,1,1,1,366,1,1,1,1,1,1,1,1,1,1,1,1,1,366,1,1,1,1,1,1,1,1,1,1,1,1,1,1,366,366,1,1,1,1,1,1,1,1,1,1,1,1,1,1,1,1,1,1,1,1,1,1,1,1,1,1,1,1,1,1,1,1,1,1,1,1,1,1,1,1,1,1,1,1,1,1,1,1,1,1,1,1,1,1,1,1,1,1,1,1,1,1,1,1,1,1,1,1,1,1,1,1,1,1,1,1,1,1,1,
1,366,1,1,1,1,1,1,1,1,1,1,1,1,1,1,1,1,1,1,1,1,1,1,1,1,1,1,1,1,1,1,1,1,1,1,1,1,1,1,366,366,1,1,1,1,1,1,1,1,1,1,1,1,366,1,1,1,1,1,1,1,1,1,1,1,1,1,1,366,1,1,1,1,1,1,1,1,1,1,1,1,1,1,1,1,1,1,1,1,1,1,1,1,1,1,1,1,1,1,1,1,1,1,1,1,1,1,1,1,1,1,1,1,1,1,1,1,1,1,1,1,1,1,1,1,1,1,1,1,1,1,1,1,1,1,1,1,1,1,1,1,1,1,1,1,1,1,1,1,
1,366,1,1,1,1,1,1,1,1,1,1,1,1,1,1,1,1,1,1,1,1,1,1,1,1,1,1,1,1,1,1,1,1,1,1,1,1,1,1,1,366,1,1,1,1,1,1,1,1,1,1,1,1,366,1,1,1,1,1,1,1,1,1,1,1,1,1,366,366,1,1,1,1,1,1,1,1,1,1,1,1,1,1,1,1,1,1,1,1,1,1,1,1,1,1,1,1,1,1,1,1,1,1,1,1,1,1,1,1,1,1,1,1,1,1,1,1,1,1,1,1,1,1,1,1,1,1,1,1,1,1,1,1,1,1,1,1,1,1,1,1,1,1,1,1,1,1,1,1,
366,366,1,1,1,1,1,1,1,1,1,1,1,1,1,1,1,1,1,1,1,1,1,1,1,1,1,1,1,1,1,1,1,1,1,1,1,1,1,1,1,366,366,1,1,1,1,1,1,1,1,1,1,1,366,1,1,1,1,1,1,1,1,1,1,1,1,1,366,1,1,1,1,1,1,1,1,1,1,1,1,1,1,1,1,1,1,1,1,1,1,1,1,1,1,1,1,1,1,1,1,1,1,1,1,1,1,1,1,1,1,1,1,1,1,1,1,1,1,1,1,1,1,1,1,1,1,1,1,1,1,1,1,1,1,1,1,1,1,1,1,1,1,1,1,1,1,1,1,1,
1,366,1,1,1,1,1,1,1,1,1,1,1,1,1,1,1,1,1,1,1,1,1,1,1,1,1,1,1,1,1,1,1,1,1,1,1,1,1,1,1,1,366,1,1,1,1,1,1,1,1,1,1,1,366,1,1,1,1,1,1,1,1,1,1,1,1,366,366,1,1,1,1,1,1,1,1,1,1,1,1,1,1,1,1,1,1,1,1,1,1,1,1,1,1,1,1,1,1,1,1,1,1,1,1,1,1,1,1,1,1,1,1,1,1,1,1,1,1,1,1,1,1,1,1,1,1,1,1,1,1,1,1,1,1,1,1,1,1,1,1,1,1,1,1,1,1,1,1,1,
1,1,1,1,1,1,1,1,1,1,1,1,1,1,1,1,1,1,1,1,1,1,1,1,1,1,1,1,1,1,1,1,1,1,1,1,1,1,1,1,1,1,366,366,1,1,1,1,1,1,1,1,1,1,366,1,1,1,1,1,1,1,1,1,1,1,1,366,1,1,1,1,1,1,1,1,1,1,1,1,1,1,1,1,1,1,1,1,1,1,1,1,1,1,1,1,1,1,1,1,1,1,1,1,1,1,1,1,1,1,1,1,1,1,1,1,1,1,1,1,1,1,1,1,1,1,1,1,1,1,1,1,1,1,1,1,1,1,1,1,1,1,1,1,1,1,1,1,1,1,
1,1,1,1,1,1,1,1,1,1,1,1,1,1,1,1,1,1,1,1,1,1,1,1,1,1,1,1,1,1,1,1,1,1,1,1,1,1,1,1,1,1,1,366,366,1,1,1,1,1,1,1,1,1,366,1,1,1,1,1,1,1,1,1,1,1,1,366,1,1,1,1,1,1,1,1,1,1,1,1,1,1,1,1,1,1,1,1,1,1,1,1,1,1,1,1,1,1,1,1,1,1,1,1,1,1,1,1,1,1,1,1,1,1,1,1,1,1,1,1,1,1,1,1,1,1,1,1,1,1,1,1,1,1,1,1,1,1,1,1,1,1,1,1,1,1,1,1,1,1,
1,1,1,1,1,1,1,1,1,1,1,1,1,1,1,1,1,1,1,1,1,1,1,1,1,1,1,1,1,1,1,1,1,1,1,1,1,1,1,1,1,1,1,1,366,366,1,1,1,1,1,1,1,366,366,1,1,1,1,1,1,1,1,1,1,1,366,366,1,1,1,1,1,1,1,1,1,1,1,1,1,1,1,1,1,1,1,1,1,1,1,1,1,1,1,1,1,1,1,1,1,1,1,1,1,1,1,1,1,1,1,1,1,1,1,1,1,1,1,1,1,1,1,1,1,1,1,1,1,1,1,1,1,1,1,1,1,1,1,1,1,1,1,1,1,1,1,1,1,1,
1,1,1,1,1,1,1,1,1,1,1,1,1,1,1,1,1,1,1,1,1,1,1,1,1,1,1,1,1,1,1,1,1,1,1,1,1,1,1,1,1,1,1,1,1,366,366,1,1,1,1,1,1,366,1,1,1,1,1,1,1,1,1,1,1,1,366,1,1,1,1,1,1,1,1,1,1,1,1,1,1,1,1,1,1,1,1,1,1,1,1,1,1,1,1,1,1,1,1,1,1,1,1,1,1,1,1,1,1,1,1,1,1,1,1,1,1,1,1,1,1,1,1,1,1,1,1,1,1,1,1,1,1,1,1,1,1,1,1,1,1,1,1,1,1,1,1,1,1,1,
1,1,1,1,1,1,1,1,1,1,1,1,1,1,1,1,1,1,1,1,1,1,1,1,1,1,1,1,1,1,1,1,1,1,1,1,1,1,1,1,1,1,1,1,1,1,1,366,366,1,1,1,1,366,1,1,1,1,1,1,1,1,1,1,1,366,1,1,1,1,1,1,1,1,1,1,1,1,1,1,1,1,1,1,1,1,1,1,1,1,1,1,1,1,1,1,1,1,1,1,1,1,1,1,1,1,1,1,1,1,1,1,1,1,1,1,1,1,1,1,1,1,1,1,1,1,1,1,1,1,1,1,1,1,1,1,1,1,1,1,1,1,1,1,1,1,1,1,1,1,
1,1,1,1,1,1,1,1,1,1,1,1,1,1,1,1,1,1,1,1,1,1,1,1,1,1,1,1,1,1,1,1,1,1,1,1,1,1,1,1,1,1,1,1,1,1,1,1,366,366,366,1,1,366,1,1,1,1,1,1,1,1,1,1,366,366,1,1,1,1,1,1,1,1,1,1,1,1,1,1,1,1,1,1,1,1,1,1,1,1,1,1,1,1,1,1,1,1,1,1,1,1,1,1,1,1,1,1,1,1,1,1,1,1,1,1,1,1,1,1,1,1,1,1,1,1,1,1,1,1,1,1,1,1,1,1,1,1,1,1,1,1,1,1,1,1,1,1,1,1,
1,1,1,1,1,1,1,1,1,1,1,1,1,1,1,1,1,1,1,1,1,1,1,1,1,1,1,1,1,1,1,1,1,1,1,1,1,1,1,1,1,1,1,1,1,1,1,1,1,1,366,366,366,366,1,1,1,1,1,1,1,1,1,366,366,1,1,1,1,1,1,1,1,1,1,1,1,1,1,1,1,1,1,1,1,1,1,1,1,1,1,1,1,1,1,1,1,1,1,1,1,1,1,1,1,1,1,1,1,1,1,1,1,1,1,1,1,1,1,1,1,1,1,1,1,1,1,1,1,1,1,1,1,1,1,1,1,1,1,1,1,1,1,1,1,1,1,1,1,1,
1,1,1,1,1,1,1,1,1,1,1,1,1,1,1,1,1,1,1,1,1,1,1,1,1,1,1,1,1,1,1,1,1,1,1,1,1,1,1,1,1,1,1,1,1,1,1,1,1,1,1,1,366,366,366,366,366,366,366,1,1,366,366,366,1,1,1,1,1,1,1,1,1,1,1,1,1,1,1,1,1,1,1,1,1,1,1,1,1,1,1,1,1,1,1,1,1,1,1,1,1,1,1,1,1,1,1,1,1,1,1,1,1,1,1,1,1,1,1,1,1,1,1,1,1,1,1,1,1,1,1,1,1,1,1,1,1,1,1,1,1,1,1,1,1,1,1,1,1,1,
1,1,1,1,1,1,1,1,1,1,1,1,1,1,1,1,1,1,1,1,1,1,1,1,1,1,1,1,1,1,1,1,1,1,1,1,1,1,1,1,1,1,1,1,1,1,1,1,1,1,1,1,1,1,1,1,1,1,366,366,366,366,1,1,1,1,1,1,1,1,1,1,1,1,1,1,1,1,1,1,1,1,1,1,1,1,1,1,1,1,1,1,1,1,1,1,1,1,1,1,1,1,1,1,1,1,1,1,1,1,1,1,1,1,1,1,1,1,1,1,1,1,1,1,1,1,1,1,1,1,1,1,1,1,1,1,1,1,1,1,1,1,1,1,1,1,1,1,1,1,
1,1,1,1,1,1,1,1,1,1,1,1,1,1,1,1,1,1,1,1,1,1,1,1,1,1,1,1,1,1,1,1,1,1,1,1,1,1,1,1,1,1,1,1,1,1,1,1,1,1,1,1,1,1,1,1,1,1,1,1,1,1,1,1,1,1,1,1,1,1,1,1,1,1,1,1,1,1,1,1,1,1,1,1,1,1,1,1,1,1,1,1,1,1,1,1,1,1,1,1,1,1,1,1,1,1,1,1,1,1,1,1,1,1,1,1,1,1,1,1,1,1,1,1,1,1,1,1,1,1,1,1,1,1,1,1,1,1,1,1,1,1,1,1,1,1,1,1,1,1,
1,1,1,1,1,1,1,1,1,1,1,1,1,1,1,1,1,1,1,1,1,1,1,1,1,1,1,1,1,1,1,1,1,1,1,1,1,1,1,1,1,1,1,1,1,1,1,1,1,1,1,1,1,1,1,1,1,1,1,1,1,1,1,1,1,1,1,1,1,1,1,1,1,1,1,1,1,1,1,1,1,1,1,1,1,1,1,1,1,1,1,1,1,1,1,1,1,1,1,1,1,1,1,1,1,1,1,1,1,1,1,1,1,1,1,1,1,1,1,1,1,1,1,1,1,1,1,1,1,1,1,1,1,1,1,1,1,1,1,1,1,1,1,1,1,1,1,1,1,406,
1,1,1,1,1,1,1,1,1,1,1,1,1,1,1,1,1,1,1,1,1,1,1,1,1,1,1,1,1,1,1,1,1,1,1,1,1,1,1,1,1,1,1,1,1,1,1,1,1,1,1,1,1,1,1,1,1,1,1,1,1,1,1,1,1,1,1,1,1,1,1,1,1,1,1,1,1,1,1,1,1,1,1,1,1,1,1,1,1,1,1,1,1,1,1,1,1,1,1,1,1,1,1,1,1,1,1,1,1,1,1,1,1,1,1,1,1,1,1,1,1,1,1,1,1,1,1,1,1,1,1,1,1,1,1,1,1,1,1,1,1,1,1,1,1,1,1,1,1,366,
1,1,1,1,1,1,1,1,1,1,1,1,1,1,1,1,1,1,1,1,1,1,1,1,1,1,1,1,1,1,1,1,1,1,1,1,1,1,1,1,1,1,1,1,1,1,1,1,1,1,1,1,1,1,1,1,1,1,1,1,1,1,1,1,1,1,1,1,1,1,1,1,1,1,1,1,1,1,1,1,1,1,1,1,1,1,1,1,1,1,1,1,1,1,1,1,1,1,1,1,1,1,1,1,1,1,1,1,1,1,1,1,1,1,1,1,1,1,1,1,1,1,1,1,1,1,1,1,1,1,1,1,1,1,1,1,1,1,1,1,1,1,1,1,1,1,1,1,1,406,
1,1,1,1,1,1,1,1,1,1,1,1,1,1,1,1,1,1,1,1,1,1,1,1,1,1,1,1,1,1,1,1,1,1,1,1,1,1,1,1,1,1,1,1,1,1,1,1,1,1,1,1,1,1,1,1,1,1,1,1,1,1,1,1,1,1,1,1,1,1,1,1,1,1,1,1,1,1,1,1,1,1,1,1,1,1,1,1,1,1,1,1,1,1,1,1,1,1,1,1,1,1,1,1,1,1,1,1,1,1,1,1,1,1,1,1,1,1,1,1,1,1,1,1,1,1,1,1,1,1,1,1,1,1,1,1,1,1,1,1,1,1,1,1,1,1,1,1,1,366,
1,1,1,1,1,1,1,1,1,1,1,1,1,1,1,1,1,1,1,1,1,1,1,1,1,1,1,1,366,366,366,366,366,366,1,1,1,1,1,1,1,1,1,1,1,1,1,1,1,1,1,1,1,1,1,1,1,1,1,1,1,1,1,1,1,1,1,1,1,1,1,1,1,1,1,1,1,1,1,1,1,1,1,1,1,1,1,1,1,1,1,1,1,1,1,1,1,1,1,1,1,1,1,1,1,1,1,1,1,1,1,1,1,1,1,1,1,1,1,1,1,1,1,1,1,1,1,1,1,1,1,1,1,1,1,1,1,1,1,1,1,1,1,1,1,1,1,1,406,366,
1,1,1,1,1,1,1,1,1,1,1,1,1,1,1,1,1,1,1,366,1,1,366,366,366,366,366,366,1,1,1,1,1,366,366,366,366,366,1,1,1,1,1,1,1,1,1,1,1,1,1,1,1,1,1,1,1,1,1,1,1,1,1,1,1,1,1,1,1,1,1,1,1,1,1,1,1,1,1,1,1,1,1,1,1,1,1,1,1,1,1,1,1,1,1,1,1,1,1,1,1,1,1,1,1,1,1,1,1,1,1,1,1,1,1,1,1,1,1,1,1,1,1,1,1,1,1,1,1,1,1,1,1,1,1,1,1,1,1,1,1,1,1,1,1,1,1,1,366,406,
1,1,1,1,1,1,1,1,1,1,1,1,1,1,1,1,1,1,1,366,366,366,366,1,1,1,1,1,1,1,1,1,1,1,1,1,1,366,366,366,1,1,1,1,1,1,1,1,1,1,1,1,1,1,1,1,1,1,1,1,1,366,1,1,1,1,1,1,1,1,1,1,1,1,1,1,1,1,1,1,1,1,1,1,1,1,1,1,1,1,1,1,1,1,1,1,1,1,1,1,1,1,1,1,1,1,1,1,1,1,1,1,1,1,1,1,1,1,1,1,1,1,1,1,1,1,1,1,1,1,1,1,1,1,1,1,1,1,1,1,1,1,1,1,1,1,1,1,406,366,
1,1,1,1,1,1,1,1,1,1,1,1,1,1,1,1,1,1,366,366,1,1,1,1,1,1,1,1,1,1,1,1,1,1,1,1,1,1,1,366,1,1,1,366,366,366,366,366,366,366,366,366,366,366,366,366,366,366,366,366,366,366,1,1,1,1,1,1,1,1,1,1,1,1,1,1,1,1,1,1,1,1,1,1,1,1,1,1,1,1,1,1,1,366,366,1,1,1,1,1,1,1,1,1,1,1,1,1,1,1,1,1,1,1,1,1,1,1,1,1,1,1,1,1,1,1,1,1,1,1,1,1,1,1,1,1,1,1,1,1,1,1,1,1,1,1,1,1,1,366,
1,1,1,1,1,1,1,1,1,1,1,1,1,1,1,1,1,1,366,1,1,1,1,1,1,1,1,1,1,1,1,1,1,1,1,1,1,1,1,366,1,1,1,1,1,1,1,1,1,1,1,1,366,1,1,1,1,1,1,1,1,1,1,1,1,1,1,366,366,1,1,1,1,1,1,1,1,1,1,1,366,366,366,366,1,1,1,1,1,1,1,1,1,366,1,1,1,1,1,1,1,1,1,1,1,1,1,1,1,1,1,366,1,1,1,1,1,1,1,1,1,1,1,1,1,1,1,1,1,1,1,1,1,1,1,1,1,1,1,1,1,1,1,1,1,1,1,1,1,406,
1,1,1,1,1,1,1,1,1,1,1,1,1,1,1,1,1,1,366,1,1,1,1,1,1,1,1,1,1,1,1,1,1,1,1,1,1,1,1,366,1,1,1,1,1,1,1,1,1,1,1,1,366,1,1,1,1,1,1,1,1,1,1,1,1,1,1,366,1,366,366,366,366,366,366,366,366,366,366,366,1,1,1,1,1,1,1,1,1,1,1,1,366,366,1,1,1,1,1,1,1,1,1,1,1,1,1,1,1,1,1,366,1,1,1,1,1,1,1,1,1,1,1,1,1,1,1,1,1,1,1,1,1,1,1,1,1,1,1,1,1,1,1,1,1,1,1,1,1,1,
1,1,1,1,1,1,1,1,1,1,1,1,1,1,1,1,1,366,1,1,1,1,1,1,1,1,1,1,1,1,1,1,1,1,1,1,1,1,1,366,1,1,1,1,1,1,1,1,1,1,1,1,366,1,1,1,1,1,1,1,1,1,1,1,1,1,366,366,366,366,1,1,1,1,1,1,1,1,1,1,1,1,1,1,1,1,1,1,1,1,1,1,366,1,1,1,1,1,1,1,1,1,1,1,1,1,1,1,1,1,1,366,1,1,1,1,1,1,1,1,1,1,1,1,1,1,1,1,1,1,1,1,1,1,1,1,1,1,1,1,1,1,1,1,1,1,1,1,1,1,
1,1,1,1,1,1,1,1,1,1,1,1,1,1,1,1,1,366,1,1,1,1,1,1,1,1,1,1,1,1,1,1,1,1,1,1,1,1,1,366,1,1,1,1,1,1,1,1,1,1,1,1,366,1,1,1,1,1,1,1,1,1,1,1,1,1,366,1,1,1,1,1,1,1,1,1,1,1,1,1,1,1,1,1,1,1,1,1,1,1,1,366,366,1,1,1,1,1,1,1,1,1,1,1,1,1,1,1,1,1,366,366,1,1,1,1,1,1,1,1,1,1,1,1,1,1,1,1,1,1,1,1,1,1,1,1,1,1,1,1,1,1,1,1,1,1,1,1,1,406,
1,1,1,1,1,1,1,1,1,1,1,1,1,1,1,1,1,366,1,1,1,1,1,1,1,1,1,1,1,1,1,1,1,1,1,1,1,1,1,366,1,1,1,1,1,1,1,1,1,1,1,1,366,1,1,1,1,1,1,1,1,1,1,1,1,1,366,1,1,1,1,1,1,1,1,1,1,1,1,1,1,1,1,1,1,1,1,1,1,1,1,366,1,1,1,1,1,1,1,1,1,1,1,1,1,1,1,1,1,1,366,1,1,1,1,1,1,1,1,1,1,1,1,1,1,1,1,1,1,1,1,1,1,1,1,1,1,1,1,1,1,1,1,1,1,1,1,1,1,366,
1,1,1,1,1,1,1,1,1,1,1,1,1,1,1,1,366,366,1,1,1,1,1,1,1,1,1,1,1,1,1,1,1,1,1,1,1,1,1,366,1,1,1,1,1,1,1,1,1,1,1,1,366,1,1,1,1,1,1,1,1,1,1,1,1,1,366,1,1,1,1,1,1,1,1,1,1,1,1,1,1,1,1,1,1,1,1,1,1,1,1,366,1,1,1,1,1,1,1,1,1,1,1,1,1,1,1,1,1,1,366,1,1,1,1,1,1,1,1,1,1,1,1,1,1,1,1,1,1,1,1,1,1,1,1,1,1,1,1,1,1,1,1,1,1,1,1,1,1,406,
366,366,1,1,1,1,1,1,1,1,1,1,1,1,1,1,366,1,1,1,1,1,1,1,1,1,1,1,1,1,1,1,1,1,1,1,1,1,1,366,1,1,1,1,1,1,1,1,1,1,1,1,366,1,1,1,1,1,1,1,1,1,1,1,1,366,1,1,1,1,1,366,366,366,366,1,1,1,1,1,1,1,1,1,1,1,1,1,1,1,1,366,1,1,1,1,1,1,1,1,1,1,1,1,1,1,1,1,1,1,366,1,1,1,1,1,1,1,1,1,1,1,1,1,1,1,1,1,1,1,1,1,1,1,1,1,1,1,1,1,1,1,1,1,1,1,1,1,1,1,
1,366,366,1,1,1,1,1,1,1,1,1,1,1,1,1,366,1,1,1,1,1,1,1,1,1,1,1,1,1,1,1,1,1,1,1,1,1,1,366,1,1,1,1,1,1,1,1,1,1,1,366,366,1,1,1,1,1,1,1,1,1,1,1,1,366,366,366,366,366,366,366,1,1,1,1,1,1,1,1,1,1,1,1,1,1,1,1,1,1,1,366,1,1,1,1,1,1,1,1,1,1,1,1,1,1,1,1,1,1,366,1,1,1,1,1,1,1,1,1,1,1,1,1,1,1,1,1,1,1,1,1,1,1,1,1,1,1,1,1,1,1,1,1,1,1,1,1,1,1,
1,1,366,1,1,1,1,1,1,1,1,1,1,1,1,1,366,1,1,1,1,1,1,1,1,1,1,1,1,1,1,1,1,1,1,1,1,1,366,366,1,1,1,1,1,1,1,1,1,1,1,366,1,1,1,1,1,1,1,1,1,1,1,1,1,366,1,1,1,1,1,1,1,1,1,1,1,1,1,1,1,1,1,1,1,1,1,1,1,1,1,366,366,1,1,1,1,1,1,1,1,1,1,1,1,1,1,1,1,1,366,1,1,1,1,1,1,1,1,1,1,1,1,1,1,1,1,1,1,1,1,1,1,1,1,1,1,1,1,1,1,1,1,1,1,1,1,1,406,366,
1,1,366,1,1,1,1,1,1,1,1,1,1,1,1,366,366,1,1,1,1,1,1,1,1,1,1,1,1,1,1,1,1,1,1,1,1,1,366,1,1,1,1,1,1,1,1,1,1,1,1,366,1,1,1,1,1,1,1,1,1,1,1,1,1,366,1,1,1,1,1,1,1,1,1,1,1,1,1,1,1,1,1,1,1,1,1,1,1,1,1,1,366,1,1,1,1,1,1,1,1,1,1,1,1,1,1,1,1,1,366,1,1,1,1,1,1,1,1,1,1,1,1,1,1,1,1,1,1,1,1,1,1,1,1,1,1,1,1,1,1,1,1,1,1,1,1,1,366,406,
1,1,1,1,1,1,1,1,1,1,1,1,1,1,1,366,1,1,1,1,1,1,1,1,1,1,1,1,1,1,1,1,1,1,1,1,1,366,366,1,1,1,1,1,1,1,1,1,1,1,1,366,1,1,1,1,1,1,1,1,1,1,1,1,1,366,1,1,1,1,1,1,1,1,1,1,1,1,1,1,1,1,1,1,1,1,1,1,1,1,1,1,366,1,1,1,1,1,1,1,1,1,1,1,1,1,1,1,1,366,1,1,1,1,1,1,1,1,1,1,1,1,1,1,1,1,1,1,1,1,1,1,1,1,1,1,1,1,1,1,1,1,1,1,1,1,1,1,406,366,
1,1,1,1,1,1,1,1,1,1,1,1,1,1,1,366,1,1,1,1,1,1,1,1,1,1,1,1,1,1,1,1,1,1,1,366,366,366,1,1,1,1,1,1,1,1,1,1,1,1,1,366,1,1,1,1,1,1,1,1,1,1,1,1,1,366,1,1,1,1,1,1,1,1,1,1,1,1,1,1,1,1,1,1,1,1,1,1,1,1,1,1,366,1,1,1,1,1,1,1,1,1,1,1,1,1,1,1,1,366,1,1,1,1,1,1,1,1,1,1,1,1,1,1,1,1,1,1,1,1,1,1,1,1,1,1,1,1,1,1,1,1,1,1,1,1,1,1,366,366,
366,366,366,366,366,1,1,1,1,1,1,1,1,1,1,366,1,1,1,1,1,1,1,1,1,1,1,1,1,1,1,1,1,1,366,366,1,1,1,1,1,1,1,1,1,1,1,1,1,1,1,366,1,1,1,1,1,1,1,1,1,1,1,1,1,366,1,1,1,1,1,1,1,1,1,1,1,1,1,1,1,1,1,1,1,1,1,1,1,1,1,1,366,1,1,1,1,1,1,1,1,1,1,1,1,1,1,1,366,1,1,1,1,1,1,1,1,1,1,1,1,1,1,1,1,1,1,1,1,1,1,1,1,1,1,1,1,1,1,1,1,1,1,1,1,1,1,1,366,366,
366,1,1,1,366,1,1,1,1,1,1,1,1,1,1,366,1,1,1,1,1,1,1,1,1,1,1,1,1,1,1,1,366,366,366,1,1,1,1,1,1,1,1,1,1,1,1,1,1,1,1,366,1,1,1,1,366,366,366,366,366,1,1,1,1,366,1,1,1,1,1,1,1,1,1,1,1,1,1,1,1,1,1,1,1,1,1,1,1,1,1,1,366,366,1,1,1,1,1,1,1,1,1,1,1,1,1,366,366,1,1,1,1,1,1,1,1,1,1,1,1,1,1,1,1,1,1,1,1,1,1,1,1,1,1,1,1,1,1,1,1,1,1,1,1,1,1,366,366,406,
1,366,366,366,1,1,1,1,1,1,1,1,1,1,1,366,1,1,1,1,1,1,1,1,1,1,1,1,1,1,1,1,366,1,1,1,1,1,1,1,1,1,1,1,1,1,1,1,1,1,366,366,366,366,366,366,366,1,1,1,1,366,366,1,1,1,366,1,1,1,1,1,1,1,1,1,1,1,1,1,1,1,1,1,1,1,1,1,1,1,1,1,1,366,1,1,1,1,1,1,1,1,1,1,1,1,366,366,1,1,1,1,1,366,366,366,366,366,366,366,366,366,366,366,1,1,1,1,1,1,1,1,1,1,1,1,1,1,1,1,1,1,1,1,1,366,366,366,406,366,
1,1,1,1,1,1,1,1,1,1,1,1,1,1,1,366,1,1,1,1,1,1,1,1,1,1,1,1,1,1,366,366,366,1,1,1,1,1,1,1,1,1,1,1,366,366,366,366,366,366,366,366,1,1,1,1,1,1,1,1,1,1,1,1,1,1,366,1,1,1,1,1,1,1,1,1,1,1,1,1,1,1,366,366,1,1,1,1,1,1,1,1,1,366,366,1,1,1,1,1,1,1,1,1,1,366,366,1,1,1,1,1,366,366,1,1,1,1,1,1,1,1,1,366,366,366,1,1,1,1,1,1,1,1,1,1,1,1,1,1,1,1,1,1,1,366,406,366,1,366,
366,1,1,1,366,1,1,1,1,1,1,1,1,1,1,366,1,1,1,1,1,1,1,1,1,1,1,1,366,366,366,1,1,1,1,1,1,1,1,1,366,366,366,366,366,1,1,1,1,1,366,366,1,1,1,1,1,1,1,1,1,1,1,1,1,1,366,366,1,1,1,1,1,1,1,1,1,1,1,366,366,366,366,1,1,1,1,1,1,1,1,1,1,1,366,366,366,366,1,1,1,1,1,1,366,366,1,1,1,1,1,366,366,1,1,1,1,1,1,1,1,1,1,1,1,366,366,1,1,1,1,1,1,1,1,1,1,1,1,1,1,1,1,1,1,1,366,406,366,1,
366,366,366,366,366,1,1,1,1,1,1,1,1,1,1,366,1,1,1,1,1,1,1,1,1,366,366,366,366,1,1,1,1,1,1,1,1,1,1,1,366,1,1,1,1,1,1,1,1,1,366,1,1,1,1,1,1,1,1,1,1,1,1,1,1,1,1,366,366,366,366,366,366,1,1,1,366,366,366,366,1,1,1,1,1,1,1,1,1,1,1,1,1,1,1,1,1,366,366,366,366,366,366,366,366,1,1,1,1,1,366,366,1,1,1,1,1,1,1,1,1,1,1,1,1,1,1,366,366,366,366,366,366,1,1,1,1,1,1,1,1,1,1,1,1,1,406,366,366,406,
366,1,1,1,366,1,1,1,1,1,1,1,1,1,1,366,1,1,1,1,1,1,1,366,366,366,1,1,1,1,1,1,1,1,1,1,1,1,1,1,1,1,1,1,1,1,1,1,1,1,366,1,1,1,1,1,1,1,1,1,1,1,1,1,1,1,1,1,1,1,1,1,366,366,366,366,366,1,1,1,1,1,1,1,1,1,1,1,1,1,1,1,1,1,1,1,1,1,1,1,1,1,1,1,1,1,1,1,1,1,366,1,1,1,1,1,1,1,1,1,1,1,1,1,1,1,1,366,366,366,1,1,366,366,366,1,1,1,1,1,1,1,1,1,1,1,366,366,406,406,
1,1,1,1,1,1,1,1,1,1,1,1,1,1,1,366,1,1,1,1,1,366,366,366,1,1,1,1,1,1,1,1,1,1,1,1,1,1,1,1,1,1,1,1,1,1,1,1,1,1,1,1,1,1,1,1,1,1,1,1,1,1,1,1,1,1,1,1,1,1,1,1,1,1,1,1,1,1,1,1,1,1,1,1,1,1,1,1,1,1,1,1,1,1,1,1,1,1,1,1,1,1,1,1,1,1,1,1,366,366,1,1,1,1,1,1,1,1,1,1,1,1,1,1,1,1,1,1,1,366,1,1,1,1,366,366,1,1,1,1,1,1,1,1,1,1,1,366,406,366,
366,366,366,366,366,1,1,1,1,1,1,1,1,1,1,366,1,366,366,366,366,366,1,1,1,1,1,1,1,1,1,1,1,1,1,1,1,1,1,1,1,1,1,1,1,1,1,1,1,1,1,1,1,1,1,1,1,1,1,1,1,1,1,1,1,1,1,1,1,1,1,1,1,1,1,1,1,1,1,1,1,1,1,1,1,1,1,1,1,1,1,1,1,1,1,1,1,1,1,1,1,1,1,1,1,1,1,1,366,1,1,1,1,1,1,1,1,1,1,1,1,1,1,1,1,1,1,1,1,366,1,1,1,1,1,1,366,366,1,1,1,1,1,1,1,1,1,406,366,366,
366,1,366,1,366,1,1,1,1,1,1,1,1,1,366,366,366,366,1,1,1,1,1,1,1,1,1,1,1,1,1,1,1,1,1,1,1,1,1,1,1,1,1,1,1,1,1,1,1,1,1,1,1,1,1,1,1,1,1,1,1,1,1,1,1,1,1,1,1,1,1,1,1,1,1,1,1,1,1,1,1,1,1,1,1,1,1,1,1,1,1,1,1,1,1,1,1,1,1,1,1,1,1,1,1,1,1,366,366,1,1,1,1,1,1,1,1,1,1,1,1,1,1,1,1,1,1,1,1,1,1,1,1,1,1,1,1,366,1,1,1,1,1,1,1,1,1,1,366,406,
366,1,1,1,366,1,1,1,1,1,1,1,366,366,366,366,1,1,1,1,1,1,1,1,1,1,1,1,1,1,1,1,1,1,1,1,1,1,1,1,1,1,1,1,1,1,1,1,1,1,1,1,1,1,1,1,1,1,1,1,1,1,1,1,1,1,1,1,1,1,1,1,1,1,1,1,1,1,1,284,284,284,284,284,1,1,1,1,1,1,1,1,1,1,1,1,1,1,1,1,1,1,1,1,1,1,1,366,1,1,1,1,1,1,1,1,1,1,1,1,1,1,1,1,1,1,1,1,1,1,1,1,1,1,1,1,1,366,366,1,1,1,1,1,1,1,1,1,406,366,
1,1,1,1,1,1,1,1,1,1,366,366,366,1,1,366,366,1,1,1,1,1,1,1,1,1,1,1,1,1,1,1,1,1,1,1,1,1,1,1,1,1,1,1,1,1,1,1,1,1,1,1,1,1,1,1,1,1,1,1,1,1,1,1,1,1,1,1,1,1,1,1,1,1,1,1,1,1,284,284,284,284,284,284,284,1,1,1,1,1,1,1,1,1,1,1,1,1,1,1,1,1,1,1,1,366,366,1,1,1,1,1,1,1,1,1,1,1,1,1,1,1,1,1,1,1,1,1,1,1,1,1,1,1,1,1,1,1,366,366,1,1,1,1,1,1,1,1,1,406,
366,366,366,366,366,1,1,1,366,366,366,366,1,1,1,366,366,1,1,1,1,1,1,1,1,1,1,1,1,1,1,1,1,1,1,1,1,1,1,1,1,1,1,1,1,1,1,1,1,1,1,1,1,1,1,1,1,1,1,1,1,1,1,1,1,1,1,1,1,1,1,1,1,1,1,1,1,284,284,284,284,284,284,284,284,284,1,1,1,1,1,1,1,1,1,1,1,1,1,1,1,1,1,1,1,366,1,1,1,1,1,1,1,1,1,1,1,1,1,1,1,1,1,1,1,1,1,1,1,1,1,1,1,1,1,1,1,1,1,366,366,1,1,1,1,1,1,1,1,1,
366,1,1,1,1,1,1,366,366,366,1,1,1,1,1,1,1,1,1,1,1,1,1,1,1,1,1,1,1,1,1,1,1,1,1,1,1,1,1,1,1,1,1,1,1,1,1,1,1,1,1,1,1,1,1,1,1,1,1,1,1,1,1,1,1,1,1,1,1,1,1,1,1,1,1,1,1,284,284,284,284,284,284,284,284,284,1,1,1,1,1,1,1,1,1,1,1,1,1,1,1,1,1,1,366,1,1,1,1,1,1,1,1,1,1,1,1,1,1,1,1,1,1,1,1,1,1,1,1,1,1,1,1,1,1,1,1,1,1,1,366,366,1,1,1,1,1,1,1,1,
366,366,366,366,1,1,1,1,1,1,1,1,1,1,1,1,1,1,1,1,1,1,1,1,1,1,1,1,1,1,1,1,1,1,1,1,1,1,1,1,1,1,1,1,1,1,1,1,1,1,1,1,1,1,1,1,1,1,1,1,1,1,1,1,1,1,1,1,1,1,1,1,1,1,1,1,1,284,284,284,284,284,284,284,284,284,1,1,1,1,1,1,1,1,1,1,1,1,1,1,1,1,1,366,366,1,1,1,1,1,1,1,1,1,1,1,1,1,1,1,1,1,1,1,1,1,1,1,1,1,1,1,1,1,1,1,1,1,1,1,1,366,366,1,1,1,1,1,1,1,
1,1,1,1,1,1,1,1,1,1,1,1,1,1,1,1,1,1,1,1,1,1,1,1,1,1,1,1,1,1,1,1,1,1,1,1,1,1,1,1,1,1,1,1,1,1,1,1,1,1,1,1,1,1,1,1,1,1,1,1,1,1,1,1,1,1,1,1,1,1,1,1,1,1,1,1,1,284,284,284,284,284,284,284,284,284,1,1,1,1,1,1,1,1,1,1,1,1,1,1,1,1,1,366,1,1,1,1,1,1,1,1,1,1,1,1,1,1,1,1,1,1,1,1,1,1,1,1,1,1,1,1,1,1,1,1,1,1,1,1,1,1,366,1,1,1,1,1,1,1,
1,1,1,1,1,1,1,1,1,1,1,1,1,1,1,1,1,1,1,1,1,1,1,1,1,1,1,1,1,1,1,1,1,1,1,1,1,1,1,1,1,1,1,1,1,1,1,1,1,1,1,1,1,1,1,1,1,1,1,1,1,1,1,1,366,366,366,366,366,366,366,366,366,366,366,366,366,284,284,284,284,284,284,284,284,284,1,1,1,1,1,1,1,1,1,1,1,1,1,1,1,1,1,366,1,1,1,1,1,1,1,1,1,1,1,1,1,1,1,1,1,1,1,1,1,1,1,1,1,1,1,1,1,1,1,1,1,1,1,1,1,1,366,1,1,1,1,1,1,1,
1,1,1,1,1,1,1,1,1,1,1,1,1,1,1,1,1,1,1,1,1,1,1,1,1,1,1,1,1,1,1,1,1,1,1,1,1,1,1,1,1,1,1,1,1,1,1,1,1,1,1,1,1,1,1,1,1,1,1,1,366,366,366,366,366,1,1,1,1,1,1,1,1,1,1,1,1,1,284,284,284,284,284,284,284,366,366,366,366,366,1,1,1,1,1,1,1,1,1,1,1,1,366,366,1,1,1,1,1,1,1,1,1,1,1,1,1,1,1,1,1,1,1,1,1,1,1,1,1,1,1,1,1,1,1,1,1,1,1,1,1,1,366,1,1,1,1,1,1,1,
1,1,1,1,1,1,1,1,1,1,1,1,1,1,1,1,1,1,1,1,1,1,1,1,1,1,1,1,1,1,1,1,1,1,1,1,1,1,1,1,1,1,1,1,1,1,1,1,1,1,1,1,1,366,366,366,366,366,366,366,366,1,1,1,1,1,1,1,1,1,1,1,1,1,1,1,1,1,377,284,284,284,284,284,376,162,1,1,1,366,366,366,366,366,366,366,366,366,366,366,366,366,366,1,1,1,1,1,1,1,1,1,1,1,1,1,1,1,1,1,1,1,1,1,1,1,1,1,1,1,1,1,1,1,1,1,1,1,1,1,1,1,366,1,1,1,1,1,1,1,
1,1,1,1,1,1,1,1,1,1,1,1,1,1,1,1,1,1,1,1,1,1,1,1,1,1,1,1,1,1,1,1,1,1,1,1,1,1,1,1,1,1,1,1,1,1,1,366,366,366,366,366,366,366,1,1,1,1,1,1,1,1,1,1,1,1,1,1,1,1,1,1,1,1,1,1,1,1,336,337,337,337,337,337,338,1,1,1,1,1,1,1,1,1,1,1,1,1,1,1,1,1,366,1,1,1,1,1,1,1,1,1,1,1,1,1,1,1,1,1,1,1,1,1,1,1,1,1,1,1,1,1,1,1,1,1,1,1,1,1,1,1,366,1,1,1,1,1,1,1,
1,1,1,1,1,1,1,1,1,1,1,1,1,1,1,1,1,1,1,1,1,1,1,1,1,1,1,1,1,1,1,1,1,1,1,1,1,1,1,1,1,1,366,366,366,366,366,366,1,1,1,1,1,1,1,1,1,1,1,1,1,1,1,1,1,1,1,1,1,1,1,1,1,1,1,1,1,1,1,1,1,1,1,1,1,1,1,1,1,1,1,1,1,1,1,1,1,1,1,1,1,1,366,1,1,1,1,1,1,1,1,1,1,1,1,1,1,1,1,1,1,1,1,1,1,1,1,1,1,1,1,1,1,1,1,1,1,1,1,1,1,1,366,1,1,1,1,1,1,406,
1,1,1,1,1,1,1,1,1,1,1,1,1,1,1,1,1,1,1,1,1,1,1,1,1,1,1,1,1,1,1,366,366,366,366,366,366,366,366,366,366,366,366,1,1,1,1,1,1,1,1,1,1,1,1,1,1,1,1,1,1,1,1,1,1,1,1,1,1,1,1,1,1,1,1,1,1,1,1,1,1,1,1,1,1,1,1,1,1,1,1,1,1,1,1,1,1,1,1,1,1,1,366,1,1,1,1,1,1,1,1,1,1,1,1,1,1,1,1,1,1,1,1,1,1,1,1,1,1,1,1,1,1,1,1,1,1,1,1,1,1,1,366,1,1,1,1,1,1,366,
1,1,1,1,1,1,1,1,1,1,1,1,1,1,1,1,1,1,1,1,1,1,1,1,1,1,366,366,366,366,366,366,1,1,1,1,1,1,1,1,1,1,1,1,1,1,1,1,1,1,1,1,1,1,1,1,1,1,1,1,1,1,1,1,1,1,1,1,1,1,1,1,1,1,1,1,1,1,1,1,1,1,1,1,1,1,1,1,1,1,1,1,1,1,1,1,1,1,1,1,1,1,366,1,1,1,1,1,1,1,1,1,1,1,1,1,1,1,1,1,1,1,1,1,1,1,1,1,1,1,1,1,1,1,1,1,1,1,1,1,1,366,366,1,1,1,1,1,1,406,
1,1,1,1,1,1,1,1,1,1,1,1,1,1,1,1,1,1,1,1,1,1,366,366,366,366,366,1,1,1,366,1,1,1,1,1,1,1,1,1,1,1,1,1,1,1,1,1,1,1,1,1,1,1,1,1,1,1,1,1,1,1,1,1,1,1,1,1,1,1,1,1,1,1,1,1,1,1,1,1,1,1,1,1,1,1,1,1,1,1,1,1,1,1,1,1,1,1,1,1,1,1,366,1,1,1,1,1,1,1,1,1,1,1,1,1,1,1,1,1,1,1,1,1,1,1,1,1,1,1,1,1,1,1,1,1,1,1,1,1,1,366,1,1,1,1,1,1,406,406,
1,1,1,1,1,1,1,1,1,1,1,1,1,1,1,1,1,1,366,366,366,366,366,1,1,1,1,1,1,1,366,1,1,1,1,1,1,1,1,1,1,1,1,1,1,1,1,1,1,1,1,1,1,1,1,1,1,1,1,1,1,1,1,1,1,1,1,1,1,1,1,1,1,1,1,1,1,1,1,1,1,1,1,1,1,1,1,1,1,1,1,1,1,1,1,1,1,1,1,1,1,1,366,366,1,1,1,1,1,1,1,1,1,1,1,1,1,1,1,1,1,1,1,1,1,1,1,1,1,1,1,1,1,1,1,1,1,1,1,1,1,366,1,1,1,1,1,1,366,406,
1,1,1,1,1,1,1,1,1,1,1,1,1,1,1,366,366,366,366,1,1,1,1,1,1,1,1,1,1,1,366,1,1,1,1,1,1,1,1,1,1,1,1,1,1,1,1,1,1,1,1,1,1,1,1,1,1,1,1,1,1,1,1,1,1,1,1,1,1,1,1,1,1,1,1,1,1,1,1,1,1,1,1,1,1,1,1,1,1,1,1,1,1,1,1,1,1,1,1,1,1,1,1,366,1,1,1,1,1,1,1,1,1,1,1,1,1,1,1,1,1,1,1,1,1,1,1,1,1,1,1,1,1,1,1,1,1,1,1,1,1,366,1,1,1,1,1,1,406,366,
1,1,1,1,1,1,1,1,1,1,1,1,1,1,366,366,1,1,1,1,1,1,1,1,1,1,1,1,1,1,366,1,1,1,1,1,1,1,1,1,1,1,1,1,1,1,1,1,1,1,1,1,1,1,1,1,1,1,1,1,1,1,1,1,1,1,1,1,1,1,1,1,1,1,1,1,1,1,1,1,1,1,1,1,1,1,1,1,1,1,1,1,1,1,1,1,1,1,1,1,1,1,1,366,366,1,1,1,1,1,1,1,1,1,1,1,1,1,1,1,1,1,1,1,1,1,1,1,1,1,1,1,1,1,1,1,1,1,1,1,366,366,1,1,1,1,1,406,406,406,
1,1,1,1,1,1,1,1,1,1,1,1,366,366,1,1,1,1,1,1,1,1,1,1,1,1,1,1,1,1,366,1,1,1,1,1,1,1,1,1,1,1,1,1,1,1,1,1,1,1,1,1,1,1,1,1,1,1,1,1,1,1,1,1,1,1,1,1,1,1,1,1,1,1,1,1,1,1,1,1,1,1,1,1,1,1,1,1,1,1,1,1,1,1,1,1,1,1,1,1,1,1,1,1,366,1,1,1,1,1,1,1,1,1,1,1,1,1,1,1,1,1,1,1,1,1,1,1,1,1,1,1,1,1,1,1,1,1,1,1,366,1,1,1,1,1,1,366,366,406,
1,1,1,1,1,1,1,1,1,1,1,366,366,1,1,1,1,1,1,1,1,1,1,1,1,1,1,1,1,1,366,366,1,1,1,1,1,1,1,1,1,1,1,1,1,1,1,1,1,1,1,1,1,1,1,1,1,1,1,1,1,1,1,1,1,1,1,1,1,1,1,1,1,1,1,1,1,1,1,1,1,1,1,1,1,1,1,1,1,1,1,1,1,1,1,1,1,1,1,1,1,1,1,1,366,1,1,1,1,1,1,1,1,1,1,1,1,1,1,1,1,1,1,1,1,1,1,1,1,1,1,1,1,1,1,1,1,1,1,366,366,1,1,1,1,1,1,406,406,366,
1,1,1,1,1,1,1,1,1,1,1,366,1,1,1,1,1,1,1,1,1,1,1,1,1,1,1,1,1,1,1,366,1,1,1,1,1,1,1,1,1,1,1,1,1,1,1,1,1,1,1,1,1,1,1,1,1,1,1,1,1,1,1,1,1,1,1,1,1,1,1,1,1,1,1,1,1,1,1,1,1,1,1,1,1,1,1,1,1,1,1,1,1,1,1,1,1,1,1,1,1,1,1,1,366,366,1,1,1,1,1,1,1,1,1,1,1,1,1,1,1,1,1,1,1,1,1,1,1,1,1,1,1,1,1,1,1,1,366,366,1,1,1,1,1,1,1,1,366,406,
1,1,1,1,1,1,1,1,1,1,366,366,1,1,1,1,1,1,1,1,1,1,1,1,1,1,1,1,1,1,1,366,1,1,1,1,1,1,1,1,1,1,1,1,1,1,1,1,1,1,1,1,1,1,1,1,1,1,1,1,1,1,1,1,1,1,1,1,1,1,1,1,1,1,1,1,1,1,1,1,1,1,1,1,1,1,1,1,1,1,1,1,1,1,1,1,1,1,1,1,1,1,1,1,1,366,1,1,1,1,1,1,1,1,1,1,1,1,1,1,1,1,1,1,1,1,1,1,1,1,1,1,1,1,1,1,1,1,366,1,1,1,1,1,1,1,1,1,406,366,
1,1,1,1,1,1,1,1,1,1,366,1,1,1,1,1,1,1,1,1,1,1,1,1,1,1,1,1,1,1,1,366,1,1,1,1,1,1,1,1,1,1,1,1,1,1,1,1,1,1,1,1,1,1,1,1,1,1,1,1,1,1,1,1,1,1,1,1,1,1,1,1,1,1,1,1,1,1,1,1,1,1,1,1,1,1,1,1,1,1,1,1,1,1,1,1,1,1,1,1,1,1,1,1,1,366,1,1,1,1,1,1,1,1,1,1,1,1,1,1,1,1,1,1,1,1,1,1,1,1,1,1,1,1,1,366,366,366,366,1,1,1,1,1,1,1,1,1,1,406,
1,1,1,1,1,1,1,1,1,1,366,1,1,1,1,1,1,1,1,1,1,1,1,1,1,1,1,1,366,366,366,366,366,1,1,1,1,1,1,1,1,1,1,1,1,1,1,1,1,1,1,1,1,1,1,1,1,1,1,1,1,1,1,1,1,1,1,1,1,1,1,1,1,1,1,1,1,1,1,1,1,1,1,1,1,1,1,1,1,1,1,1,1,1,1,1,1,1,1,1,1,1,1,1,1,366,366,1,1,1,1,1,1,1,1,1,1,1,1,1,1,1,1,1,1,1,1,1,1,1,1,1,1,366,366,366,1,1,1,1,1,1,1,1,1,1,1,1,406,366,
1,1,1,1,1,1,1,1,1,1,366,1,1,1,1,1,1,366,366,366,366,366,366,366,366,366,366,366,366,1,1,1,366,1,1,1,1,1,1,1,1,1,1,1,1,1,1,1,1,1,1,1,1,1,1,1,1,1,1,1,1,1,1,1,1,1,1,1,1,1,1,1,1,1,1,1,1,1,1,1,1,1,1,1,1,1,1,1,1,1,1,1,1,1,1,1,1,1,1,1,1,1,1,1,1,1,366,366,366,366,1,1,1,1,1,1,1,1,1,1,366,366,366,366,366,366,1,1,1,1,366,366,366,1,1,1,1,1,1,1,1,1,1,1,1,1,1,1,366,406,
1,1,1,1,1,1,1,1,1,1,366,366,366,366,366,366,366,366,1,1,1,1,1,1,1,1,1,1,1,1,1,1,366,1,1,1,1,1,1,1,1,1,1,1,1,1,1,1,1,1,1,1,1,1,1,1,1,1,1,1,1,1,1,1,1,1,1,1,1,1,1,1,1,1,1,1,1,1,1,1,1,1,1,1,1,1,1,1,1,1,1,1,1,1,1,1,1,1,1,1,1,1,1,1,1,1,1,1,1,366,366,366,1,1,1,1,366,366,366,366,366,1,1,1,1,366,366,366,366,366,366,1,1,1,1,1,1,1,1,1,1,1,1,1,1,1,1,1,406,366,
1,1,1,1,1,1,1,1,1,1,366,1,1,1,1,1,1,1,1,1,1,1,1,1,1,1,1,1,1,1,1,1,366,1,1,1,1,1,1,1,1,1,1,1,1,1,1,1,1,1,1,1,1,1,1,1,1,1,1,1,1,1,1,1,1,1,1,1,1,1,1,1,1,1,1,1,1,1,1,1,1,1,1,1,1,1,1,1,1,1,1,1,1,1,1,1,1,1,1,1,1,1,1,1,1,1,1,1,1,1,1,366,366,366,366,366,366,366,366,366,366,366,366,366,366,366,366,366,1,1,366,366,366,1,1,1,1,1,1,1,1,1,1,1,1,1,1,1,406,366,
1,1,1,1,1,1,1,1,1,1,366,1,1,1,1,1,1,1,1,1,1,1,1,1,1,1,1,1,1,1,1,1,366,1,1,1,1,1,1,1,1,1,1,1,1,1,1,1,1,1,1,1,1,1,1,1,1,1,1,1,1,1,1,1,1,1,1,1,1,1,1,1,1,1,1,1,1,1,1,1,1,1,1,1,1,1,1,1,1,1,1,1,1,1,1,1,1,1,1,1,1,1,1,1,1,1,1,1,1,1,1,1,366,366,366,1,1,1,1,1,1,1,1,1,366,366,366,366,366,1,1,1,1,1,1,1,1,1,1,1,1,1,1,1,1,1,1,1,366,406,
1,1,1,1,1,1,1,1,1,1,366,1,1,1,1,1,1,1,1,1,1,1,1,1,1,1,1,1,1,1,1,1,1,366,1,1,1,1,1,1,1,1,1,1,1,1,1,1,1,1,1,1,1,1,1,1,1,1,1,1,1,1,1,1,1,1,1,1,1,1,1,1,1,1,1,1,1,1,1,1,1,1,1,1,1,1,1,1,1,1,1,1,1,1,1,1,1,1,1,1,1,1,1,1,1,1,1,1,1,1,366,366,1,1,1,1,1,1,1,1,1,1,1,1,1,1,1,1,366,366,366,1,1,1,1,1,1,1,1,1,1,1,1,1,1,1,1,1,406,366,
1,1,1,1,1,1,1,1,1,1,366,1,1,1,1,1,1,1,1,1,1,1,1,1,1,1,1,1,1,1,1,1,1,366,1,1,1,1,1,1,1,1,1,1,1,1,1,1,1,1,1,1,1,1,1,1,1,1,1,1,1,1,1,1,1,1,1,1,1,1,1,1,1,1,1,1,1,1,1,1,1,1,1,1,1,1,1,1,1,1,1,1,1,1,1,1,1,1,1,1,1,1,1,1,1,1,1,1,1,366,366,1,1,1,1,1,1,1,1,1,1,1,1,1,1,1,1,1,1,1,366,366,366,1,1,1,1,1,1,1,1,1,1,1,1,1,1,1,1,406,
1,1,1,1,1,1,1,1,1,1,366,366,366,1,1,1,1,1,1,1,1,1,1,1,1,1,1,1,1,1,1,1,1,366,1,1,1,1,1,1,1,1,1,1,1,1,1,1,1,1,1,1,1,1,1,1,1,1,1,1,1,1,1,1,1,1,1,1,1,1,1,1,1,1,1,1,1,1,1,1,1,1,1,1,1,1,1,1,1,1,1,1,1,1,1,1,1,1,1,1,1,1,1,1,1,1,1,1,366,366,1,1,1,1,1,1,1,1,1,1,1,1,1,1,1,1,1,1,1,1,1,1,366,366,366,1,1,1,1,1,1,1,1,1,1,1,1,1,1,366,
366,366,366,1,1,1,1,1,1,1,1,1,366,366,1,1,1,1,1,1,1,1,1,1,1,1,1,1,1,1,1,1,1,366,1,1,1,1,1,1,1,1,1,1,1,1,1,1,1,1,1,1,1,1,1,1,1,1,1,1,1,1,1,1,1,1,1,1,1,1,1,1,1,1,1,1,1,1,1,1,1,1,1,1,1,1,1,1,1,1,1,1,1,1,1,1,1,1,1,1,1,1,1,1,1,1,1,366,366,1,1,1,1,1,1,1,1,1,1,1,1,1,1,1,1,1,1,1,1,1,1,1,1,1,366,366,366,1,284,284,1,1,1,1,1,1,1,1,1,406,
1,366,1,1,1,1,1,1,1,1,1,1,1,366,366,366,1,1,1,1,1,1,1,1,1,1,1,1,1,1,1,1,1,366,1,1,1,1,1,1,1,1,1,1,1,1,1,1,1,1,1,1,1,1,1,1,1,1,1,1,1,1,1,1,1,1,1,1,1,1,1,1,1,1,1,1,1,1,1,1,1,1,1,1,1,1,1,1,1,1,1,1,1,1,1,1,1,1,1,1,1,1,1,1,1,1,366,366,1,1,1,1,1,1,1,1,1,1,1,1,1,1,1,1,1,1,1,1,1,1,1,1,1,284,284,284,284,284,284,284,284,284,284,284,1,1,1,1,1,1,
1,366,1,1,1,1,1,1,1,1,1,1,1,1,1,366,366,366,1,1,1,1,1,1,1,1,1,1,1,1,1,1,1,366,366,1,1,1,1,1,1,1,1,1,1,1,1,1,1,1,1,1,1,1,1,1,1,1,1,1,1,1,1,1,1,1,1,1,1,1,1,1,1,1,1,1,1,1,1,1,1,1,1,1,1,1,1,1,1,1,1,1,1,1,1,1,1,1,1,1,1,1,1,1,1,366,366,1,1,1,1,1,1,1,1,1,1,1,1,1,1,1,1,1,1,1,1,1,1,1,1,1,1,284,284,284,284,284,284,284,284,284,284,284,1,1,1,1,1,1,
1,366,1,1,1,1,1,1,1,1,1,1,1,1,1,1,1,1,366,366,366,1,1,1,1,1,1,1,1,1,1,1,1,1,366,1,1,1,1,1,1,1,1,1,1,1,1,1,1,1,1,1,1,1,1,1,1,1,1,1,1,1,1,1,1,1,1,1,1,1,1,1,1,1,1,1,1,1,1,1,1,1,1,1,1,1,1,1,1,1,1,1,1,1,1,1,1,1,1,1,1,1,1,1,1,366,1,1,1,1,1,1,1,1,1,1,1,1,1,1,1,1,1,1,1,1,1,1,1,1,1,1,284,284,284,284,284,284,284,284,284,284,284,284,1,1,1,1,1,1,
1,366,1,1,1,1,1,1,1,1,1,1,1,1,1,1,1,1,1,1,366,366,366,1,1,1,1,1,1,1,1,1,1,1,366,1,1,1,1,1,1,1,1,1,1,1,1,1,1,1,1,1,1,1,1,1,1,1,1,1,1,1,1,1,1,1,1,1,1,1,1,1,1,1,1,1,1,1,1,1,1,366,366,366,366,366,366,366,366,366,366,366,366,366,366,366,366,366,366,366,366,366,366,366,366,366,1,1,1,1,1,1,1,1,1,1,1,1,1,1,1,1,1,1,1,1,1,1,1,1,1,1,284,284,284,284,284,284,284,284,284,284,284,284,1,1,1,1,1,1,
1,366,1,1,1,1,1,1,1,1,1,1,1,1,1,1,1,1,1,1,1,1,366,366,366,366,366,1,1,1,1,1,1,1,1,1,1,1,1,1,1,1,1,1,1,1,1,1,1,1,1,1,1,1,1,1,1,1,1,1,1,1,1,1,1,1,1,1,1,1,1,1,366,366,366,366,366,366,366,366,366,366,1,1,1,1,1,1,1,1,1,1,1,1,1,1,1,1,1,1,1,1,1,1,1,366,1,1,1,1,1,1,1,1,1,1,1,1,1,1,1,1,1,1,1,1,1,1,1,1,1,284,284,284,284,284,284,284,284,284,284,284,284,284,284,1,1,1,1,1,
1,366,1,1,1,1,1,1,1,1,1,1,1,1,1,1,1,1,1,1,1,1,1,1,1,1,366,366,366,366,366,366,366,366,1,1,1,1,1,1,1,1,1,1,1,1,1,1,1,1,1,1,1,1,1,1,1,1,1,1,1,1,1,1,1,1,366,366,366,366,366,366,366,1,1,1,1,1,1,1,1,1,1,1,1,1,1,1,1,1,1,1,1,1,1,1,1,1,1,1,1,1,1,1,366,366,1,1,1,1,1,1,1,1,1,1,1,1,1,1,1,1,1,1,1,1,1,1,1,1,1,284,284,284,284,284,284,284,284,284,284,284,284,284,284,284,1,1,1,406,
1,366,1,1,1,1,1,1,1,1,1,1,1,1,1,1,1,1,1,1,1,1,1,1,1,1,1,1,1,1,1,1,1,366,366,366,366,366,366,366,366,366,366,366,366,366,366,366,366,366,366,366,366,366,366,366,366,366,366,366,366,366,366,366,366,366,366,1,1,1,1,1,1,1,1,1,1,1,1,1,1,1,1,1,1,1,1,1,1,1,1,1,1,1,1,1,1,1,1,1,1,1,1,1,366,1,1,1,1,1,1,1,1,1,1,1,1,1,1,1,1,1,1,1,1,1,1,1,1,1,1,284,284,284,284,284,284,284,284,284,284,284,284,284,284,284,1,1,1,366,
1,1,1,1,1,1,1,1,1,1,1,1,1,1,1,1,1,1,1,1,1,1,1,1,1,1,1,1,1,1,1,1,1,1,1,1,1,1,1,1,1,1,1,1,1,1,1,1,1,1,1,1,1,1,1,1,1,1,1,1,1,1,1,1,1,1,1,1,1,1,1,1,1,1,1,1,1,1,1,1,1,1,1,1,1,1,1,1,1,1,1,1,1,1,1,1,1,1,1,1,1,1,1,1,366,1,1,1,1,1,1,1,1,1,1,1,1,1,1,1,1,1,1,1,1,1,1,1,1,1,1,1,284,284,284,284,284,284,284,284,284,284,284,1,1,1,1,1,1,406,
1,1,1,1,1,1,1,1,1,1,1,1,1,1,1,1,1,1,1,1,1,1,1,1,1,1,1,1,1,1,1,1,1,1,1,1,1,1,1,1,1,1,1,1,1,1,1,1,1,1,1,1,1,1,1,1,1,1,1,1,1,1,1,1,1,1,1,1,1,1,1,1,1,1,1,1,1,1,1,1,1,1,1,1,1,1,1,1,1,1,1,1,1,1,1,1,1,1,1,1,1,1,1,366,366,1,1,1,1,1,1,1,1,1,1,1,1,1,1,1,1,1,1,1,1,1,1,1,1,1,1,1,284,284,284,284,284,284,284,284,284,284,284,1,1,1,1,1,1,1,
1,1,1,1,1,1,1,1,1,1,1,1,1,1,1,1,1,1,1,1,1,1,1,1,1,1,1,1,1,1,1,1,1,1,1,1,1,1,1,1,1,1,1,1,1,1,1,1,1,1,1,1,1,1,1,1,1,1,1,1,1,1,1,1,1,1,1,1,1,1,1,1,1,1,1,1,1,1,1,1,1,1,1,1,1,1,1,1,1,1,1,1,1,1,1,1,1,1,1,1,1,1,1,366,1,1,1,1,1,1,1,1,1,1,1,1,1,1,1,1,1,1,1,1,1,1,1,1,1,1,1,1,1,284,284,284,284,284,284,284,284,284,284,1,1,1,1,1,1,1,
1,1,1,1,1,1,1,1,1,1,1,1,1,1,1,1,1,1,1,1,1,1,1,1,1,1,1,1,1,1,1,1,1,1,1,1,1,1,1,1,1,1,1,1,1,1,1,1,1,1,1,1,1,1,1,1,1,1,1,1,1,1,1,1,1,1,1,1,1,1,1,1,1,1,1,1,1,1,1,1,1,1,1,1,1,1,1,1,1,1,1,1,1,1,1,1,1,1,1,1,1,1,1,366,366,1,1,1,1,1,1,1,1,1,1,1,1,1,1,1,1,1,1,1,1,1,1,1,1,1,1,1,1,284,284,284,284,284,284,284,284,284,284,1,1,1,1,1,1,1,
1,1,1,1,1,1,1,1,1,1,1,1,1,1,1,1,1,1,1,1,1,1,1,1,1,1,1,1,1,1,1,1,1,1,1,1,1,1,1,1,1,1,1,1,1,1,1,1,1,1,1,1,1,1,1,1,1,1,1,1,1,1,1,1,1,1,1,1,1,1,1,1,1,1,1,1,1,1,1,1,1,1,1,1,1,1,1,1,1,1,1,1,1,1,1,1,1,1,1,1,1,1,1,1,366,1,1,1,1,1,1,1,1,1,1,1,1,1,1,1,1,1,1,1,1,1,1,1,1,1,1,1,1,284,284,284,284,284,284,284,284,284,1,1,1,1,1,1,1,1,
1,1,1,1,1,1,1,1,1,1,1,1,1,1,1,1,1,1,1,1,1,1,1,1,1,1,1,1,1,1,1,1,1,1,1,1,1,1,1,1,1,1,1,1,1,1,1,1,1,1,1,1,1,1,1,1,1,1,1,1,1,1,1,1,1,1,1,1,1,1,1,1,1,1,1,1,1,1,1,1,1,1,1,1,1,1,1,1,1,1,1,1,1,1,1,1,1,1,1,1,1,1,1,1,366,366,1,1,1,1,1,1,1,1,1,1,1,1,1,1,1,1,1,1,1,1,1,1,1,1,1,1,1,284,284,284,284,284,284,284,284,284,1,1,1,1,1,1,1,1,
366,1,1,1,1,1,1,1,1,1,1,1,1,1,1,1,1,1,1,1,1,1,1,1,1,1,1,1,1,1,1,1,1,1,1,1,1,1,1,1,1,1,1,1,1,1,1,1,1,1,1,1,1,1,1,1,1,1,1,1,1,1,1,1,1,1,1,1,1,1,1,1,1,1,1,1,1,1,1,1,1,1,1,1,1,1,1,1,1,1,1,1,1,1,1,1,1,1,1,1,1,1,1,1,1,366,1,1,1,1,1,1,1,1,1,1,1,1,1,1,1,1,1,1,1,1,1,1,1,1,1,1,1,1,1,284,284,284,284,284,284,1,1,1,1,1,1,1,1,1,
1,1,1,1,1,1,1,1,1,1,1,1,1,1,1,1,1,1,1,1,1,1,1,1,1,1,1,1,1,1,1,1,1,1,1,1,1,1,1,1,1,1,1,1,1,1,1,1,1,1,1,1,1,1,1,1,1,1,1,1,1,1,1,1,1,1,1,1,1,1,1,1,1,1,1,1,1,1,1,1,1,1,1,1,1,1,1,1,1,1,1,1,1,1,1,1,1,1,1,1,1,1,1,1,1,366,1,1,1,1,1,1,1,1,1,1,1,1,1,1,1,1,1,1,1,1,1,1,1,1,1,1,1,1,1,1,1,1,366,284,284,1,1,1,1,1,1,1,1,1,
366,1,1,1,1,1,1,1,1,1,1,1,1,1,1,1,1,1,1,1,1,1,1,1,1,1,1,1,1,1,1,1,1,1,1,1,1,1,1,1,1,1,1,1,1,1,1,1,1,1,1,1,1,1,1,1,1,1,1,1,1,1,1,1,1,1,1,1,1,1,1,1,1,1,1,1,1,1,1,1,1,1,1,1,1,1,1,1,1,1,1,1,1,1,1,1,1,1,1,1,1,1,1,1,1,366,366,1,1,1,1,1,1,1,1,1,1,1,1,1,1,1,1,1,1,1,1,1,1,1,1,1,1,1,1,1,366,1,1,1,1,1,1,1,1,1,1,1,1,406,
366,1,1,1,1,1,1,1,1,1,1,1,1,1,1,1,1,1,1,1,1,1,1,1,1,1,1,1,1,1,1,1,1,1,1,1,1,1,1,1,1,1,1,1,1,1,1,1,1,1,1,1,1,1,1,1,1,1,1,1,1,1,1,1,1,1,1,1,1,1,1,1,1,1,1,1,1,1,1,1,1,1,1,1,1,1,1,1,1,1,1,1,1,1,1,1,1,1,1,1,1,1,1,1,1,1,366,1,1,1,1,1,1,1,1,1,1,1,1,1,1,1,1,1,1,1,1,1,1,1,1,1,1,1,1,1,366,1,1,1,1,1,1,1,1,1,1,1,1,366,
366,1,1,1,1,1,1,1,1,1,1,1,1,1,1,1,1,1,1,1,1,1,1,1,1,1,1,1,1,1,1,1,1,1,1,1,1,1,1,1,1,1,1,1,1,1,1,1,1,1,1,1,1,1,1,1,1,1,1,1,1,1,1,1,1,1,1,1,1,1,1,1,1,1,1,1,1,1,1,1,1,1,1,1,1,1,1,1,1,1,1,1,1,1,1,1,1,1,1,1,1,1,1,1,1,1,366,366,1,1,1,1,1,1,1,1,1,1,1,1,1,1,1,1,1,1,1,1,1,1,1,1,1,1,366,366,366,1,1,1,1,1,1,1,1,1,1,1,406,406,
1,1,1,1,1,1,1,1,1,1,1,1,1,1,1,1,1,1,1,1,1,1,1,1,1,1,1,1,1,1,1,1,1,1,1,1,1,1,1,1,1,1,1,1,1,1,1,1,1,1,1,1,1,1,1,1,1,1,1,1,1,1,1,1,1,1,1,1,1,1,1,1,1,1,1,1,1,1,1,1,1,1,1,1,1,1,1,1,1,1,1,1,1,1,1,1,1,1,1,1,1,1,1,1,1,1,1,366,1,1,1,1,1,1,1,1,1,1,1,1,1,1,1,1,1,1,1,1,1,1,1,1,1,366,366,1,1,1,1,1,1,1,1,1,1,1,1,1,366,406,
366,366,366,1,1,1,1,1,1,1,1,1,1,1,1,1,1,1,1,1,1,1,1,1,1,1,1,1,1,1,1,1,1,1,1,1,1,1,1,1,1,1,1,1,1,1,1,1,1,1,1,1,1,1,1,1,1,1,1,1,1,1,1,1,1,1,1,1,1,1,1,1,1,1,1,1,1,1,1,1,1,1,1,1,1,1,1,1,1,1,1,1,1,1,1,1,1,1,1,1,1,1,1,1,1,1,1,366,366,1,1,1,1,1,1,1,1,1,1,1,1,1,1,1,1,1,1,1,1,1,1,1,366,366,1,1,1,1,1,1,1,1,1,1,1,1,1,1,406,366,
1,1,366,366,1,1,1,1,1,1,1,1,1,1,1,1,1,1,1,1,1,1,1,1,1,1,1,1,1,1,1,1,1,1,1,1,1,1,1,1,1,1,1,1,1,1,1,1,1,1,1,1,1,1,1,1,1,1,1,1,1,1,1,1,1,1,1,1,1,1,1,1,1,1,1,1,1,1,1,1,1,1,1,1,1,1,1,1,1,1,1,1,1,1,1,1,1,1,1,1,1,1,1,1,1,1,1,1,366,366,366,366,366,366,366,366,366,366,366,366,366,366,366,366,366,366,366,366,366,366,366,366,366,1,1,1,1,1,1,1,1,1,1,1,1,1,1,1,1,1,
485,486,486,486,486,486,486,486,486,486,486,486,486,486,486,486,486,486,486,486,486,486,486,486,486,486,486,486,486,486,486,486,486,486,486,486,486,486,486,486,486,486,486,486,486,486,486,486,486,486,486,486,486,486,486,486,486,486,486,486,486,486,486,486,486,486,486,486,486,486,486,486,486,486,486,486,486,486,486,486,486,486,486,486,486,486,486,486,486,486,486,486,486,486,486,486,486,486,486,486,486,486,486,486,486,486,486,486,486,486,486,486,486,486,486,486,486,486,486,486,486,486,486,486,486,486,486,486,486,486,486,486,486,486,486,486,486,486,486,486,486,486,486,486,486,486,486,486,486,487,
565,566,566,566,566,566,566,566,566,566,566,566,566,566,566,566,566,566,566,566,566,566,566,566,566,566,566,566,566,566,566,566,566,566,566,566,566,566,566,566,566,566,566,566,566,566,566,566,566,566,566,566,566,566,566,566,566,566,566,566,566,566,566,566,566,566,566,566,566,566,566,566,566,566,566,566,566,566,566,566,566,566,566,566,566,566,566,566,566,566,566,566,566,566,566,566,566,566,566,566,566,566,566,566,566,566,566,566,566,566,566,566,566,566,566,566,566,566,566,566,566,566,566,566,566,566,566,566,566,566,566,566,566,566,566,566,566,566,566,566,566,566,566,566,566,566,566,566,566,567
</data>
 </layer>
 <objectgroup id="4" name="gamelayer">
  <object id="14" x="0" y="0.0434783" width="800" height="600"/>
  <object id="27" x="800" y="0.0909091" width="800" height="600"/>
  <object id="29" x="1600.25" y="0.125" width="800" height="600"/>
  <object id="30" x="0" y="600" width="800" height="600"/>
  <object id="31" x="1600" y="600" width="800" height="600"/>
  <object id="32" x="800" y="600" width="800" height="600"/>
  <object id="33" x="0" y="1200" width="800" height="600"/>
  <object id="34" x="800" y="1200" width="800" height="600"/>
  <object id="35" x="1600" y="1200" width="800" height="600"/>
  <object id="36" x="0" y="1800" width="800" height="600"/>
  <object id="37" x="1600" y="2400" width="800" height="600"/>
  <object id="38" x="1600" y="1800" width="800" height="600">
   <polygon points="0,0 800,0 800,600 0,600"/>
  </object>
  <object id="39" x="800" y="2400" width="800" height="600"/>
  <object id="40" x="0" y="2400" width="800" height="600"/>
  <object id="41" x="800" y="1800" width="800" height="600"/>
 </objectgroup>
 <objectgroup id="2" name="Environment">
  <object id="113" gid="407" x="0" y="16" width="16" height="16"/>
  <object id="115" gid="407" x="0" y="32" width="16" height="16"/>
  <object id="129" gid="487" x="16" y="16" width="16" height="16"/>
  <object id="130" gid="487" x="16" y="32" width="16" height="16"/>
  <object id="132" gid="487" x="16" y="48" width="16" height="16"/>
  <object id="254" gid="445" x="0" y="16" width="16" height="16"/>
  <object id="255" gid="446" x="16" y="16" width="16" height="16"/>
  <object id="256" gid="446" x="32" y="16" width="16" height="16"/>
  <object id="257" gid="446" x="48" y="16" width="16" height="16"/>
  <object id="258" gid="446" x="64" y="16" width="16" height="16"/>
  <object id="259" gid="446" x="80" y="16" width="16" height="16"/>
  <object id="260" gid="446" x="112" y="16" width="16" height="16"/>
  <object id="261" gid="446" x="96" y="16" width="16" height="16"/>
  <object id="262" gid="446" x="128" y="16" width="16" height="16"/>
  <object id="263" gid="446" x="144" y="32" width="16" height="16"/>
  <object id="264" gid="446" x="160" y="32" width="16" height="16"/>
  <object id="265" gid="446" x="176" y="32" width="16" height="16"/>
  <object id="266" gid="446" x="192" y="32" width="16" height="16"/>
  <object id="267" gid="446" x="208" y="32" width="16" height="16"/>
  <object id="268" gid="446" x="224" y="16" width="16" height="16"/>
  <object id="269" gid="446" x="240" y="32" width="16" height="16"/>
  <object id="271" gid="446" x="272" y="48" width="16" height="16"/>
  <object id="272" gid="446" x="288" y="48" width="16" height="16"/>
  <object id="273" gid="446" x="304" y="48" width="16" height="16"/>
  <object id="274" gid="446" x="320" y="48" width="16" height="16"/>
  <object id="275" gid="446" x="336" y="32" width="16" height="16"/>
  <object id="276" gid="446" x="352" y="32" width="16" height="16"/>
  <object id="277" gid="446" x="384" y="32" width="16" height="16"/>
  <object id="278" gid="446" x="368" y="32" width="16" height="16"/>
  <object id="279" gid="446" x="400" y="32" width="16" height="16"/>
  <object id="280" gid="446" x="416" y="32" width="16" height="16"/>
  <object id="282" gid="446" x="448" y="16" width="16" height="16"/>
  <object id="283" gid="446" x="464" y="16" width="16" height="16"/>
  <object id="284" gid="446" x="496" y="16" width="16" height="16"/>
  <object id="285" gid="446" x="480" y="16" width="16" height="16"/>
  <object id="286" gid="446" x="512" y="16" width="16" height="16"/>
  <object id="287" gid="446" x="576" y="16" width="16" height="16"/>
  <object id="288" gid="446" x="592" y="32" width="16" height="16"/>
  <object id="289" gid="446" x="608" y="32" width="16" height="16"/>
  <object id="291" gid="446" x="624" y="32" width="16" height="16"/>
  <object id="292" gid="446" x="640" y="48" width="16" height="16"/>
  <object id="293" gid="446" x="656" y="64" width="16" height="16"/>
  <object id="294" gid="446" x="672" y="80" width="16" height="16"/>
  <object id="295" gid="446" x="688" y="80" width="16" height="16"/>
  <object id="296" gid="446" x="704" y="80" width="16" height="16"/>
  <object id="297" gid="446" x="720" y="80" width="16" height="16"/>
  <object id="298" gid="446" x="736" y="80" width="16" height="16"/>
  <object id="299" gid="446" x="752" y="80" width="16" height="16"/>
  <object id="300" gid="446" x="768" y="80" width="16" height="16"/>
  <object id="301" gid="446" x="784" y="96" width="16" height="16"/>
  <object id="302" gid="406" x="144" y="16" width="16" height="16"/>
  <object id="303" gid="406" x="160" y="16" width="16" height="16"/>
  <object id="304" gid="406" x="176" y="16" width="16" height="16"/>
  <object id="305" gid="406" x="192" y="16" width="16" height="16"/>
  <object id="306" gid="406" x="208" y="16" width="16" height="16"/>
  <object id="307" gid="406" x="240" y="16" width="16" height="16"/>
  <object id="309" gid="406" x="256" y="32" width="16" height="16"/>
  <object id="310" gid="406" x="272" y="32" width="16" height="16"/>
  <object id="311" gid="406" x="272" y="32" width="16" height="16"/>
  <object id="312" gid="406" x="272" y="16" width="16" height="16"/>
  <object id="313" gid="406" x="288" y="16" width="16" height="16"/>
  <object id="314" gid="406" x="288" y="32" width="16" height="16"/>
  <object id="315" gid="406" x="304" y="32" width="16" height="16"/>
  <object id="316" gid="406" x="304" y="16" width="16" height="16"/>
  <object id="317" gid="406" x="320" y="32" width="16" height="16"/>
  <object id="318" gid="406" x="320" y="16" width="16" height="16"/>
  <object id="319" gid="406" x="336" y="16" width="16" height="16"/>
  <object id="320" gid="406" x="352" y="16" width="16" height="16"/>
  <object id="321" gid="406" x="368" y="16" width="16" height="16"/>
  <object id="322" gid="406" x="384" y="16" width="16" height="16"/>
  <object id="323" gid="406" x="400" y="16" width="16" height="16"/>
  <object id="324" gid="406" x="416" y="16" width="16" height="16"/>
  <object id="325" gid="406" x="432" y="16" width="16" height="16"/>
  <object id="326" gid="406" x="592" y="16" width="16" height="16"/>
  <object id="327" gid="406" x="608" y="16" width="16" height="16"/>
  <object id="328" gid="406" x="624" y="16" width="16" height="16"/>
  <object id="329" gid="406" x="784" y="80" width="16" height="16"/>
  <object id="330" gid="406" x="784" y="64" width="16" height="16"/>
  <object id="331" gid="406" x="784" y="48" width="16" height="16"/>
  <object id="332" gid="406" x="784" y="32" width="16" height="16"/>
  <object id="333" gid="406" x="784" y="16" width="16" height="16"/>
  <object id="334" gid="406" x="768" y="16" width="16" height="16"/>
  <object id="335" gid="406" x="752" y="16" width="16" height="16"/>
  <object id="336" gid="406" x="736" y="16" width="16" height="16"/>
  <object id="337" gid="406" x="720" y="16" width="16" height="16"/>
  <object id="338" gid="406" x="704" y="16" width="16" height="16"/>
  <object id="339" gid="406" x="688" y="16" width="16" height="16"/>
  <object id="340" gid="406" x="672" y="16" width="16" height="16"/>
  <object id="341" gid="406" x="672" y="16" width="16" height="16"/>
  <object id="342" gid="406" x="656" y="16" width="16" height="16"/>
  <object id="343" gid="406" x="640" y="16" width="16" height="16"/>
  <object id="344" gid="406" x="640" y="32" width="16" height="16"/>
  <object id="345" gid="406" x="672" y="32" width="16" height="16"/>
  <object id="346" gid="406" x="656" y="32" width="16" height="16"/>
  <object id="347" gid="406" x="688" y="32" width="16" height="16"/>
  <object id="348" gid="406" x="704" y="32" width="16" height="16"/>
  <object id="349" gid="406" x="736" y="32" width="16" height="16"/>
  <object id="350" gid="406" x="720" y="32" width="16" height="16"/>
  <object id="351" gid="406" x="768" y="32" width="16" height="16"/>
  <object id="352" gid="406" x="752" y="32" width="16" height="16"/>
  <object id="353" gid="406" x="656" y="48" width="16" height="16"/>
  <object id="354" gid="406" x="672" y="48" width="16" height="16"/>
  <object id="355" gid="406" x="688" y="48" width="16" height="16"/>
  <object id="356" gid="406" x="704" y="48" width="16" height="16"/>
  <object id="357" gid="406" x="720" y="48" width="16" height="16"/>
  <object id="358" gid="406" x="736" y="48" width="16" height="16"/>
  <object id="359" gid="406" x="752" y="48" width="16" height="16"/>
  <object id="360" gid="406" x="768" y="48" width="16" height="16"/>
  <object id="361" gid="406" x="768" y="64" width="16" height="16"/>
  <object id="362" gid="406" x="752" y="64" width="16" height="16"/>
  <object id="363" gid="406" x="736" y="64" width="16" height="16"/>
  <object id="364" gid="406" x="704" y="64" width="16" height="16"/>
  <object id="365" gid="406" x="688" y="64" width="16" height="16"/>
  <object id="366" gid="406" x="672" y="64" width="16" height="16"/>
  <object id="367" gid="406" x="720" y="64" width="16" height="16"/>
  <object id="368" gid="485" x="0" y="32" width="16" height="16"/>
  <object id="369" gid="485" x="16" y="32" width="16" height="16"/>
  <object id="370" gid="485" x="32" y="32" width="16" height="16"/>
  <object id="371" gid="485" x="144" y="48" width="16" height="16"/>
  <object id="372" gid="485" x="224" y="32" width="16" height="16"/>
  <object id="373" gid="485" x="240" y="48" width="16" height="16"/>
  <object id="374" gid="485" x="256" y="64" width="16" height="16"/>
  <object id="375" gid="485" x="272" y="64" width="16" height="16"/>
  <object id="376" gid="485" x="336" y="48" width="16" height="16"/>
  <object id="377" gid="485" x="352" y="48" width="16" height="16"/>
  <object id="378" gid="485" x="448" y="32" width="16" height="16"/>
  <object id="379" gid="485" x="464" y="32" width="16" height="16"/>
  <object id="380" gid="485" x="528" y="16" width="16" height="16"/>
  <object id="381" gid="485" x="576" y="32" width="16" height="16"/>
  <object id="382" gid="485" x="592" y="48" width="16" height="16"/>
  <object id="383" gid="485" x="640" y="64" width="16" height="16"/>
  <object id="384" gid="485" x="656" y="80" width="16" height="16"/>
  <object id="385" gid="485" x="672" y="96" width="16" height="16"/>
  <object id="386" gid="485" x="688" y="96" width="16" height="16"/>
  <object id="387" gid="485" x="784" y="112" width="16" height="16"/>
  <object id="388" gid="486" x="720" y="96" width="16" height="16"/>
  <object id="389" gid="486" x="704" y="96" width="16" height="16"/>
  <object id="390" gid="486" x="736" y="96" width="16" height="16"/>
  <object id="391" gid="486" x="752" y="96" width="16" height="16"/>
  <object id="392" gid="486" x="608" y="48" width="16" height="16"/>
  <object id="393" gid="486" x="544" y="16" width="16" height="16"/>
  <object id="394" gid="486" x="464" y="32" width="16" height="16"/>
  <object id="395" gid="486" x="480" y="32" width="16" height="16"/>
  <object id="396" gid="486" x="368" y="48" width="16" height="16"/>
  <object id="397" gid="486" x="384" y="48" width="16" height="16"/>
  <object id="398" gid="486" x="400" y="48" width="16" height="16"/>
  <object id="399" gid="486" x="288" y="64" width="16" height="16"/>
  <object id="400" gid="486" x="176" y="48" width="16" height="16"/>
  <object id="401" gid="486" x="192" y="48" width="16" height="16"/>
  <object id="402" gid="486" x="160" y="48" width="16" height="16"/>
  <object id="403" gid="486" x="48" y="32" width="16" height="16"/>
  <object id="404" gid="486" x="64" y="32" width="16" height="16"/>
  <object id="405" gid="486" x="80" y="32" width="16" height="16"/>
  <object id="406" gid="486" x="96" y="32" width="16" height="16"/>
  <object id="407" gid="487" x="112" y="32" width="16" height="16"/>
  <object id="408" gid="487" x="128" y="32" width="16" height="16"/>
  <object id="409" gid="486" x="112" y="32" width="16" height="16"/>
  <object id="410" gid="527" x="112" y="32" width="16" height="16"/>
  <object id="411" gid="567" x="112" y="32" width="16" height="16"/>
  <object id="412" gid="527" x="96" y="32" width="16" height="16"/>
  <object id="413" gid="527" x="112" y="32" width="16" height="16"/>
  <object id="414" gid="527" x="208" y="48" width="16" height="16"/>
  <object id="415" gid="527" x="304" y="64" width="16" height="16"/>
  <object id="416" gid="527" x="320" y="64" width="16" height="16"/>
  <object id="417" gid="527" x="432" y="48" width="16" height="16"/>
  <object id="418" gid="527" x="512" y="32" width="16" height="16"/>
  <object id="419" gid="527" x="560" y="16" width="16" height="16"/>
  <object id="420" gid="527" x="624" y="48" width="16" height="16"/>
  <object id="421" gid="527" x="768" y="96" width="16" height="16"/>
  <object id="422" gid="526" x="736" y="96" width="16" height="16"/>
  <object id="423" gid="526" x="704" y="96" width="16" height="16"/>
  <object id="424" gid="526" x="608" y="48" width="16" height="16"/>
  <object id="426" gid="526" x="496" y="32" width="16" height="16"/>
  <object id="427" gid="526" x="416" y="48" width="16" height="16"/>
  <object id="428" gid="526" x="384" y="48" width="16" height="16"/>
  <object id="429" gid="526" x="176" y="48" width="16" height="16"/>
  <object id="430" gid="526" x="48" y="32" width="16" height="16"/>
  <object id="431" gid="526" x="16" y="32" width="16" height="16"/>
  <object id="432" gid="525" x="288" y="64" width="16" height="16"/>
  <object id="433" gid="525" x="336" y="48" width="16" height="16"/>
  <object id="434" gid="486" x="272" y="64" width="16" height="16"/>
  <object id="435" gid="565" x="16" y="48" width="16" height="16"/>
  <object id="436" gid="566" x="32" y="48" width="16" height="16"/>
  <object id="437" gid="566" x="48" y="48" width="16" height="16"/>
  <object id="438" gid="566" x="64" y="48" width="16" height="16"/>
  <object id="439" gid="566" x="80" y="48" width="16" height="16"/>
  <object id="440" gid="566" x="96" y="48" width="16" height="16"/>
  <object id="441" gid="566" x="112" y="48" width="16" height="16"/>
  <object id="443" gid="566" x="160" y="64" width="16" height="16"/>
  <object id="444" gid="566" x="176" y="64" width="16" height="16"/>
  <object id="445" gid="566" x="192" y="64" width="16" height="16"/>
  <object id="448" gid="566" x="224" y="48" width="16" height="16"/>
  <object id="457" gid="565" x="240" y="64" width="16" height="16"/>
  <object id="458" gid="567" x="320" y="80" width="16" height="16"/>
  <object id="459" gid="566" x="304" y="80" width="16" height="16"/>
  <object id="460" gid="566" x="288" y="80" width="16" height="16"/>
  <object id="461" gid="566" x="272" y="80" width="16" height="16"/>
  <object id="462" gid="565" x="256" y="80" width="16" height="16"/>
  <object id="464" gid="566" x="336" y="64" width="16" height="16"/>
  <object id="465" gid="566" x="352" y="64" width="16" height="16"/>
  <object id="466" gid="566" x="368" y="64" width="16" height="16"/>
  <object id="467" gid="566" x="384" y="64" width="16" height="16"/>
  <object id="468" gid="566" x="400" y="64" width="16" height="16"/>
  <object id="469" gid="566" x="416" y="64" width="16" height="16"/>
  <object id="470" gid="567" x="432" y="64" width="16" height="16"/>
  <object id="471" gid="566" x="448" y="48" width="16" height="16"/>
  <object id="472" gid="566" x="464" y="48" width="16" height="16"/>
  <object id="473" gid="566" x="480" y="48" width="16" height="16"/>
  <object id="474" gid="566" x="496" y="48" width="16" height="16"/>
  <object id="479" gid="567" x="512" y="48" width="16" height="16"/>
  <object id="480" gid="566" x="528" y="32" width="16" height="16"/>
  <object id="481" gid="566" x="544" y="32" width="16" height="16"/>
  <object id="483" gid="566" x="560" y="32" width="16" height="16"/>
  <object id="484" gid="565" x="576" y="48" width="16" height="16"/>
  <object id="485" gid="565" x="592" y="64" width="16" height="16"/>
  <object id="486" gid="565" x="640" y="80" width="16" height="16"/>
  <object id="487" gid="565" x="656" y="96" width="16" height="16"/>
  <object id="488" gid="566" x="608" y="64" width="16" height="16"/>
  <object id="489" gid="566" x="624" y="64" width="16" height="16"/>
  <object id="490" gid="566" x="768" y="112" width="16" height="16"/>
  <object id="491" gid="566" x="752" y="112" width="16" height="16"/>
  <object id="492" gid="566" x="736" y="112" width="16" height="16"/>
  <object id="493" gid="566" x="720" y="112" width="16" height="16"/>
  <object id="494" gid="566" x="704" y="112" width="16" height="16"/>
  <object id="495" gid="566" x="688" y="112" width="16" height="16"/>
  <object id="497" gid="565" x="672" y="112" width="16" height="16"/>
  <object id="498" gid="565" x="784" y="128" width="16" height="16"/>
  <object id="499" gid="565" x="0" y="48" width="16" height="16"/>
  <object id="500" gid="566" x="128" y="48" width="16" height="16"/>
  <object id="501" gid="565" x="144" y="64" width="16" height="16"/>
  <object id="502" gid="567" x="208" y="64" width="16" height="16"/>
  <object id="522" gid="366" x="256" y="16" width="16" height="16"/>
  <object id="523" gid="366" x="176" y="16" width="16" height="16"/>
  <object id="524" gid="366" x="272" y="32" width="16" height="16"/>
  <object id="525" gid="366" x="288" y="32" width="16" height="16"/>
  <object id="526" gid="366" x="288" y="16" width="16" height="16"/>
  <object id="527" gid="366" x="368" y="16" width="16" height="16"/>
  <object id="528" gid="366" x="384" y="16" width="16" height="16"/>
  <object id="529" gid="366" x="400" y="16" width="16" height="16"/>
  <object id="530" gid="366" x="688" y="32" width="16" height="16"/>
  <object id="536" gid="366" x="704" y="16" width="16" height="16"/>
  <object id="537" gid="366" x="720" y="32" width="16" height="16"/>
  <object id="538" gid="366" x="720" y="48" width="16" height="16"/>
  <object id="539" gid="366" x="752" y="32" width="16" height="16"/>
  <object id="540" gid="366" x="752" y="48" width="16" height="16"/>
  <object id="541" gid="366" x="768" y="16" width="16" height="16"/>
  <object id="542" gid="366" x="784" y="48" width="16" height="16"/>
  <object id="550" gid="445" x="256" y="48" width="16" height="16"/>
  <object id="569" gid="365" x="256" y="41" width="16" height="16"/>
  <object id="570" gid="447" x="320" y="48" width="16" height="16"/>
  <object id="572" gid="447" x="208" y="32" width="16" height="16"/>
  <object id="575" gid="447" x="512" y="16" width="16" height="16"/>
  <object id="576" gid="445" x="784" y="96" width="16" height="16"/>
  <object id="577" gid="445" x="672" y="80" width="16" height="16"/>
  <object id="578" gid="445" x="656" y="64" width="16" height="16"/>
  <object id="579" gid="445" x="640" y="48" width="16" height="16"/>
  <object id="580" gid="445" x="592" y="32" width="16" height="16"/>
  <object id="581" gid="445" x="576" y="16" width="16" height="16"/>
  <object id="582" gid="445" x="240" y="32" width="16" height="16"/>
  <object id="584" gid="365" x="240" y="25" width="16" height="16"/>
  <object id="585" gid="445" x="144" y="32" width="16" height="16"/>
  <object id="586" gid="365" x="144" y="25" width="16" height="16"/>
  <object id="587" gid="367" x="208" y="25.0909" width="16" height="16"/>
  <object id="588" gid="367" x="320" y="41" width="16" height="16"/>
  <object id="590" gid="447" x="432" y="32" width="16" height="16"/>
  <object id="591" gid="367" x="432" y="25" width="16" height="16"/>
  <object id="598" gid="365" x="592" y="25" width="16" height="16"/>
  <object id="599" gid="365" x="640" y="41" width="16" height="16"/>
  <object id="600" gid="365" x="656" y="57" width="16" height="16"/>
  <object id="601" gid="365" x="672" y="73" width="16" height="16"/>
  <object id="602" gid="365" x="784" y="89" width="16" height="16"/>
  <object id="603" gid="687" x="768" y="80" width="16" height="16"/>
  <object id="604" gid="687" x="736" y="80" width="16" height="16"/>
  <object id="605" gid="687" x="704" y="80" width="16" height="16"/>
  <object id="606" gid="686" x="688" y="80" width="16" height="16"/>
  <object id="607" gid="686" x="720" y="80" width="16" height="16"/>
  <object id="608" gid="686" x="752" y="80" width="16" height="16"/>
  <object id="609" gid="646" x="688" y="64" width="16" height="16"/>
  <object id="612" gid="647" x="768" y="64" width="16" height="16"/>
  <object id="615" gid="647" x="720" y="48" width="16" height="16"/>
  <object id="616" gid="647" x="752" y="48" width="16" height="16"/>
  <object id="617" gid="646" x="736" y="48" width="16" height="16"/>
  <object id="618" gid="646" x="704" y="48" width="16" height="16"/>
  <object id="619" gid="686" x="704" y="64" width="16" height="16"/>
  <object id="620" gid="686" x="736" y="64" width="16" height="16"/>
  <object id="621" gid="687" x="720" y="64" width="16" height="16"/>
  <object id="623" gid="687" x="752" y="64" width="16" height="16"/>
  <object id="624" gid="647" x="704" y="64" width="16" height="16"/>
  <object id="625" gid="647" x="736" y="64" width="16" height="16"/>
  <object id="626" gid="646" x="752" y="64" width="16" height="16"/>
  <object id="627" gid="646" x="720" y="64" width="16" height="16"/>
  <object id="656" gid="1450" x="136" y="268" width="160" height="174"/>
  <object id="657" gid="1450" x="504" y="535" width="160" height="174"/>
  <object id="658" gid="1460" x="421" y="241" width="56" height="56"/>
  <object id="659" gid="1460" x="161" y="461" width="56" height="56"/>
  <object id="660" gid="1460" x="660" y="553" width="56" height="56"/>
  <object id="668" gid="446" x="800" y="96" width="16" height="16"/>
  <object id="669" gid="446" x="816" y="96" width="16" height="16"/>
  <object id="673" gid="446" x="880" y="32" width="16" height="16"/>
  <object id="674" gid="446" x="912" y="32" width="16" height="16"/>
  <object id="675" gid="446" x="896" y="32" width="16" height="16"/>
  <object id="681" gid="446" x="1072" y="80" width="16" height="16"/>
  <object id="683" gid="446" x="1088" y="80" width="16" height="16"/>
  <object id="685" gid="446" x="1120" y="64" width="16" height="16"/>
  <object id="686" gid="446" x="1136" y="64" width="16" height="16"/>
  <object id="687" gid="446" x="1152" y="64" width="16" height="16"/>
  <object id="689" gid="446" x="1184" y="48" width="16" height="16"/>
  <object id="691" gid="446" x="1216" y="32" width="16" height="16"/>
  <object id="692" gid="446" x="1232" y="32" width="16" height="16"/>
  <object id="693" gid="446" x="1264" y="32" width="16" height="16"/>
  <object id="694" gid="446" x="1248" y="32" width="16" height="16"/>
  <object id="695" gid="446" x="1280" y="32" width="16" height="16"/>
  <object id="697" gid="446" x="1312" y="16" width="16" height="16"/>
  <object id="698" gid="446" x="1328" y="16" width="16" height="16"/>
  <object id="699" gid="446" x="1344" y="16" width="16" height="16"/>
  <object id="700" gid="446" x="1360" y="16" width="16" height="16"/>
  <object id="701" gid="446" x="1392" y="16" width="16" height="16"/>
  <object id="702" gid="446" x="1376" y="16" width="16" height="16"/>
  <object id="705" gid="446" x="1440" y="64" width="16" height="16"/>
  <object id="706" gid="446" x="1456" y="64" width="16" height="16"/>
  <object id="708" gid="446" x="1504" y="80" width="16" height="16"/>
  <object id="709" gid="446" x="1488" y="80" width="16" height="16"/>
  <object id="711" gid="446" x="1536" y="64" width="16" height="16"/>
  <object id="712" gid="446" x="1552" y="64" width="16" height="16"/>
  <object id="714" gid="446" x="1584" y="48" width="16" height="16"/>
  <object id="715" gid="406" x="800" y="16" width="16" height="16"/>
  <object id="716" gid="406" x="800" y="32" width="16" height="16"/>
  <object id="717" gid="406" x="800" y="48" width="16" height="16"/>
  <object id="718" gid="406" x="800" y="64" width="16" height="16"/>
  <object id="719" gid="406" x="800" y="80" width="16" height="16"/>
  <object id="720" gid="406" x="816" y="80" width="16" height="16"/>
  <object id="721" gid="406" x="832" y="80" width="16" height="16"/>
  <object id="722" gid="406" x="848" y="64" width="16" height="16"/>
  <object id="723" gid="406" x="832" y="64" width="16" height="16"/>
  <object id="724" gid="406" x="848" y="48" width="16" height="16"/>
  <object id="725" gid="406" x="832" y="48" width="16" height="16"/>
  <object id="726" gid="406" x="816" y="48" width="16" height="16"/>
  <object id="727" gid="406" x="816" y="64" width="16" height="16"/>
  <object id="728" gid="406" x="816" y="32" width="16" height="16"/>
  <object id="729" gid="406" x="816" y="16" width="16" height="16"/>
  <object id="730" gid="406" x="832" y="16" width="16" height="16"/>
  <object id="731" gid="406" x="832" y="32" width="16" height="16"/>
  <object id="732" gid="406" x="848" y="32" width="16" height="16"/>
  <object id="733" gid="406" x="864" y="32" width="16" height="16"/>
  <object id="734" gid="406" x="848" y="16" width="16" height="16"/>
  <object id="735" gid="406" x="864" y="16" width="16" height="16"/>
  <object id="736" gid="406" x="880" y="16" width="16" height="16"/>
  <object id="737" gid="406" x="896" y="16" width="16" height="16"/>
  <object id="738" gid="406" x="912" y="16" width="16" height="16"/>
  <object id="740" gid="406" x="928" y="16" width="16" height="16"/>
  <object id="741" gid="366" x="816" y="64" width="16" height="16"/>
  <object id="742" gid="366" x="816" y="48" width="16" height="16"/>
  <object id="743" gid="366" x="800" y="48" width="16" height="16"/>
  <object id="744" gid="366" x="816" y="16" width="16" height="16"/>
  <object id="745" gid="366" x="832" y="32" width="16" height="16"/>
  <object id="746" gid="366" x="848" y="16" width="16" height="16"/>
  <object id="748" gid="366" x="832" y="80" width="16" height="16"/>
  <object id="749" gid="366" x="1040" y="48" width="16" height="16"/>
  <object id="750" gid="366" x="1056" y="64" width="16" height="16"/>
  <object id="751" gid="366" x="1072" y="48" width="16" height="16"/>
  <object id="752" gid="366" x="1072" y="32" width="16" height="16"/>
  <object id="753" gid="366" x="1088" y="16" width="16" height="16"/>
  <object id="754" gid="366" x="1040" y="16" width="16" height="16"/>
  <object id="758" gid="366" x="1120" y="16" width="16" height="16"/>
  <object id="759" gid="366" x="1136" y="16" width="16" height="16"/>
  <object id="760" gid="366" x="1152" y="16" width="16" height="16"/>
  <object id="761" gid="366" x="1136" y="32" width="16" height="16"/>
  <object id="762" gid="366" x="1136" y="48" width="16" height="16"/>
  <object id="763" gid="366" x="1184" y="32" width="16" height="16"/>
  <object id="764" gid="366" x="1216" y="16" width="16" height="16"/>
  <object id="765" gid="366" x="1232" y="16" width="16" height="16"/>
  <object id="766" gid="366" x="1264" y="16" width="16" height="16"/>
  <object id="767" gid="406" x="1296" y="16" width="16" height="16"/>
  <object id="768" gid="406" x="1280" y="16" width="16" height="16"/>
  <object id="769" gid="406" x="1248" y="16" width="16" height="16"/>
  <object id="770" gid="406" x="1200" y="32" width="16" height="16"/>
  <object id="771" gid="406" x="1200" y="16" width="16" height="16"/>
  <object id="772" gid="406" x="1184" y="16" width="16" height="16"/>
  <object id="773" gid="406" x="1168" y="16" width="16" height="16"/>
  <object id="774" gid="406" x="1168" y="32" width="16" height="16"/>
  <object id="775" gid="406" x="1152" y="32" width="16" height="16"/>
  <object id="776" gid="406" x="1152" y="48" width="16" height="16"/>
  <object id="777" gid="406" x="1168" y="48" width="16" height="16"/>
  <object id="778" gid="406" x="1120" y="48" width="16" height="16"/>
  <object id="779" gid="406" x="1120" y="32" width="16" height="16"/>
  <object id="780" gid="406" x="1104" y="32" width="16" height="16"/>
  <object id="781" gid="406" x="1104" y="16" width="16" height="16"/>
  <object id="782" gid="406" x="1088" y="32" width="16" height="16"/>
  <object id="783" gid="406" x="1088" y="48" width="16" height="16"/>
  <object id="784" gid="406" x="1104" y="48" width="16" height="16"/>
  <object id="785" gid="406" x="1104" y="64" width="16" height="16"/>
  <object id="786" gid="406" x="1088" y="64" width="16" height="16"/>
  <object id="787" gid="406" x="1072" y="64" width="16" height="16"/>
  <object id="788" gid="406" x="1056" y="48" width="16" height="16"/>
  <object id="789" gid="406" x="1040" y="32" width="16" height="16"/>
  <object id="790" gid="406" x="1040" y="32" width="16" height="16"/>
  <object id="792" gid="406" x="1024" y="16" width="16" height="16"/>
  <object id="793" gid="406" x="1056" y="16" width="16" height="16"/>
  <object id="794" gid="406" x="1056" y="32" width="16" height="16"/>
  <object id="795" gid="406" x="1072" y="16" width="16" height="16"/>
  <object id="796" gid="406" x="1424" y="48" width="16" height="16"/>
  <object id="797" gid="406" x="1424" y="32" width="16" height="16"/>
  <object id="798" gid="406" x="1408" y="16" width="16" height="16"/>
  <object id="799" gid="406" x="1424" y="16" width="16" height="16"/>
  <object id="800" gid="406" x="1440" y="16" width="16" height="16"/>
  <object id="801" gid="406" x="1440" y="32" width="16" height="16"/>
  <object id="802" gid="406" x="1440" y="32" width="16" height="16"/>
  <object id="803" gid="406" x="1456" y="48" width="16" height="16"/>
  <object id="804" gid="406" x="1472" y="48" width="16" height="16"/>
  <object id="805" gid="406" x="1504" y="48" width="16" height="16"/>
  <object id="806" gid="406" x="1536" y="48" width="16" height="16"/>
  <object id="807" gid="406" x="1568" y="32" width="16" height="16"/>
  <object id="808" gid="406" x="1520" y="16" width="16" height="16"/>
  <object id="809" gid="406" x="1488" y="32" width="16" height="16"/>
  <object id="810" gid="406" x="1472" y="32" width="16" height="16"/>
  <object id="811" gid="366" x="1456" y="16" width="16" height="16"/>
  <object id="812" gid="366" x="1456" y="32" width="16" height="16"/>
  <object id="813" gid="366" x="1472" y="16" width="16" height="16"/>
  <object id="814" gid="366" x="1440" y="48" width="16" height="16"/>
  <object id="815" gid="366" x="1472" y="64" width="16" height="16"/>
  <object id="816" gid="366" x="1488" y="64" width="16" height="16"/>
  <object id="817" gid="366" x="1488" y="48" width="16" height="16"/>
  <object id="818" gid="366" x="1504" y="64" width="16" height="16"/>
  <object id="819" gid="366" x="1520" y="64" width="16" height="16"/>
  <object id="820" gid="366" x="1520" y="48" width="16" height="16"/>
  <object id="821" gid="366" x="1504" y="32" width="16" height="16"/>
  <object id="822" gid="366" x="1488" y="16" width="16" height="16"/>
  <object id="823" gid="366" x="1536" y="32" width="16" height="16"/>
  <object id="824" gid="366" x="1536" y="16" width="16" height="16"/>
  <object id="826" gid="366" x="1552" y="32" width="16" height="16"/>
  <object id="827" gid="366" x="1552" y="48" width="16" height="16"/>
  <object id="828" gid="406" x="1568" y="48" width="16" height="16"/>
  <object id="829" gid="406" x="1584" y="32" width="16" height="16"/>
  <object id="830" gid="406" x="1584" y="16" width="16" height="16"/>
  <object id="831" gid="406" x="1568" y="16" width="16" height="16"/>
  <object id="832" gid="406" x="1552" y="16" width="16" height="16"/>
  <object id="833" gid="406" x="1520" y="32" width="16" height="16"/>
  <object id="834" gid="406" x="1504" y="16" width="16" height="16"/>
  <object id="835" gid="566" x="960" y="16" width="16" height="16"/>
  <object id="836" gid="566" x="976" y="16" width="16" height="16"/>
  <object id="837" gid="566" x="992" y="16" width="16" height="16"/>
  <object id="839" gid="566" x="800" y="128" width="16" height="16"/>
  <object id="840" gid="566" x="816" y="128" width="16" height="16"/>
  <object id="843" gid="566" x="880" y="64" width="16" height="16"/>
  <object id="844" gid="566" x="896" y="64" width="16" height="16"/>
  <object id="845" gid="566" x="912" y="64" width="16" height="16"/>
  <object id="851" gid="566" x="1072" y="112" width="16" height="16"/>
  <object id="852" gid="566" x="1088" y="112" width="16" height="16"/>
  <object id="854" gid="566" x="1120" y="96" width="16" height="16"/>
  <object id="855" gid="566" x="1136" y="96" width="16" height="16"/>
  <object id="859" gid="566" x="1152" y="96" width="16" height="16"/>
  <object id="861" gid="566" x="1184" y="80" width="16" height="16"/>
  <object id="863" gid="566" x="1216" y="64" width="16" height="16"/>
  <object id="864" gid="566" x="1248" y="64" width="16" height="16"/>
  <object id="865" gid="566" x="1232" y="64" width="16" height="16"/>
  <object id="866" gid="566" x="1264" y="64" width="16" height="16"/>
  <object id="867" gid="566" x="1280" y="64" width="16" height="16"/>
  <object id="870" gid="566" x="1312" y="48" width="16" height="16"/>
  <object id="871" gid="566" x="1328" y="48" width="16" height="16"/>
  <object id="872" gid="566" x="1344" y="48" width="16" height="16"/>
  <object id="873" gid="566" x="1360" y="48" width="16" height="16"/>
  <object id="874" gid="566" x="1376" y="48" width="16" height="16"/>
  <object id="875" gid="566" x="1392" y="48" width="16" height="16"/>
  <object id="878" gid="566" x="1440" y="96" width="16" height="16"/>
  <object id="879" gid="566" x="1456" y="96" width="16" height="16"/>
  <object id="881" gid="566" x="1488" y="112" width="16" height="16"/>
  <object id="882" gid="566" x="1504" y="112" width="16" height="16"/>
  <object id="884" gid="566" x="1536" y="96" width="16" height="16"/>
  <object id="885" gid="566" x="1552" y="96" width="16" height="16"/>
  <object id="887" gid="566" x="1584" y="80" width="16" height="16"/>
  <object id="889" gid="567" x="832" y="128" width="16" height="16"/>
  <object id="890" gid="567" x="848" y="112" width="16" height="16"/>
  <object id="891" gid="567" x="864" y="80" width="16" height="16"/>
  <object id="892" gid="567" x="928" y="64" width="16" height="16"/>
  <object id="893" gid="567" x="944" y="48" width="16" height="16"/>
  <object id="894" gid="567" x="1104" y="112" width="16" height="16"/>
  <object id="895" gid="567" x="1168" y="96" width="16" height="16"/>
  <object id="896" gid="567" x="1200" y="80" width="16" height="16"/>
  <object id="897" gid="567" x="1296" y="64" width="16" height="16"/>
  <object id="898" gid="567" x="1520" y="112" width="16" height="16"/>
  <object id="899" gid="567" x="1568" y="96" width="16" height="16"/>
  <object id="900" gid="565" x="1472" y="112" width="16" height="16"/>
  <object id="901" gid="565" x="1424" y="96" width="16" height="16"/>
  <object id="902" gid="565" x="1408" y="64" width="16" height="16"/>
  <object id="903" gid="565" x="1056" y="112" width="16" height="16"/>
  <object id="904" gid="565" x="1040" y="96" width="16" height="16"/>
  <object id="905" gid="565" x="1024" y="64" width="16" height="16"/>
  <object id="906" gid="565" x="1008" y="48" width="16" height="16"/>
  <object id="907" gid="526" x="800" y="112" width="16" height="16"/>
  <object id="915" gid="526" x="1584" y="64" width="16" height="16"/>
  <object id="917" gid="486" x="1536" y="80" width="16" height="16"/>
  <object id="918" gid="486" x="1504" y="96" width="16" height="16"/>
  <object id="919" gid="486" x="1488" y="96" width="16" height="16"/>
  <object id="920" gid="486" x="1456" y="80" width="16" height="16"/>
  <object id="921" gid="486" x="1440" y="80" width="16" height="16"/>
  <object id="922" gid="486" x="1520" y="96" width="16" height="16"/>
  <object id="923" gid="486" x="1472" y="96" width="16" height="16"/>
  <object id="924" gid="527" x="944" y="32" width="16" height="16"/>
  <object id="925" gid="527" x="864" y="64" width="16" height="16"/>
  <object id="926" gid="527" x="848" y="96" width="16" height="16"/>
  <object id="992" gid="447" x="1568" y="64" width="16" height="16"/>
  <object id="993" gid="447" x="1520" y="80" width="16" height="16"/>
  <object id="994" gid="447" x="1296" y="32" width="16" height="16"/>
  <object id="966" gid="1451" x="1001.83" y="253" width="160" height="174"/>
  <object id="995" gid="447" x="832" y="96" width="16" height="16"/>
  <object id="996" gid="447" x="848" y="80" width="16" height="16"/>
  <object id="997" gid="447" x="864" y="48" width="16" height="16"/>
  <object id="998" gid="447" x="928" y="32" width="16" height="16"/>
  <object id="999" gid="447" x="944" y="16" width="16" height="16"/>
  <object id="1000" gid="447" x="1104" y="80" width="16" height="16"/>
  <object id="1001" gid="447" x="1168" y="64" width="16" height="16"/>
  <object id="1002" gid="447" x="1200" y="48" width="16" height="16"/>
  <object id="1003" gid="445" x="1472" y="80" width="16" height="16"/>
  <object id="1004" gid="445" x="1424" y="64" width="16" height="16"/>
  <object id="1005" gid="445" x="1408" y="32" width="16" height="16"/>
  <object id="1006" gid="445" x="1056" y="80" width="16" height="16"/>
  <object id="1007" gid="445" x="1040" y="64" width="16" height="16"/>
  <object id="1008" gid="445" x="1024" y="32" width="16" height="16"/>
  <object id="1009" gid="445" x="1008" y="16" width="16" height="16"/>
  <object id="1010" gid="367" x="832.087" y="90.9565" width="16" height="16"/>
  <object id="1011" gid="407" x="848" y="64" width="16" height="16"/>
  <object id="1012" gid="367" x="848.031" y="59" width="16" height="16"/>
  <object id="1013" gid="367" x="864.031" y="40.9688" width="16" height="16"/>
  <object id="1014" gid="367" x="928" y="27.0313" width="16" height="16"/>
  <object id="1015" gid="367" x="1103.91" y="73" width="16" height="16"/>
  <object id="1016" gid="367" x="1168.06" y="57" width="16" height="16"/>
  <object id="1017" gid="367" x="1200" y="40.9375" width="16" height="16"/>
  <object id="1018" gid="367" x="1296" y="25" width="16" height="16"/>
  <object id="1019" gid="367" x="1520" y="73" width="16" height="16"/>
  <object id="1020" gid="367" x="1568.06" y="57" width="16" height="16"/>
  <object id="1021" gid="365" x="1471.18" y="74" width="16" height="16"/>
  <object id="1022" gid="405" x="1424" y="48" width="16" height="16"/>
  <object id="1023" gid="365" x="1424.09" y="41.0909" width="16" height="16"/>
  <object id="1024" gid="365" x="1408" y="25.125" width="16" height="16"/>
  <object id="1025" gid="365" x="1056" y="73" width="16" height="16"/>
  <object id="1026" gid="405" x="1040" y="48" width="16" height="16"/>
  <object id="1027" gid="365" x="1040" y="41.0625" width="16" height="16"/>
  <object id="1028" gid="365" x="1024" y="25" width="16" height="16"/>
  <object id="1030" gid="1465" x="150" y="1011" width="64" height="38"/>
  <object id="1031" gid="1465" x="264" y="911" width="64" height="38"/>
  <object id="1032" gid="1465" x="568" y="749" width="64" height="38"/>
  <object id="1033" gid="1465" x="1026" y="1063" width="64" height="38"/>
  <object id="1034" gid="1465" x="1152" y="799" width="64" height="38"/>
  <object id="1035" gid="1465" x="1366" y="919" width="64" height="38"/>
  <object id="1036" gid="1465" x="1725.58" y="1006.88" width="64" height="38"/>
  <object id="1037" gid="1465" x="1831.64" y="1052.33" width="64" height="38"/>
  <object id="1038" gid="1465" x="2143.76" y="1034.15" width="64" height="38"/>
  <object id="1039" gid="1465" x="1995.27" y="925.061" width="64" height="38"/>
  <object id="1040" gid="1465" x="1755.88" y="722.03" width="64" height="38"/>
  <object id="1041" gid="1465" x="1925.58" y="728.091" width="64" height="38"/>
  <object id="1042" gid="1452" x="1362.12" y="829.515" width="100" height="156"/>
  <object id="1043" gid="1465" x="1795.27" y="2873.55" width="64" height="38"/>
  <object id="1044" gid="1465" x="1692.24" y="2749.3" width="64" height="38"/>
  <object id="1045" gid="1460" x="1942.67" y="1306.67" width="56" height="56"/>
  <object id="1046" gid="1460" x="1846.67" y="1356" width="56" height="56"/>
  <object id="1047" gid="1460" x="1882.67" y="1388" width="56" height="56"/>
  <object id="1048" gid="1460" x="1913.33" y="1413.33" width="56" height="56"/>
  <object id="1049" gid="1460" x="1950.67" y="1389.33" width="56" height="56"/>
  <object id="1050" gid="1460" x="1957.33" y="1449.33" width="56" height="56"/>
  <object id="1051" gid="1460" x="2080" y="1649.33" width="56" height="56"/>
  <object id="1052" gid="1460" x="1869.33" y="1672" width="56" height="56"/>
  <object id="1053" gid="1460" x="1398" y="1596" width="56" height="56"/>
  <object id="1054" gid="1460" x="978" y="1426" width="56" height="56"/>
  <object id="1055" gid="1460" x="640" y="1352" width="56" height="56"/>
  <object id="1056" gid="1460" x="610" y="1714" width="56" height="56"/>
  <object id="1057" gid="1460" x="414" y="1672" width="56" height="56"/>
  <object id="1058" gid="1460" x="212" y="2264" width="56" height="56"/>
  <object id="1059" gid="1460" x="340" y="2108" width="56" height="56"/>
  <object id="1060" gid="1460" x="582" y="2294" width="56" height="56"/>
  <object id="1061" gid="1460" x="1408" y="2140" width="56" height="56"/>
  <object id="1062" gid="1460" x="1266" y="2068" width="56" height="56"/>
  <object id="1063" gid="1460" x="1152" y="2128" width="56" height="56"/>
  <object id="1064" gid="1460" x="1112" y="2090" width="56" height="56"/>
  <object id="1065" gid="1460" x="1104" y="2156" width="56" height="56"/>
  <object id="1066" gid="1460" x="280" y="2580" width="56" height="56"/>
  <object id="1067" gid="1460" x="512" y="2582" width="56" height="56"/>
  <object id="1068" gid="1460" x="209.5" y="2920.5" width="56" height="56"/>
  <object id="1069" gid="1460" x="609.333" y="2915.67" width="56" height="56"/>
  <object id="1070" gid="1460" x="960" y="2828" width="56" height="56"/>
  <object id="1071" gid="1460" x="1016" y="2676" width="56" height="56"/>
  <object id="1072" gid="1460" x="1034" y="2706" width="56" height="56"/>
  <object id="1073" gid="1460" x="2193" y="2552" width="56" height="56"/>
  <object id="1074" gid="1460" x="2056" y="2592" width="56" height="56"/>
  <object id="1075" gid="1460" x="2012" y="2624" width="56" height="56"/>
  <object id="1077" gid="338" x="1360" y="2287" width="16" height="16"/>
  <object id="1080" gid="298" x="1376" y="2256" width="16" height="16"/>
  <object id="1081" gid="338" x="1376" y="2271" width="16" height="16"/>
  <object id="1082" gid="376" x="1360" y="2272" width="16" height="16"/>
  <object id="1083" gid="376" x="1344" y="2288" width="16" height="16"/>
  <object id="1084" gid="377" x="1248" y="2288" width="16" height="16"/>
  <object id="1085" gid="377" x="1232" y="2272" width="16" height="16"/>
  <object id="1086" gid="570" x="1216" y="2256" width="16" height="16"/>
  <object id="1087" gid="336" x="1216" y="2272" width="16" height="16"/>
  <object id="1088" gid="569" x="1376" y="2240" width="16" height="16"/>
  <object id="1089" gid="161" x="1200" y="2272" width="16" height="16"/>
  <object id="1090" gid="121" x="1200" y="2256" width="16" height="16"/>
  <object id="1093" gid="123" x="1408" y="2240" width="16" height="16"/>
  <object id="1094" gid="122" x="1392" y="2240" width="16" height="16"/>
  <object id="1095" gid="163" x="1408" y="2256" width="16" height="16"/>
  <object id="1096" gid="163" x="1408" y="2272" width="16" height="16"/>
  <object id="1097" gid="163" x="1408" y="2288" width="16" height="16"/>
  <object id="1098" gid="163" x="1408" y="2304" width="16" height="16"/>
  <object id="1099" gid="163" x="1408" y="2320" width="16" height="16"/>
  <object id="1100" gid="202" x="1392" y="2336" width="16" height="16"/>
  <object id="1101" gid="202" x="1376" y="2336" width="16" height="16"/>
  <object id="1102" gid="202" x="1360" y="2336" width="16" height="16"/>
  <object id="1103" gid="202" x="1328" y="2352" width="16" height="16"/>
  <object id="1104" gid="202" x="1296" y="2352" width="16" height="16"/>
  <object id="1105" gid="202" x="1312" y="2352" width="16" height="16"/>
  <object id="1106" gid="202" x="1280" y="2352" width="16" height="16"/>
  <object id="1107" gid="202" x="1216" y="2304" width="16" height="16"/>
  <object id="1108" gid="202" x="1232" y="2336" width="16" height="16"/>
  <object id="1109" gid="202" x="1248" y="2352" width="16" height="16"/>
  <object id="1110" gid="202" x="1264" y="2352" width="16" height="16"/>
  <object id="1111" gid="162" x="1392" y="2256" width="16" height="16"/>
  <object id="1112" gid="162" x="1392" y="2272" width="16" height="16"/>
  <object id="1113" gid="162" x="1392" y="2288" width="16" height="16"/>
  <object id="1114" gid="162" x="1376" y="2288" width="16" height="16"/>
  <object id="1115" gid="162" x="1376" y="2304" width="16" height="16"/>
  <object id="1116" gid="162" x="1360" y="2304" width="16" height="16"/>
  <object id="1117" gid="162" x="1392" y="2304" width="16" height="16"/>
  <object id="1118" gid="162" x="1392" y="2320" width="16" height="16"/>
  <object id="1119" gid="162" x="1376" y="2320" width="16" height="16"/>
  <object id="1120" gid="162" x="1360" y="2320" width="16" height="16"/>
  <object id="1121" gid="162" x="1344" y="2320" width="16" height="16"/>
  <object id="1122" gid="162" x="1344" y="2336" width="16" height="16"/>
  <object id="1123" gid="162" x="1328" y="2336" width="16" height="16"/>
  <object id="1124" gid="162" x="1312" y="2336" width="16" height="16"/>
  <object id="1125" gid="162" x="1296" y="2336" width="16" height="16"/>
  <object id="1126" gid="162" x="1280" y="2336" width="16" height="16"/>
  <object id="1127" gid="162" x="1264" y="2336" width="16" height="16"/>
  <object id="1128" gid="162" x="1248" y="2336" width="16" height="16"/>
  <object id="1129" gid="162" x="1232" y="2320" width="16" height="16"/>
  <object id="1130" gid="162" x="1232" y="2304" width="16" height="16"/>
  <object id="1131" gid="162" x="1232" y="2288" width="16" height="16"/>
  <object id="1132" gid="162" x="1216" y="2288" width="16" height="16"/>
  <object id="1133" gid="162" x="1248" y="2320" width="16" height="16"/>
  <object id="1134" gid="162" x="1264" y="2320" width="16" height="16"/>
  <object id="1135" gid="162" x="1280" y="2320" width="16" height="16"/>
  <object id="1136" gid="162" x="1296" y="2320" width="16" height="16"/>
  <object id="1137" gid="162" x="1312" y="2320" width="16" height="16"/>
  <object id="1138" gid="162" x="1328" y="2320" width="16" height="16"/>
  <object id="1139" gid="336" x="1248" y="2304" width="16" height="16"/>
  <object id="1140" gid="337" x="1264" y="2304" width="16" height="16"/>
  <object id="1141" gid="337" x="1280" y="2304" width="16" height="16"/>
  <object id="1142" gid="337" x="1296" y="2304" width="16" height="16"/>
  <object id="1143" gid="337" x="1312" y="2304" width="16" height="16"/>
  <object id="1144" gid="337" x="1328" y="2304" width="16" height="16"/>
  <object id="1146" gid="338" x="1344" y="2304" width="16" height="16"/>
  <object id="1147" gid="241" x="1344" y="2336" width="16" height="16"/>
  <object id="1148" gid="203" x="1344" y="2352" width="16" height="16"/>
  <object id="1149" gid="242" x="1248" y="2336" width="16" height="16"/>
  <object id="1150" gid="201" x="1248" y="2352" width="16" height="16"/>
  <object id="1151" gid="242" x="1232" y="2320" width="16" height="16"/>
  <object id="1152" gid="242" x="1232" y="2304" width="16" height="16"/>
  <object id="1153" gid="242" x="1216" y="2288" width="16" height="16"/>
  <object id="1154" gid="201" x="1200" y="2288" width="16" height="16"/>
  <object id="1155" gid="201" x="1216" y="2304" width="16" height="16"/>
  <object id="1156" gid="201" x="1232" y="2336" width="16" height="16"/>
  <object id="1157" gid="161" x="1232" y="2320" width="16" height="16"/>
  <object id="1158" gid="203" x="1408" y="2336" width="16" height="16"/>
  <object id="1159" gid="446" x="1600" y="48" width="16" height="16"/>
  <object id="1160" gid="446" x="1616" y="48" width="16" height="16"/>
  <object id="1161" gid="446" x="1632" y="48" width="16" height="16"/>
  <object id="1162" gid="446" x="1648" y="48" width="16" height="16"/>
  <object id="1163" gid="446" x="1664" y="48" width="16" height="16"/>
  <object id="1164" gid="446" x="1680" y="32" width="16" height="16"/>
  <object id="1165" gid="446" x="1696" y="48" width="16" height="16"/>
  <object id="1166" gid="446" x="1712" y="80" width="16" height="16"/>
  <object id="1167" gid="446" x="1728" y="80" width="16" height="16"/>
  <object id="1168" gid="446" x="1744" y="80" width="16" height="16"/>
  <object id="1169" gid="446" x="1760" y="80" width="16" height="16"/>
  <object id="1170" gid="446" x="1776" y="64" width="16" height="16"/>
  <object id="1171" gid="446" x="1792" y="64" width="16" height="16"/>
  <object id="1172" gid="446" x="1808" y="64" width="16" height="16"/>
  <object id="1173" gid="446" x="1824" y="48" width="16" height="16"/>
  <object id="1174" gid="446" x="1840" y="48" width="16" height="16"/>
  <object id="1175" gid="446" x="1856" y="48" width="16" height="16"/>
  <object id="1176" gid="446" x="1872" y="16" width="16" height="16"/>
  <object id="1177" gid="446" x="1888" y="16" width="16" height="16"/>
  <object id="1178" gid="446" x="1952" y="16" width="16" height="16"/>
  <object id="1179" gid="446" x="1968" y="16" width="16" height="16"/>
  <object id="1180" gid="446" x="1984" y="32" width="16" height="16"/>
  <object id="1181" gid="446" x="2000" y="32" width="16" height="16"/>
  <object id="1182" gid="446" x="2016" y="32" width="16" height="16"/>
  <object id="1183" gid="446" x="2032" y="48" width="16" height="16"/>
  <object id="1184" gid="446" x="2064" y="48" width="16" height="16"/>
  <object id="1185" gid="446" x="2048" y="48" width="16" height="16"/>
  <object id="1186" gid="446" x="2080" y="48" width="16" height="16"/>
  <object id="1187" gid="446" x="2096" y="48" width="16" height="16"/>
  <object id="1188" gid="446" x="2112" y="64" width="16" height="16"/>
  <object id="1193" gid="446" x="2128" y="64" width="16" height="16"/>
  <object id="1194" gid="446" x="2144" y="48" width="16" height="16"/>
  <object id="1195" gid="446" x="2160" y="48" width="16" height="16"/>
  <object id="1196" gid="446" x="2176" y="48" width="16" height="16"/>
  <object id="1197" gid="446" x="2192" y="32" width="16" height="16"/>
  <object id="1198" gid="446" x="2208" y="32" width="16" height="16"/>
  <object id="1199" gid="446" x="2224" y="32" width="16" height="16"/>
  <object id="1200" gid="446" x="2240" y="32" width="16" height="16"/>
  <object id="1201" gid="446" x="2256" y="32" width="16" height="16"/>
  <object id="1202" gid="446" x="2272" y="32" width="16" height="16"/>
  <object id="1203" gid="446" x="2288" y="48" width="16" height="16"/>
  <object id="1204" gid="446" x="2304" y="48" width="16" height="16"/>
  <object id="1205" gid="446" x="2320" y="32" width="16" height="16"/>
  <object id="1206" gid="446" x="2336" y="32" width="16" height="16"/>
  <object id="1207" gid="446" x="2352" y="32" width="16" height="16"/>
  <object id="1208" gid="407" x="0" y="16" width="16" height="16"/>
  <object id="1209" gid="407" x="0" y="32" width="16" height="16"/>
  <object id="1210" gid="407" x="0" y="48" width="16" height="16"/>
  <object id="1211" gid="407" x="0" y="64" width="16" height="16"/>
  <object id="1212" gid="407" x="0" y="80" width="16" height="16"/>
  <object id="1213" gid="407" x="0" y="96" width="16" height="16"/>
  <object id="1214" gid="407" x="0" y="112" width="16" height="16"/>
  <object id="1215" gid="407" x="0" y="128" width="16" height="16"/>
  <object id="1216" gid="407" x="0" y="144" width="16" height="16"/>
  <object id="1217" gid="407" x="0" y="160" width="16" height="16"/>
  <object id="1218" gid="407" x="0" y="192" width="16" height="16"/>
  <object id="1219" gid="407" x="0" y="176" width="16" height="16"/>
  <object id="1220" gid="407" x="0" y="208" width="16" height="16"/>
  <object id="1221" gid="407" x="0" y="208" width="16" height="16"/>
  <object id="1222" gid="407" x="0" y="224" width="16" height="16"/>
  <object id="1223" gid="407" x="0" y="240" width="16" height="16"/>
  <object id="1224" gid="407" x="0" y="256" width="16" height="16"/>
  <object id="1225" gid="407" x="0" y="272" width="16" height="16"/>
  <object id="1226" gid="407" x="0" y="288" width="16" height="16"/>
  <object id="1227" gid="407" x="0" y="304" width="16" height="16"/>
  <object id="1266" gid="407" x="16" y="320" width="16" height="16"/>
  <object id="1267" gid="407" x="16" y="336" width="16" height="16"/>
  <object id="1268" gid="407" x="32" y="352" width="16" height="16"/>
  <object id="1269" gid="407" x="32" y="368" width="16" height="16"/>
  <object id="1270" gid="407" x="32" y="400" width="16" height="16"/>
  <object id="1271" gid="407" x="32" y="384" width="16" height="16"/>
  <object id="1272" gid="407" x="32" y="416" width="16" height="16"/>
  <object id="1273" gid="407" x="16" y="432" width="16" height="16"/>
  <object id="1274" gid="407" x="16" y="448" width="16" height="16"/>
  <object id="1275" gid="407" x="16" y="480" width="16" height="16"/>
  <object id="1276" gid="407" x="16" y="464" width="16" height="16"/>
  <object id="1277" gid="407" x="16" y="496" width="16" height="16"/>
  <object id="1278" gid="407" x="16" y="528" width="16" height="16"/>
  <object id="1279" gid="407" x="16" y="512" width="16" height="16"/>
  <object id="1280" gid="407" x="16" y="544" width="16" height="16"/>
  <object id="1281" gid="407" x="16" y="560" width="16" height="16"/>
  <object id="1282" gid="407" x="0" y="576" width="16" height="16"/>
  <object id="1283" gid="407" x="0" y="592" width="16" height="16"/>
  <object id="1284" gid="407" x="0" y="608" width="16" height="16"/>
  <object id="1285" gid="407" x="16" y="640" width="16" height="16"/>
  <object id="1286" gid="407" x="16" y="624" width="16" height="16"/>
  <object id="1287" gid="407" x="16" y="656" width="16" height="16"/>
  <object id="1288" gid="407" x="16" y="672" width="16" height="16"/>
  <object id="1289" gid="407" x="32" y="688" width="16" height="16"/>
  <object id="1290" gid="407" x="32" y="704" width="16" height="16"/>
  <object id="1291" gid="407" x="48" y="720" width="16" height="16"/>
  <object id="1292" gid="407" x="48" y="736" width="16" height="16"/>
  <object id="1293" gid="407" x="48" y="752" width="16" height="16"/>
  <object id="1294" gid="407" x="48" y="768" width="16" height="16"/>
  <object id="1295" gid="407" x="48" y="784" width="16" height="16"/>
  <object id="1296" gid="407" x="64" y="800" width="16" height="16"/>
  <object id="1297" gid="407" x="64" y="816" width="16" height="16"/>
  <object id="1298" gid="407" x="64" y="832" width="16" height="16"/>
  <object id="1299" gid="407" x="80" y="848" width="16" height="16"/>
  <object id="1300" gid="407" x="96" y="864" width="16" height="16"/>
  <object id="1301" gid="407" x="96" y="880" width="16" height="16"/>
  <object id="1302" gid="407" x="96" y="896" width="16" height="16"/>
  <object id="1303" gid="407" x="96" y="912" width="16" height="16"/>
  <object id="1304" gid="407" x="96" y="928" width="16" height="16"/>
  <object id="1305" gid="407" x="96" y="944" width="16" height="16"/>
  <object id="1306" gid="407" x="96" y="960" width="16" height="16"/>
  <object id="1307" gid="407" x="112" y="976" width="16" height="16"/>
  <object id="1308" gid="407" x="112" y="992" width="16" height="16"/>
  <object id="1309" gid="407" x="112" y="1008" width="16" height="16"/>
  <object id="1310" gid="407" x="112" y="1024" width="16" height="16"/>
  <object id="1311" gid="407" x="112" y="1040" width="16" height="16"/>
  <object id="1312" gid="407" x="96" y="1056" width="16" height="16"/>
  <object id="1313" gid="407" x="96" y="1072" width="16" height="16"/>
  <object id="1314" gid="407" x="80" y="1088" width="16" height="16"/>
  <object id="1315" gid="407" x="64" y="1104" width="16" height="16"/>
  <object id="1316" gid="407" x="48" y="1120" width="16" height="16"/>
  <object id="1317" gid="407" x="48" y="1136" width="16" height="16"/>
  <object id="1318" gid="407" x="48" y="1168" width="16" height="16"/>
  <object id="1319" gid="407" x="48" y="1152" width="16" height="16"/>
  <object id="1320" gid="407" x="48" y="1184" width="16" height="16"/>
  <object id="1321" gid="407" x="64" y="1200" width="16" height="16"/>
  <object id="1322" gid="407" x="80" y="1216" width="16" height="16"/>
  <object id="1323" gid="407" x="96" y="1232" width="16" height="16"/>
  <object id="1325" gid="407" x="96" y="1248" width="16" height="16"/>
  <object id="1326" gid="407" x="96" y="1264" width="16" height="16"/>
  <object id="1327" gid="407" x="96" y="1280" width="16" height="16"/>
  <object id="1328" gid="407" x="96" y="1296" width="16" height="16"/>
  <object id="1329" gid="407" x="96" y="1312" width="16" height="16"/>
  <object id="1330" gid="407" x="96" y="1328" width="16" height="16"/>
  <object id="1331" gid="407" x="96" y="1344" width="16" height="16"/>
  <object id="1332" gid="407" x="96" y="1376" width="16" height="16"/>
  <object id="1333" gid="407" x="96" y="1360" width="16" height="16"/>
  <object id="1334" gid="407" x="96" y="1392" width="16" height="16"/>
  <object id="1335" gid="407" x="80" y="1408" width="16" height="16"/>
  <object id="1336" gid="407" x="80" y="1424" width="16" height="16"/>
  <object id="1337" gid="407" x="80" y="1440" width="16" height="16"/>
  <object id="1338" gid="407" x="80" y="1456" width="16" height="16"/>
  <object id="1339" gid="407" x="64" y="1472" width="16" height="16"/>
  <object id="1340" gid="407" x="64" y="1488" width="16" height="16"/>
  <object id="1341" gid="407" x="64" y="1504" width="16" height="16"/>
  <object id="1342" gid="407" x="48" y="1520" width="16" height="16"/>
  <object id="1343" gid="407" x="48" y="1552" width="16" height="16"/>
  <object id="1344" gid="407" x="48" y="1536" width="16" height="16"/>
  <object id="1345" gid="407" x="32" y="1568" width="16" height="16"/>
  <object id="1346" gid="407" x="32" y="1584" width="16" height="16"/>
  <object id="1347" gid="407" x="16" y="1600" width="16" height="16"/>
  <object id="1348" gid="407" x="0" y="1616" width="16" height="16"/>
  <object id="1349" gid="407" x="0" y="1632" width="16" height="16"/>
  <object id="1350" gid="407" x="0" y="1648" width="16" height="16"/>
  <object id="1351" gid="407" x="0" y="1664" width="16" height="16"/>
  <object id="1352" gid="407" x="0" y="1680" width="16" height="16"/>
  <object id="1353" gid="407" x="0" y="1696" width="16" height="16"/>
  <object id="1354" gid="407" x="0" y="1712" width="16" height="16"/>
  <object id="1355" gid="407" x="0" y="1744" width="16" height="16"/>
  <object id="1356" gid="407" x="0" y="1728" width="16" height="16"/>
  <object id="1357" gid="407" x="0" y="1760" width="16" height="16"/>
  <object id="1358" gid="407" x="0" y="1776" width="16" height="16"/>
  <object id="1359" gid="407" x="0" y="1792" width="16" height="16"/>
  <object id="1360" gid="407" x="16" y="1808" width="16" height="16"/>
  <object id="1361" gid="407" x="32" y="1824" width="16" height="16"/>
  <object id="1362" gid="407" x="32" y="1840" width="16" height="16"/>
  <object id="1363" gid="407" x="32" y="1856" width="16" height="16"/>
  <object id="1365" gid="407" x="48" y="1872" width="16" height="16"/>
  <object id="1366" gid="407" x="48" y="1888" width="16" height="16"/>
  <object id="1367" gid="407" x="48" y="1904" width="16" height="16"/>
  <object id="1368" gid="407" x="64" y="1920" width="16" height="16"/>
  <object id="1369" gid="407" x="64" y="1936" width="16" height="16"/>
  <object id="1370" gid="407" x="64" y="1952" width="16" height="16"/>
  <object id="1371" gid="407" x="64" y="1968" width="16" height="16"/>
  <object id="1373" gid="407" x="80" y="1984" width="16" height="16"/>
  <object id="1374" gid="407" x="80" y="2000" width="16" height="16"/>
  <object id="1375" gid="407" x="80" y="2016" width="16" height="16"/>
  <object id="1376" gid="407" x="80" y="2032" width="16" height="16"/>
  <object id="1377" gid="407" x="80" y="2048" width="16" height="16"/>
  <object id="1378" gid="407" x="80" y="2064" width="16" height="16"/>
  <object id="1379" gid="407" x="80" y="2080" width="16" height="16"/>
  <object id="1380" gid="407" x="96" y="2096" width="16" height="16"/>
  <object id="1381" gid="407" x="96" y="2112" width="16" height="16"/>
  <object id="1382" gid="407" x="96" y="2128" width="16" height="16"/>
  <object id="1383" gid="407" x="96" y="2144" width="16" height="16"/>
  <object id="1384" gid="407" x="80" y="2160" width="16" height="16"/>
  <object id="1385" gid="407" x="80" y="2176" width="16" height="16"/>
  <object id="1386" gid="407" x="80" y="2192" width="16" height="16"/>
  <object id="1387" gid="407" x="80" y="2208" width="16" height="16"/>
  <object id="1388" gid="407" x="64" y="2224" width="16" height="16"/>
  <object id="1389" gid="407" x="64" y="2240" width="16" height="16"/>
  <object id="1390" gid="407" x="64" y="2256" width="16" height="16"/>
  <object id="1391" gid="407" x="48" y="2272" width="16" height="16"/>
  <object id="1392" gid="407" x="32" y="2288" width="16" height="16"/>
  <object id="1393" gid="407" x="32" y="2304" width="16" height="16"/>
  <object id="1394" gid="407" x="32" y="2320" width="16" height="16"/>
  <object id="1395" gid="407" x="32" y="2336" width="16" height="16"/>
  <object id="1396" gid="407" x="32" y="2352" width="16" height="16"/>
  <object id="1397" gid="407" x="16" y="2368" width="16" height="16"/>
  <object id="1398" gid="407" x="16" y="2384" width="16" height="16"/>
  <object id="1399" gid="407" x="16" y="2400" width="16" height="16"/>
  <object id="1400" gid="407" x="16" y="2416" width="16" height="16"/>
  <object id="1401" gid="407" x="16" y="2432" width="16" height="16"/>
  <object id="1402" gid="407" x="0" y="2448" width="16" height="16"/>
  <object id="1403" gid="407" x="0" y="2464" width="16" height="16"/>
  <object id="1404" gid="407" x="0" y="2480" width="16" height="16"/>
  <object id="1406" gid="407" x="0" y="2496" width="16" height="16"/>
  <object id="1407" gid="407" x="0" y="2512" width="16" height="16"/>
  <object id="1408" gid="407" x="0" y="2528" width="16" height="16"/>
  <object id="1409" gid="407" x="0" y="2544" width="16" height="16"/>
  <object id="1410" gid="407" x="0" y="2560" width="16" height="16"/>
  <object id="1412" gid="407" x="16" y="2576" width="16" height="16"/>
  <object id="1413" gid="407" x="16" y="2592" width="16" height="16"/>
  <object id="1414" gid="407" x="32" y="2608" width="16" height="16"/>
  <object id="1415" gid="407" x="32" y="2624" width="16" height="16"/>
  <object id="1416" gid="407" x="48" y="2656" width="16" height="16"/>
  <object id="1417" gid="407" x="48" y="2640" width="16" height="16"/>
  <object id="1418" gid="407" x="48" y="2672" width="16" height="16"/>
  <object id="1419" gid="407" x="32" y="2688" width="16" height="16"/>
  <object id="1420" gid="407" x="32" y="2704" width="16" height="16"/>
  <object id="1421" gid="407" x="32" y="2720" width="16" height="16"/>
  <object id="1422" gid="407" x="32" y="2736" width="16" height="16"/>
  <object id="1423" gid="407" x="32" y="2768" width="16" height="16"/>
  <object id="1424" gid="407" x="32" y="2752" width="16" height="16"/>
  <object id="1425" gid="407" x="32" y="2784" width="16" height="16"/>
  <object id="1426" gid="407" x="16" y="2800" width="16" height="16"/>
  <object id="1427" gid="407" x="16" y="2832" width="16" height="16"/>
  <object id="1428" gid="407" x="16" y="2816" width="16" height="16"/>
  <object id="1429" gid="407" x="16" y="2848" width="16" height="16"/>
  <object id="1430" gid="407" x="16" y="2880" width="16" height="16"/>
  <object id="1431" gid="407" x="16" y="2864" width="16" height="16"/>
  <object id="1432" gid="407" x="16" y="2896" width="16" height="16"/>
  <object id="1433" gid="407" x="16" y="2912" width="16" height="16"/>
  <object id="1434" gid="407" x="16" y="2928" width="16" height="16"/>
  <object id="1435" gid="407" x="32" y="2944" width="16" height="16"/>
  <object id="1436" gid="407" x="32" y="2960" width="16" height="16"/>
  <object id="1437" gid="407" x="16" y="2976" width="16" height="16"/>
  <object id="1441" gid="446" x="48" y="2976" width="16" height="16"/>
  <object id="1442" gid="446" x="32" y="2976" width="16" height="16"/>
  <object id="1443" gid="446" x="16" y="2976" width="16" height="16"/>
  <object id="1444" gid="446" x="64" y="2976" width="16" height="16"/>
  <object id="1445" gid="446" x="80" y="2976" width="16" height="16"/>
  <object id="1446" gid="446" x="96" y="2976" width="16" height="16"/>
  <object id="1447" gid="446" x="112" y="2976" width="16" height="16"/>
  <object id="1448" gid="446" x="0" y="2976" width="16" height="16"/>
  <object id="1449" gid="446" x="144" y="2976" width="16" height="16"/>
  <object id="1450" gid="446" x="128" y="2976" width="16" height="16"/>
  <object id="1451" gid="446" x="160" y="2976" width="16" height="16"/>
  <object id="1452" gid="446" x="176" y="2976" width="16" height="16"/>
  <object id="1453" gid="446" x="192" y="2976" width="16" height="16"/>
  <object id="1454" gid="446" x="208" y="2976" width="16" height="16"/>
  <object id="1455" gid="446" x="224" y="2976" width="16" height="16"/>
  <object id="1456" gid="446" x="240" y="2976" width="16" height="16"/>
  <object id="1457" gid="446" x="272" y="2976" width="16" height="16"/>
  <object id="1458" gid="446" x="256" y="2976" width="16" height="16"/>
  <object id="1459" gid="446" x="288" y="2976" width="16" height="16"/>
  <object id="1460" gid="446" x="304" y="2976" width="16" height="16"/>
  <object id="1461" gid="446" x="320" y="2976" width="16" height="16"/>
  <object id="1462" gid="446" x="336" y="2976" width="16" height="16"/>
  <object id="1463" gid="446" x="352" y="2976" width="16" height="16"/>
  <object id="1464" gid="446" x="368" y="2976" width="16" height="16"/>
  <object id="1465" gid="446" x="384" y="2976" width="16" height="16"/>
  <object id="1466" gid="446" x="416" y="2976" width="16" height="16"/>
  <object id="1467" gid="446" x="400" y="2976" width="16" height="16"/>
  <object id="1468" gid="446" x="432" y="2976" width="16" height="16"/>
  <object id="1469" gid="446" x="448" y="2976" width="16" height="16"/>
  <object id="1470" gid="446" x="464" y="2976" width="16" height="16"/>
  <object id="1471" gid="446" x="480" y="2976" width="16" height="16"/>
  <object id="1472" gid="446" x="496" y="2976" width="16" height="16"/>
  <object id="1473" gid="446" x="512" y="2976" width="16" height="16"/>
  <object id="1474" gid="446" x="528" y="2976" width="16" height="16"/>
  <object id="1475" gid="446" x="544" y="2976" width="16" height="16"/>
  <object id="1476" gid="446" x="560" y="2976" width="16" height="16"/>
  <object id="1477" gid="446" x="576" y="2976" width="16" height="16"/>
  <object id="1478" gid="446" x="592" y="2976" width="16" height="16"/>
  <object id="1479" gid="446" x="608" y="2976" width="16" height="16"/>
  <object id="1480" gid="446" x="624" y="2976" width="16" height="16"/>
  <object id="1481" gid="446" x="640" y="2976" width="16" height="16"/>
  <object id="1482" gid="446" x="656" y="2976" width="16" height="16"/>
  <object id="1483" gid="446" x="672" y="2976" width="16" height="16"/>
  <object id="1484" gid="446" x="688" y="2976" width="16" height="16"/>
  <object id="1485" gid="446" x="704" y="2976" width="16" height="16"/>
  <object id="1486" gid="446" x="720" y="2976" width="16" height="16"/>
  <object id="1487" gid="446" x="736" y="2976" width="16" height="16"/>
  <object id="1488" gid="446" x="752" y="2976" width="16" height="16"/>
  <object id="1489" gid="446" x="768" y="2976" width="16" height="16"/>
  <object id="1490" gid="446" x="784" y="2976" width="16" height="16"/>
  <object id="1491" gid="446" x="800" y="2976" width="16" height="16"/>
  <object id="1492" gid="446" x="816" y="2976" width="16" height="16"/>
  <object id="1493" gid="446" x="832" y="2976" width="16" height="16"/>
  <object id="1494" gid="446" x="848" y="2976" width="16" height="16"/>
  <object id="1495" gid="446" x="864" y="2976" width="16" height="16"/>
  <object id="1496" gid="446" x="880" y="2976" width="16" height="16"/>
  <object id="1497" gid="446" x="896" y="2976" width="16" height="16"/>
  <object id="1498" gid="446" x="912" y="2976" width="16" height="16"/>
  <object id="1499" gid="446" x="928" y="2976" width="16" height="16"/>
  <object id="1500" gid="446" x="944" y="2976" width="16" height="16"/>
  <object id="1501" gid="446" x="960" y="2976" width="16" height="16"/>
  <object id="1502" gid="446" x="976" y="2976" width="16" height="16"/>
  <object id="1503" gid="446" x="992" y="2976" width="16" height="16"/>
  <object id="1504" gid="446" x="1008" y="2976" width="16" height="16"/>
  <object id="1505" gid="446" x="1024" y="2976" width="16" height="16"/>
  <object id="1506" gid="446" x="1040" y="2976" width="16" height="16"/>
  <object id="1507" gid="446" x="1056" y="2976" width="16" height="16"/>
  <object id="1508" gid="446" x="1072" y="2976" width="16" height="16"/>
  <object id="1509" gid="446" x="1088" y="2976" width="16" height="16"/>
  <object id="1510" gid="446" x="1104" y="2976" width="16" height="16"/>
  <object id="1511" gid="446" x="1120" y="2976" width="16" height="16"/>
  <object id="1512" gid="446" x="1136" y="2976" width="16" height="16"/>
  <object id="1513" gid="446" x="1152" y="2976" width="16" height="16"/>
  <object id="1514" gid="446" x="1168" y="2976" width="16" height="16"/>
  <object id="1515" gid="446" x="1184" y="2976" width="16" height="16"/>
  <object id="1516" gid="446" x="1200" y="2976" width="16" height="16"/>
  <object id="1517" gid="446" x="1216" y="2976" width="16" height="16"/>
  <object id="1518" gid="446" x="1232" y="2976" width="16" height="16"/>
  <object id="1519" gid="446" x="1248" y="2976" width="16" height="16"/>
  <object id="1520" gid="446" x="1264" y="2976" width="16" height="16"/>
  <object id="1521" gid="446" x="1280" y="2976" width="16" height="16"/>
  <object id="1522" gid="446" x="1296" y="2976" width="16" height="16"/>
  <object id="1523" gid="446" x="1312" y="2976" width="16" height="16"/>
  <object id="1524" gid="446" x="1328" y="2976" width="16" height="16"/>
  <object id="1525" gid="446" x="1344" y="2976" width="16" height="16"/>
  <object id="1526" gid="446" x="1360" y="2976" width="16" height="16"/>
  <object id="1527" gid="446" x="1376" y="2976" width="16" height="16"/>
  <object id="1528" gid="446" x="1392" y="2976" width="16" height="16"/>
  <object id="1529" gid="446" x="1408" y="2976" width="16" height="16"/>
  <object id="1530" gid="446" x="1424" y="2976" width="16" height="16"/>
  <object id="1531" gid="446" x="1456" y="2976" width="16" height="16"/>
  <object id="1532" gid="446" x="1440" y="2976" width="16" height="16"/>
  <object id="1533" gid="446" x="1472" y="2976" width="16" height="16"/>
  <object id="1534" gid="446" x="1488" y="2976" width="16" height="16"/>
  <object id="1535" gid="446" x="1504" y="2976" width="16" height="16"/>
  <object id="1536" gid="446" x="1520" y="2976" width="16" height="16"/>
  <object id="1537" gid="446" x="1536" y="2976" width="16" height="16"/>
  <object id="1538" gid="446" x="1552" y="2976" width="16" height="16"/>
  <object id="1539" gid="446" x="1568" y="2976" width="16" height="16"/>
  <object id="1540" gid="446" x="1584" y="2976" width="16" height="16"/>
  <object id="1541" gid="446" x="1616" y="2976" width="16" height="16"/>
  <object id="1542" gid="446" x="1600" y="2976" width="16" height="16"/>
  <object id="1543" gid="446" x="1632" y="2976" width="16" height="16"/>
  <object id="1544" gid="446" x="1648" y="2976" width="16" height="16"/>
  <object id="1545" gid="446" x="1664" y="2976" width="16" height="16"/>
  <object id="1546" gid="446" x="1680" y="2976" width="16" height="16"/>
  <object id="1547" gid="446" x="1696" y="2976" width="16" height="16"/>
  <object id="1548" gid="446" x="1712" y="2976" width="16" height="16"/>
  <object id="1549" gid="446" x="1728" y="2976" width="16" height="16"/>
  <object id="1550" gid="446" x="1760" y="2976" width="16" height="16"/>
  <object id="1551" gid="446" x="1744" y="2976" width="16" height="16"/>
  <object id="1552" gid="446" x="1776" y="2976" width="16" height="16"/>
  <object id="1553" gid="446" x="1792" y="2976" width="16" height="16"/>
  <object id="1554" gid="446" x="1808" y="2976" width="16" height="16"/>
  <object id="1555" gid="446" x="1824" y="2976" width="16" height="16"/>
  <object id="1556" gid="446" x="1840" y="2976" width="16" height="16"/>
  <object id="1557" gid="446" x="1856" y="2976" width="16" height="16"/>
  <object id="1558" gid="446" x="1872" y="2976" width="16" height="16"/>
  <object id="1559" gid="446" x="1888" y="2976" width="16" height="16"/>
  <object id="1560" gid="446" x="1904" y="2976" width="16" height="16"/>
  <object id="1561" gid="446" x="1920" y="2976" width="16" height="16"/>
  <object id="1562" gid="446" x="1936" y="2976" width="16" height="16"/>
  <object id="1563" gid="446" x="1952" y="2976" width="16" height="16"/>
  <object id="1564" gid="446" x="1968" y="2976" width="16" height="16"/>
  <object id="1565" gid="446" x="1984" y="2976" width="16" height="16"/>
  <object id="1566" gid="446" x="2000" y="2976" width="16" height="16"/>
  <object id="1567" gid="446" x="2016" y="2976" width="16" height="16"/>
  <object id="1568" gid="446" x="2032" y="2976" width="16" height="16"/>
  <object id="1569" gid="446" x="2048" y="2976" width="16" height="16"/>
  <object id="1570" gid="446" x="2064" y="2976" width="16" height="16"/>
  <object id="1571" gid="446" x="2080" y="2976" width="16" height="16"/>
  <object id="1572" gid="446" x="2096" y="2976" width="16" height="16"/>
  <object id="1573" gid="446" x="2112" y="2976" width="16" height="16"/>
  <object id="1574" gid="446" x="2128" y="2976" width="16" height="16"/>
  <object id="1575" gid="446" x="2368" y="2976" width="16" height="16"/>
  <object id="1576" gid="446" x="2384" y="2976" width="16" height="16"/>
  <object id="1577" gid="446" x="2352" y="2976" width="16" height="16"/>
  <object id="1578" gid="446" x="2336" y="2976" width="16" height="16"/>
  <object id="1579" gid="446" x="2320" y="2976" width="16" height="16"/>
  <object id="1580" gid="446" x="2304" y="2976" width="16" height="16"/>
  <object id="1581" gid="446" x="2288" y="2976" width="16" height="16"/>
  <object id="1582" gid="446" x="2272" y="2976" width="16" height="16"/>
  <object id="1583" gid="446" x="2256" y="2976" width="16" height="16"/>
  <object id="1584" gid="446" x="2240" y="2976" width="16" height="16"/>
  <object id="1585" gid="446" x="2224" y="2976" width="16" height="16"/>
  <object id="1586" gid="446" x="2208" y="2976" width="16" height="16"/>
  <object id="1588" gid="446" x="2192" y="2976" width="16" height="16"/>
  <object id="1589" gid="446" x="2176" y="2976" width="16" height="16"/>
  <object id="1590" gid="446" x="2160" y="2976" width="16" height="16"/>
  <object id="1591" gid="446" x="2144" y="2976" width="16" height="16"/>
  <object id="1592" gid="405" x="2352" y="2960" width="16" height="16"/>
  <object id="1593" gid="405" x="2352" y="2944" width="16" height="16"/>
  <object id="1594" gid="405" x="2352" y="2928" width="16" height="16"/>
  <object id="1595" gid="405" x="2368" y="2912" width="16" height="16"/>
  <object id="1596" gid="405" x="2368" y="2896" width="16" height="16"/>
  <object id="1597" gid="405" x="2384" y="2880" width="16" height="16"/>
  <object id="1598" gid="405" x="2384" y="2864" width="16" height="16"/>
  <object id="1599" gid="405" x="2384" y="2848" width="16" height="16"/>
  <object id="1600" gid="405" x="2384" y="2832" width="16" height="16"/>
  <object id="1601" gid="405" x="2384" y="2816" width="16" height="16"/>
  <object id="1602" gid="405" x="2384" y="2800" width="16" height="16"/>
  <object id="1603" gid="405" x="2368" y="2768" width="16" height="16"/>
  <object id="1604" gid="405" x="2384" y="2784" width="16" height="16"/>
  <object id="1605" gid="405" x="2368" y="2752" width="16" height="16"/>
  <object id="1606" gid="405" x="2368" y="2736" width="16" height="16"/>
  <object id="1607" gid="405" x="2384" y="2720" width="16" height="16"/>
  <object id="1608" gid="405" x="2384" y="2704" width="16" height="16"/>
  <object id="1609" gid="405" x="2384" y="2688" width="16" height="16"/>
  <object id="1610" gid="405" x="2384" y="2672" width="16" height="16"/>
  <object id="1611" gid="405" x="2384" y="2656" width="16" height="16"/>
  <object id="1612" gid="405" x="2368" y="2640" width="16" height="16"/>
  <object id="1613" gid="405" x="2368" y="2624" width="16" height="16"/>
  <object id="1614" gid="405" x="2368" y="2608" width="16" height="16"/>
  <object id="1616" gid="405" x="2352" y="2592" width="16" height="16"/>
  <object id="1617" gid="405" x="2352" y="2576" width="16" height="16"/>
  <object id="1618" gid="405" x="2352" y="2560" width="16" height="16"/>
  <object id="1619" gid="405" x="2352" y="2544" width="16" height="16"/>
  <object id="1620" gid="405" x="2352" y="2528" width="16" height="16"/>
  <object id="1621" gid="405" x="2352" y="2512" width="16" height="16"/>
  <object id="1622" gid="405" x="2336" y="2496" width="16" height="16"/>
  <object id="1623" gid="405" x="2336" y="2480" width="16" height="16"/>
  <object id="1624" gid="405" x="2336" y="2464" width="16" height="16"/>
  <object id="1625" gid="405" x="2336" y="2448" width="16" height="16"/>
  <object id="1626" gid="405" x="2336" y="2432" width="16" height="16"/>
  <object id="1627" gid="405" x="2336" y="2416" width="16" height="16"/>
  <object id="1628" gid="405" x="2352" y="2400" width="16" height="16"/>
  <object id="1629" gid="405" x="2352" y="2384" width="16" height="16"/>
  <object id="1630" gid="405" x="2352" y="2368" width="16" height="16"/>
  <object id="1631" gid="405" x="2368" y="2352" width="16" height="16"/>
  <object id="1632" gid="405" x="2368" y="2336" width="16" height="16"/>
  <object id="1633" gid="405" x="2368" y="2320" width="16" height="16"/>
  <object id="1634" gid="405" x="2384" y="2304" width="16" height="16"/>
  <object id="1635" gid="405" x="2384" y="2288" width="16" height="16"/>
  <object id="1636" gid="405" x="2384" y="2256" width="16" height="16"/>
  <object id="1637" gid="405" x="2384" y="2272" width="16" height="16"/>
  <object id="1638" gid="405" x="2384" y="2240" width="16" height="16"/>
  <object id="1639" gid="405" x="2384" y="2224" width="16" height="16"/>
  <object id="1640" gid="405" x="2384" y="2208" width="16" height="16"/>
  <object id="1641" gid="405" x="2384" y="2192" width="16" height="16"/>
  <object id="1642" gid="405" x="2368" y="2176" width="16" height="16"/>
  <object id="1643" gid="405" x="2352" y="2160" width="16" height="16"/>
  <object id="1644" gid="405" x="2336" y="2144" width="16" height="16"/>
  <object id="1645" gid="405" x="2336" y="2128" width="16" height="16"/>
  <object id="1646" gid="405" x="2320" y="2112" width="16" height="16"/>
  <object id="1647" gid="405" x="2320" y="2096" width="16" height="16"/>
  <object id="1648" gid="405" x="2320" y="2080" width="16" height="16"/>
  <object id="1649" gid="405" x="2320" y="2064" width="16" height="16"/>
  <object id="1650" gid="405" x="2304" y="2048" width="16" height="16"/>
  <object id="1651" gid="405" x="2304" y="2032" width="16" height="16"/>
  <object id="1652" gid="405" x="2320" y="2016" width="16" height="16"/>
  <object id="1653" gid="405" x="2336" y="2000" width="16" height="16"/>
  <object id="1654" gid="405" x="2336" y="1984" width="16" height="16"/>
  <object id="1655" gid="405" x="2336" y="1968" width="16" height="16"/>
  <object id="1656" gid="405" x="2336" y="1952" width="16" height="16"/>
  <object id="1657" gid="405" x="2352" y="1936" width="16" height="16"/>
  <object id="1658" gid="405" x="2352" y="1920" width="16" height="16"/>
  <object id="1659" gid="405" x="2368" y="1904" width="16" height="16"/>
  <object id="1660" gid="405" x="2368" y="1888" width="16" height="16"/>
  <object id="1661" gid="405" x="2368" y="1872" width="16" height="16"/>
  <object id="1662" gid="405" x="2368" y="1840" width="16" height="16"/>
  <object id="1663" gid="405" x="2384" y="1824" width="16" height="16"/>
  <object id="1664" gid="405" x="2368" y="1856" width="16" height="16"/>
  <object id="1665" gid="405" x="2384" y="1808" width="16" height="16"/>
  <object id="1666" gid="405" x="2368" y="1792" width="16" height="16"/>
  <object id="1667" gid="405" x="2352" y="1776" width="16" height="16"/>
  <object id="1668" gid="405" x="2336" y="1760" width="16" height="16"/>
  <object id="1669" gid="405" x="2352" y="1744" width="16" height="16"/>
  <object id="1670" gid="405" x="2368" y="1728" width="16" height="16"/>
  <object id="1671" gid="405" x="2368" y="1712" width="16" height="16"/>
  <object id="1672" gid="405" x="2368" y="1696" width="16" height="16"/>
  <object id="1673" gid="405" x="2368" y="1680" width="16" height="16"/>
  <object id="1674" gid="405" x="2384" y="1664" width="16" height="16"/>
  <object id="1675" gid="405" x="2384" y="1648" width="16" height="16"/>
  <object id="1676" gid="405" x="2384" y="1632" width="16" height="16"/>
  <object id="1677" gid="405" x="2384" y="1616" width="16" height="16"/>
  <object id="1678" gid="405" x="2384" y="1600" width="16" height="16"/>
  <object id="1679" gid="405" x="2368" y="1584" width="16" height="16"/>
  <object id="1680" gid="405" x="2368" y="1568" width="16" height="16"/>
  <object id="1681" gid="405" x="2368" y="1552" width="16" height="16"/>
  <object id="1682" gid="405" x="2368" y="1536" width="16" height="16"/>
  <object id="1683" gid="405" x="2368" y="1520" width="16" height="16"/>
  <object id="1684" gid="405" x="2368" y="1504" width="16" height="16"/>
  <object id="1685" gid="405" x="2368" y="1488" width="16" height="16"/>
  <object id="1686" gid="405" x="2368" y="1472" width="16" height="16"/>
  <object id="1687" gid="405" x="2352" y="1456" width="16" height="16"/>
  <object id="1688" gid="405" x="2336" y="1440" width="16" height="16"/>
  <object id="1689" gid="405" x="2336" y="1424" width="16" height="16"/>
  <object id="1690" gid="405" x="2336" y="1408" width="16" height="16"/>
  <object id="1691" gid="405" x="2320" y="1392" width="16" height="16"/>
  <object id="1692" gid="405" x="2320" y="1376" width="16" height="16"/>
  <object id="1693" gid="405" x="2320" y="1360" width="16" height="16"/>
  <object id="1694" gid="405" x="2320" y="1344" width="16" height="16"/>
  <object id="1695" gid="405" x="2304" y="1328" width="16" height="16"/>
  <object id="1696" gid="405" x="2304" y="1312" width="16" height="16"/>
  <object id="1697" gid="405" x="2304" y="1296" width="16" height="16"/>
  <object id="1698" gid="405" x="2304" y="1280" width="16" height="16"/>
  <object id="1699" gid="405" x="2304" y="1264" width="16" height="16"/>
  <object id="1700" gid="405" x="2320" y="1248" width="16" height="16"/>
  <object id="1701" gid="405" x="2320" y="1232" width="16" height="16"/>
  <object id="1703" gid="405" x="2336" y="1216" width="16" height="16"/>
  <object id="1704" gid="405" x="2352" y="1200" width="16" height="16"/>
  <object id="1705" gid="405" x="2368" y="1184" width="16" height="16"/>
  <object id="1706" gid="405" x="2368" y="1168" width="16" height="16"/>
  <object id="1707" gid="405" x="2368" y="1152" width="16" height="16"/>
  <object id="1708" gid="405" x="2368" y="1136" width="16" height="16"/>
  <object id="1709" gid="405" x="2368" y="1120" width="16" height="16"/>
  <object id="1710" gid="405" x="2368" y="1104" width="16" height="16"/>
  <object id="1711" gid="405" x="2384" y="1088" width="16" height="16"/>
  <object id="1712" gid="405" x="2384" y="1072" width="16" height="16"/>
  <object id="1713" gid="405" x="2352" y="48" width="16" height="16"/>
  <object id="1714" gid="405" x="2352" y="64" width="16" height="16"/>
  <object id="1715" gid="405" x="2352" y="80" width="16" height="16"/>
  <object id="1716" gid="405" x="2352" y="96" width="16" height="16"/>
  <object id="1717" gid="405" x="2368" y="128" width="16" height="16"/>
  <object id="1718" gid="405" x="2368" y="112" width="16" height="16"/>
  <object id="1719" gid="405" x="2384" y="144" width="16" height="16"/>
  <object id="1720" gid="405" x="2384" y="160" width="16" height="16"/>
  <object id="1721" gid="405" x="2384" y="176" width="16" height="16"/>
  <object id="1722" gid="405" x="2368" y="192" width="16" height="16"/>
  <object id="1723" gid="405" x="2368" y="208" width="16" height="16"/>
  <object id="1725" gid="405" x="2352" y="224" width="16" height="16"/>
  <object id="1726" gid="405" x="2336" y="240" width="16" height="16"/>
  <object id="1727" gid="405" x="2320" y="256" width="16" height="16"/>
  <object id="1728" gid="405" x="2336" y="272" width="16" height="16"/>
  <object id="1729" gid="405" x="2336" y="288" width="16" height="16"/>
  <object id="1730" gid="405" x="2336" y="304" width="16" height="16"/>
  <object id="1731" gid="405" x="2352" y="320" width="16" height="16"/>
  <object id="1732" gid="405" x="2352" y="336" width="16" height="16"/>
  <object id="1733" gid="405" x="2352" y="352" width="16" height="16"/>
  <object id="1735" gid="405" x="2368" y="368" width="16" height="16"/>
  <object id="1736" gid="405" x="2368" y="384" width="16" height="16"/>
  <object id="1737" gid="405" x="2368" y="400" width="16" height="16"/>
  <object id="1738" gid="405" x="2368" y="416" width="16" height="16"/>
  <object id="1739" gid="405" x="2352" y="432" width="16" height="16"/>
  <object id="1740" gid="405" x="2352" y="448" width="16" height="16"/>
  <object id="1741" gid="405" x="2352" y="464" width="16" height="16"/>
  <object id="1742" gid="405" x="2336" y="480" width="16" height="16"/>
  <object id="1743" gid="405" x="2336" y="496" width="16" height="16"/>
  <object id="1744" gid="405" x="2336" y="512" width="16" height="16"/>
  <object id="1745" gid="405" x="2352" y="528" width="16" height="16"/>
  <object id="1746" gid="405" x="2352" y="544" width="16" height="16"/>
  <object id="1747" gid="405" x="2368" y="560" width="16" height="16"/>
  <object id="1748" gid="405" x="2384" y="576" width="16" height="16"/>
  <object id="1749" gid="405" x="2384" y="592" width="16" height="16"/>
  <object id="1750" gid="405" x="2384" y="608" width="16" height="16"/>
  <object id="1754" gid="405" x="2384" y="624" width="16" height="16"/>
  <object id="1755" gid="405" x="2384" y="640" width="16" height="16"/>
  <object id="1756" gid="405" x="2384" y="656" width="16" height="16"/>
  <object id="1757" gid="405" x="2384" y="672" width="16" height="16"/>
  <object id="1758" gid="405" x="2384" y="688" width="16" height="16"/>
  <object id="1759" gid="405" x="2368" y="704" width="16" height="16"/>
  <object id="1760" gid="405" x="2368" y="720" width="16" height="16"/>
  <object id="1761" gid="405" x="2368" y="1056" width="16" height="16"/>
  <object id="1762" gid="405" x="2368" y="1040" width="16" height="16"/>
  <object id="1763" gid="405" x="2368" y="1024" width="16" height="16"/>
  <object id="1764" gid="405" x="2352" y="1008" width="16" height="16"/>
  <object id="1765" gid="405" x="2352" y="992" width="16" height="16"/>
  <object id="1766" gid="405" x="2352" y="976" width="16" height="16"/>
  <object id="1767" gid="405" x="2352" y="960" width="16" height="16"/>
  <object id="1768" gid="405" x="2336" y="944" width="16" height="16"/>
  <object id="1769" gid="405" x="2320" y="928" width="16" height="16"/>
  <object id="1770" gid="405" x="2320" y="912" width="16" height="16"/>
  <object id="1771" gid="405" x="2320" y="896" width="16" height="16"/>
  <object id="1772" gid="405" x="2320" y="880" width="16" height="16"/>
  <object id="1773" gid="405" x="2320" y="864" width="16" height="16"/>
  <object id="1774" gid="405" x="2336" y="848" width="16" height="16"/>
  <object id="1775" gid="405" x="2336" y="832" width="16" height="16"/>
  <object id="1776" gid="405" x="2336" y="816" width="16" height="16"/>
  <object id="1777" gid="405" x="2336" y="800" width="16" height="16"/>
  <object id="1778" gid="405" x="2352" y="784" width="16" height="16"/>
  <object id="1779" gid="405" x="2352" y="768" width="16" height="16"/>
  <object id="1780" gid="405" x="2352" y="736" width="16" height="16"/>
  <object id="1782" gid="405" x="2336" y="752" width="16" height="16"/>
  <object id="1783" gid="406" x="1632" y="32" width="16" height="16"/>
  <object id="1784" gid="406" x="1600" y="32" width="16" height="16"/>
  <object id="1785" gid="406" x="1616" y="32" width="16" height="16"/>
  <object id="1786" gid="406" x="1600" y="16" width="16" height="16"/>
  <object id="1787" gid="406" x="1616" y="16" width="16" height="16"/>
  <object id="1788" gid="406" x="1632" y="16" width="16" height="16"/>
  <object id="1789" gid="406" x="1648" y="32" width="16" height="16"/>
  <object id="1790" gid="406" x="1648" y="16" width="16" height="16"/>
  <object id="1791" gid="406" x="1664" y="32" width="16" height="16"/>
  <object id="1792" gid="366" x="1664" y="16" width="16" height="16"/>
  <object id="1793" gid="366" x="1680" y="16" width="16" height="16"/>
  <object id="1794" gid="366" x="1696" y="32" width="16" height="16"/>
  <object id="1795" gid="366" x="1712" y="16" width="16" height="16"/>
  <object id="1796" gid="366" x="1712" y="32" width="16" height="16"/>
  <object id="1797" gid="366" x="1696" y="16" width="16" height="16"/>
  <object id="1798" gid="366" x="1712" y="64" width="16" height="16"/>
  <object id="1799" gid="366" x="1712" y="48" width="16" height="16"/>
  <object id="1800" gid="366" x="1744" y="64" width="16" height="16"/>
  <object id="1801" gid="366" x="1728" y="64" width="16" height="16"/>
  <object id="1802" gid="366" x="1744" y="48" width="16" height="16"/>
  <object id="1803" gid="366" x="1744" y="32" width="16" height="16"/>
  <object id="1804" gid="366" x="1728" y="16" width="16" height="16"/>
  <object id="1805" gid="366" x="1792" y="32" width="16" height="16"/>
  <object id="1806" gid="366" x="1824" y="16" width="16" height="16"/>
  <object id="1807" gid="366" x="1840" y="32" width="16" height="16"/>
  <object id="1808" gid="366" x="1776" y="32" width="16" height="16"/>
  <object id="1809" gid="366" x="1856" y="32" width="16" height="16"/>
  <object id="1810" gid="366" x="2032" y="32" width="16" height="16"/>
  <object id="1811" gid="366" x="2048" y="16" width="16" height="16"/>
  <object id="1812" gid="366" x="2064" y="32" width="16" height="16"/>
  <object id="1813" gid="366" x="2080" y="16" width="16" height="16"/>
  <object id="1814" gid="366" x="2080" y="16" width="16" height="16"/>
  <object id="1815" gid="366" x="2064" y="16" width="16" height="16"/>
  <object id="1816" gid="406" x="1728" y="32" width="16" height="16"/>
  <object id="1817" gid="406" x="1728" y="48" width="16" height="16"/>
  <object id="1818" gid="406" x="1760" y="64" width="16" height="16"/>
  <object id="1819" gid="406" x="1760" y="48" width="16" height="16"/>
  <object id="1820" gid="406" x="1760" y="32" width="16" height="16"/>
  <object id="1821" gid="406" x="1744" y="16" width="16" height="16"/>
  <object id="1822" gid="406" x="1776" y="16" width="16" height="16"/>
  <object id="1823" gid="406" x="1792" y="16" width="16" height="16"/>
  <object id="1824" gid="406" x="1808" y="16" width="16" height="16"/>
  <object id="1825" gid="406" x="1792" y="48" width="16" height="16"/>
  <object id="1826" gid="406" x="1776" y="48" width="16" height="16"/>
  <object id="1827" gid="406" x="1808" y="48" width="16" height="16"/>
  <object id="1828" gid="406" x="1824" y="32" width="16" height="16"/>
  <object id="1829" gid="406" x="1840" y="16" width="16" height="16"/>
  <object id="1830" gid="406" x="1856" y="16" width="16" height="16"/>
  <object id="1831" gid="366" x="1808" y="32" width="16" height="16"/>
  <object id="1832" gid="366" x="1760" y="16" width="16" height="16"/>
  <object id="1833" gid="366" x="2096" y="32" width="16" height="16"/>
  <object id="1834" gid="366" x="2160" y="32" width="16" height="16"/>
  <object id="1835" gid="366" x="2160" y="16" width="16" height="16"/>
  <object id="1836" gid="366" x="2176" y="16" width="16" height="16"/>
  <object id="1837" gid="366" x="2192" y="16" width="16" height="16"/>
  <object id="1838" gid="366" x="2304" y="32" width="16" height="16"/>
  <object id="1839" gid="366" x="2288" y="16" width="16" height="16"/>
  <object id="1840" gid="406" x="2304" y="16" width="16" height="16"/>
  <object id="1841" gid="406" x="2288" y="32" width="16" height="16"/>
  <object id="1842" gid="406" x="2256" y="16" width="16" height="16"/>
  <object id="1843" gid="406" x="2224" y="16" width="16" height="16"/>
  <object id="1844" gid="406" x="2240" y="16" width="16" height="16"/>
  <object id="1845" gid="406" x="2208" y="16" width="16" height="16"/>
  <object id="1846" gid="406" x="2272" y="16" width="16" height="16"/>
  <object id="1847" gid="406" x="2176" y="32" width="16" height="16"/>
  <object id="1848" gid="406" x="2144" y="16" width="16" height="16"/>
  <object id="1849" gid="406" x="1984" y="16" width="16" height="16"/>
  <object id="1850" gid="406" x="2000" y="16" width="16" height="16"/>
  <object id="1851" gid="406" x="2048" y="32" width="16" height="16"/>
  <object id="1852" gid="406" x="2080" y="32" width="16" height="16"/>
  <object id="1853" gid="406" x="2096" y="16" width="16" height="16"/>
  <object id="1854" gid="406" x="2032" y="16" width="16" height="16"/>
  <object id="1855" gid="366" x="2016" y="16" width="16" height="16"/>
  <object id="1856" gid="366" x="2128" y="32" width="16" height="16"/>
  <object id="1857" gid="406" x="2144" y="32" width="16" height="16"/>
  <object id="1858" gid="406" x="2128" y="48" width="16" height="16"/>
  <object id="1859" gid="406" x="2112" y="48" width="16" height="16"/>
  <object id="1860" gid="406" x="2128" y="16" width="16" height="16"/>
  <object id="1861" gid="406" x="2112" y="16" width="16" height="16"/>
  <object id="1862" gid="406" x="2112" y="32" width="16" height="16"/>
  <object id="1864" gid="406" x="2320" y="16" width="16" height="16"/>
  <object id="1865" gid="406" x="2336" y="16" width="16" height="16"/>
  <object id="1866" gid="406" x="2352" y="16" width="16" height="16"/>
  <object id="1867" gid="406" x="2368" y="16" width="16" height="16"/>
  <object id="1868" gid="406" x="2368" y="32" width="16" height="16"/>
  <object id="1869" gid="406" x="2384" y="16" width="16" height="16"/>
  <object id="1871" gid="366" x="2352" y="32" width="16" height="16"/>
  <object id="2043" gid="257" x="2208" y="2624" width="16" height="16"/>
  <object id="2044" gid="257" x="2224" y="2624" width="16" height="16"/>
  <object id="2046" gid="257" x="2256" y="2640" width="16" height="16"/>
  <object id="2047" gid="257" x="2272" y="2640" width="16" height="16"/>
  <object id="2048" gid="257" x="2288" y="2640" width="16" height="16"/>
  <object id="2049" gid="257" x="2176" y="2640" width="16" height="16"/>
  <object id="2050" gid="257" x="2160" y="2640" width="16" height="16"/>
  <object id="2051" gid="257" x="2144" y="2640" width="16" height="16"/>
  <object id="2052" gid="257" x="2128" y="2640" width="16" height="16"/>
  <object id="2053" gid="417" x="2192" y="2640" width="16" height="16"/>
  <object id="2054" gid="416" x="2240" y="2640" width="16" height="16"/>
  <object id="2058" gid="256" x="2192.96" y="2624.09" width="16" height="16"/>
  <object id="2059" gid="162" x="2192" y="2624" width="16" height="16"/>
  <object id="2060" gid="258" x="2239" y="2624.94" width="16" height="16"/>
  <object id="2061" gid="162" x="2240" y="2624" width="16" height="16"/>
  <object id="2062" gid="162" x="2304" y="2640" width="16" height="16"/>
  <object id="2063" gid="258" x="2303" y="2641" width="16" height="16"/>
  <object id="2066" gid="416" x="2304" y="2704" width="16" height="16"/>
  <object id="2067" gid="258" x="2318.88" y="2705.19" width="16" height="16"/>
  <object id="2068" gid="416" x="2320" y="2720" width="16" height="16"/>
  <object id="2069" gid="298" x="2304" y="2656" width="16" height="16"/>
  <object id="2070" gid="298" x="2304" y="2672" width="16" height="16"/>
  <object id="2071" gid="298" x="2304" y="2688" width="16" height="16"/>
  <object id="2073" gid="162" x="2320" y="2704" width="16" height="16"/>
  <object id="2093" gid="338" x="2286.94" y="2831" width="16" height="16"/>
  <object id="2104" gid="376" x="2256" y="2864" width="16" height="16"/>
  <object id="2105" gid="338" x="2271" y="2863" width="16" height="16"/>
  <object id="2106" gid="298" x="2256" y="2880" width="16" height="16"/>
  <object id="2107" gid="337" x="2240" y="2896" width="16" height="16"/>
  <object id="2108" gid="337" x="2224" y="2896" width="16" height="16"/>
  <object id="2109" gid="338" x="2256" y="2896" width="16" height="16"/>
  <object id="2110" gid="377" x="2208" y="2880" width="16" height="16"/>
  <object id="2111" gid="336" x="2208" y="2896" width="16" height="16"/>
  <object id="2112" gid="337" x="2192" y="2880" width="16" height="16"/>
  <object id="2113" gid="337" x="2176" y="2880" width="16" height="16"/>
  <object id="2114" gid="337" x="2160" y="2880" width="16" height="16"/>
  <object id="2115" gid="377" x="2144" y="2864" width="16" height="16"/>
  <object id="2116" gid="336" x="2144" y="2880" width="16" height="16"/>
  <object id="2117" gid="337" x="2128" y="2864" width="16" height="16"/>
  <object id="2119" gid="336" x="2112" y="2864" width="16" height="16"/>
  <object id="2120" gid="296" x="2112" y="2848" width="16" height="16"/>
  <object id="2121" gid="296" x="2112" y="2832" width="16" height="16"/>
  <object id="2122" gid="296" x="2112" y="2816" width="16" height="16"/>
  <object id="2123" gid="377" x="2112" y="2800" width="16" height="16"/>
  <object id="2124" gid="296" x="2096" y="2784" width="16" height="16"/>
  <object id="2125" gid="377" x="2096" y="2768" width="16" height="16"/>
  <object id="2126" gid="336" x="2096" y="2800" width="16" height="16"/>
  <object id="2127" gid="336" x="2080" y="2768" width="16" height="16"/>
  <object id="2128" gid="296" x="2080" y="2752" width="16" height="16"/>
  <object id="2129" gid="296" x="2080" y="2736" width="16" height="16"/>
  <object id="2130" gid="296" x="2080" y="2720" width="16" height="16"/>
  <object id="2131" gid="417" x="2096" y="2704" width="16" height="16"/>
  <object id="2132" gid="256" x="2080" y="2704" width="16" height="16"/>
  <object id="2133" gid="296" x="2096" y="2688" width="16" height="16"/>
  <object id="2134" gid="296" x="2112" y="2656" width="16" height="16"/>
  <object id="2135" gid="417" x="2112" y="2672" width="16" height="16"/>
  <object id="2136" gid="256" x="2112" y="2640" width="16" height="16"/>
  <object id="2137" gid="256" x="2096" y="2672" width="16" height="16"/>
  <object id="2139" gid="202" x="2256" y="2912" width="16" height="16"/>
  <object id="2140" gid="202" x="2224" y="2912" width="16" height="16"/>
  <object id="2141" gid="202" x="2224" y="2912" width="16" height="16"/>
  <object id="2142" gid="202" x="2208" y="2912" width="16" height="16"/>
  <object id="2143" gid="202" x="2240" y="2912" width="16" height="16"/>
  <object id="2144" gid="202" x="2176" y="2896" width="16" height="16"/>
  <object id="2145" gid="202" x="2160" y="2896" width="16" height="16"/>
  <object id="2146" gid="202" x="2144" y="2896" width="16" height="16"/>
  <object id="2147" gid="242" x="2192" y="2896" width="16" height="16"/>
  <object id="2148" gid="242" x="2128" y="2880" width="16" height="16"/>
  <object id="2149" gid="242" x="2096" y="2816" width="16" height="16"/>
  <object id="2150" gid="242" x="2080" y="2784" width="16" height="16"/>
  <object id="2151" gid="241" x="2272" y="2880" width="16" height="16"/>
  <object id="2152" gid="241" x="2288" y="2848" width="16" height="16"/>
  <object id="2153" gid="241" x="2304" y="2784" width="16" height="16"/>
  <object id="2154" gid="281" x="2336" y="2704" width="16" height="16"/>
  <object id="2155" gid="281" x="2320" y="2688" width="16" height="16"/>
  <object id="2156" gid="281" x="2256" y="2624" width="16" height="16"/>
  <object id="2157" gid="282" x="2176" y="2624" width="16" height="16"/>
  <object id="2158" gid="282" x="2096" y="2656" width="16" height="16"/>
  <object id="2159" gid="282" x="2080" y="2688" width="16" height="16"/>
  <object id="2160" gid="121" x="2080" y="2656" width="16" height="16"/>
  <object id="2161" gid="121" x="2064" y="2688" width="16" height="16"/>
  <object id="2162" gid="122" x="2160" y="2624" width="16" height="16"/>
  <object id="2163" gid="122" x="2144" y="2624" width="16" height="16"/>
  <object id="2164" gid="122" x="2128" y="2624" width="16" height="16"/>
  <object id="2165" gid="122" x="2112" y="2624" width="16" height="16"/>
  <object id="2166" gid="121" x="2096" y="2624" width="16" height="16"/>
  <object id="2167" gid="161" x="2096" y="2640" width="16" height="16"/>
  <object id="2168" gid="161" x="2080" y="2672" width="16" height="16"/>
  <object id="2169" gid="161" x="2064" y="2704" width="16" height="16"/>
  <object id="2170" gid="161" x="2064" y="2720" width="16" height="16"/>
  <object id="2171" gid="161" x="2064" y="2736" width="16" height="16"/>
  <object id="2172" gid="161" x="2064" y="2752" width="16" height="16"/>
  <object id="2173" gid="161" x="2064" y="2768" width="16" height="16"/>
  <object id="2174" gid="201" x="2064" y="2784" width="16" height="16"/>
  <object id="2175" gid="161" x="2080" y="2800" width="16" height="16"/>
  <object id="2176" gid="201" x="2080" y="2816" width="16" height="16"/>
  <object id="2177" gid="161" x="2096" y="2832" width="16" height="16"/>
  <object id="2178" gid="161" x="2096" y="2848" width="16" height="16"/>
  <object id="2179" gid="161" x="2096" y="2864" width="16" height="16"/>
  <object id="2180" gid="202" x="2112" y="2880" width="16" height="16"/>
  <object id="2181" gid="201" x="2096" y="2880" width="16" height="16"/>
  <object id="2182" gid="201" x="2128" y="2896" width="16" height="16"/>
  <object id="2183" gid="201" x="2192" y="2912" width="16" height="16"/>
  <object id="2184" gid="203" x="2272" y="2912" width="16" height="16"/>
  <object id="2185" gid="203" x="2288" y="2880" width="16" height="16"/>
  <object id="2186" gid="203" x="2304" y="2848" width="16" height="16"/>
  <object id="2188" gid="163" x="2272" y="2896" width="16" height="16"/>
  <object id="2189" gid="163" x="2288" y="2864" width="16" height="16"/>
  <object id="2190" gid="163" x="2304" y="2832" width="16" height="16"/>
  <object id="2191" gid="163" x="2304" y="2816" width="16" height="16"/>
  <object id="2192" gid="163" x="2304" y="2800" width="16" height="16"/>
  <object id="2193" gid="202" x="2320" y="2784" width="16" height="16"/>
  <object id="2194" gid="202" x="2336" y="2784" width="16" height="16"/>
  <object id="2195" gid="122" x="2192" y="2608" width="16" height="16"/>
  <object id="2196" gid="122" x="2224" y="2608" width="16" height="16"/>
  <object id="2197" gid="122" x="2208" y="2608" width="16" height="16"/>
  <object id="2198" gid="122" x="2240" y="2608" width="16" height="16"/>
  <object id="2200" gid="123" x="2256" y="2608" width="16" height="16"/>
  <object id="2201" gid="123" x="2320" y="2624" width="16" height="16"/>
  <object id="2202" gid="163" x="2320" y="2640" width="16" height="16"/>
  <object id="2203" gid="163" x="2320" y="2656" width="16" height="16"/>
  <object id="2204" gid="163" x="2320" y="2672" width="16" height="16"/>
  <object id="2205" gid="123" x="2336" y="2688" width="16" height="16"/>
  <object id="2206" gid="123" x="2352" y="2704" width="16" height="16"/>
  <object id="2207" gid="203" x="2352" y="2784" width="16" height="16"/>
  <object id="2208" gid="163" x="2352" y="2768" width="16" height="16"/>
  <object id="2209" gid="163" x="2352" y="2752" width="16" height="16"/>
  <object id="2210" gid="163" x="2352" y="2736" width="16" height="16"/>
  <object id="2211" gid="163" x="2352" y="2720" width="16" height="16"/>
  <object id="2212" gid="122" x="2272" y="2624" width="16" height="16"/>
  <object id="2213" gid="122" x="2288" y="2624" width="16" height="16"/>
  <object id="2214" gid="122" x="2304" y="2624" width="16" height="16"/>
  <object id="2215" gid="121" x="2176" y="2608" width="16" height="16"/>
  <object id="2237" gid="366" x="2352" y="16" width="16" height="16"/>
  <object id="2558" gid="527" x="1168" y="80" width="16" height="16"/>
  <object id="2559" gid="527" x="1200" y="64" width="16" height="16"/>
  <object id="2560" gid="527" x="1296" y="48" width="16" height="16"/>
  <object id="2561" gid="527" x="1568" y="80" width="16" height="16"/>
  <object id="2562" gid="525" x="1424" y="80" width="16" height="16"/>
  <object id="2563" gid="525" x="1408" y="48" width="16" height="16"/>
  <object id="2564" gid="525" x="1040" y="80" width="16" height="16"/>
  <object id="2565" gid="525" x="1024" y="48" width="16" height="16"/>
  <object id="2566" gid="527" x="832" y="112" width="16" height="16"/>
  <object id="2567" gid="527" x="928" y="48" width="16" height="16"/>
  <object id="2568" gid="525" x="1008" y="32" width="16" height="16"/>
  <object id="2569" gid="486" x="880" y="48" width="16" height="16"/>
  <object id="2570" gid="486" x="912" y="48" width="16" height="16"/>
  <object id="2571" gid="526" x="896" y="48" width="16" height="16"/>
  <object id="2572" gid="486" x="816" y="112" width="16" height="16"/>
  <object id="2573" gid="486" x="1072" y="96" width="16" height="16"/>
  <object id="2574" gid="448" x="1088" y="96" width="16" height="16"/>
  <object id="2575" gid="525" x="1056" y="96" width="16" height="16"/>
  <object id="2576" gid="527" x="1104" y="96" width="16" height="16"/>
  <object id="2577" gid="526" x="1136" y="80" width="16" height="16"/>
  <object id="2578" gid="526" x="1184" y="64" width="16" height="16"/>
  <object id="2579" gid="526" x="1232" y="48" width="16" height="16"/>
  <object id="2580" gid="526" x="1264" y="48" width="16" height="16"/>
  <object id="2581" gid="526" x="1344" y="32" width="16" height="16"/>
  <object id="2582" gid="526" x="1376" y="32" width="16" height="16"/>
  <object id="2583" gid="526" x="1552" y="80" width="16" height="16"/>
  <object id="2584" gid="486" x="1360" y="32" width="16" height="16"/>
  <object id="2585" gid="486" x="1328" y="32" width="16" height="16"/>
  <object id="2586" gid="486" x="1248" y="48" width="16" height="16"/>
  <object id="2587" gid="486" x="1280" y="48" width="16" height="16"/>
  <object id="2588" gid="486" x="1120" y="80" width="16" height="16"/>
  <object id="2589" gid="448" x="1152" y="80" width="16" height="16"/>
  <object id="2590" gid="448" x="1216" y="48" width="16" height="16"/>
  <object id="2591" gid="448" x="1312" y="32" width="16" height="16"/>
  <object id="2592" gid="448" x="1392" y="32" width="16" height="16"/>
  <object id="2685" gid="486" x="2352" y="48" width="16" height="16"/>
  <object id="2686" gid="486" x="2320" y="48" width="16" height="16"/>
  <object id="2687" gid="486" x="2224" y="48" width="16" height="16"/>
  <object id="2688" gid="486" x="2240" y="48" width="16" height="16"/>
  <object id="2689" gid="486" x="2160" y="64" width="16" height="16"/>
  <object id="2690" gid="486" x="2064" y="64" width="16" height="16"/>
  <object id="2691" gid="486" x="1920" y="16" width="16" height="16"/>
  <object id="2692" gid="486" x="1872" y="32" width="16" height="16"/>
  <object id="2693" gid="486" x="1840" y="64" width="16" height="16"/>
  <object id="2694" gid="486" x="1728" y="96" width="16" height="16"/>
  <object id="2695" gid="486" x="1792" y="80" width="16" height="16"/>
  <object id="2696" gid="486" x="1680" y="48" width="16" height="16"/>
  <object id="2697" gid="486" x="1648" y="64" width="16" height="16"/>
  <object id="2698" gid="486" x="1600" y="64" width="16" height="16"/>
  <object id="2699" gid="526" x="1632" y="64" width="16" height="16"/>
  <object id="2700" gid="527" x="1664" y="64" width="16" height="16"/>
  <object id="2701" gid="525" x="1712" y="96" width="16" height="16"/>
  <object id="2702" gid="527" x="1760" y="96" width="16" height="16"/>
  <object id="2703" gid="527" x="1808" y="80" width="16" height="16"/>
  <object id="2704" gid="527" x="1856" y="64" width="16" height="16"/>
  <object id="2705" gid="527" x="1888" y="32" width="16" height="16"/>
  <object id="2706" gid="525" x="1952" y="32" width="16" height="16"/>
  <object id="2707" gid="525" x="1696" y="64" width="16" height="16"/>
  <object id="2708" gid="525" x="1984" y="48" width="16" height="16"/>
  <object id="2709" gid="525" x="2032" y="64" width="16" height="16"/>
  <object id="2710" gid="525" x="2112" y="80" width="16" height="16"/>
  <object id="2711" gid="525" x="2288" y="64" width="16" height="16"/>
  <object id="2712" gid="527" x="2304" y="64" width="16" height="16"/>
  <object id="2713" gid="527" x="2176" y="64" width="16" height="16"/>
  <object id="2714" gid="527" x="2128" y="80" width="16" height="16"/>
  <object id="2715" gid="526" x="2336" y="48" width="16" height="16"/>
  <object id="2716" gid="526" x="2272" y="48" width="16" height="16"/>
  <object id="2717" gid="526" x="2256" y="48" width="16" height="16"/>
  <object id="2718" gid="526" x="2208" y="48" width="16" height="16"/>
  <object id="2719" gid="526" x="2144" y="64" width="16" height="16"/>
  <object id="2720" gid="526" x="2080" y="64" width="16" height="16"/>
  <object id="2721" gid="526" x="2048" y="64" width="16" height="16"/>
  <object id="2722" gid="526" x="2096" y="64" width="16" height="16"/>
  <object id="2723" gid="526" x="2016" y="48" width="16" height="16"/>
  <object id="2724" gid="526" x="2000" y="48" width="16" height="16"/>
  <object id="2725" gid="526" x="1968" y="32" width="16" height="16"/>
  <object id="2726" gid="526" x="1936" y="16" width="16" height="16"/>
  <object id="2727" gid="526" x="1904" y="16" width="16" height="16"/>
  <object id="2728" gid="526" x="1824" y="64" width="16" height="16"/>
  <object id="2729" gid="526" x="1776" y="80" width="16" height="16"/>
  <object id="2730" gid="526" x="1744" y="96" width="16" height="16"/>
  <object id="2731" gid="526" x="1616" y="64" width="16" height="16"/>
  <object id="2732" gid="566" x="1600" y="80" width="16" height="16"/>
  <object id="2733" gid="566" x="1616" y="80" width="16" height="16"/>
  <object id="2734" gid="566" x="1632" y="80" width="16" height="16"/>
  <object id="2735" gid="566" x="1648" y="80" width="16" height="16"/>
  <object id="2736" gid="566" x="1680" y="64" width="16" height="16"/>
  <object id="2737" gid="565" x="1696" y="80" width="16" height="16"/>
  <object id="2738" gid="567" x="1664" y="80" width="16" height="16"/>
  <object id="2739" gid="565" x="1712" y="112" width="16" height="16"/>
  <object id="2740" gid="567" x="1760" y="112" width="16" height="16"/>
  <object id="2741" gid="567" x="1808" y="96" width="16" height="16"/>
  <object id="2742" gid="567" x="1856" y="80" width="16" height="16"/>
  <object id="2743" gid="567" x="1888" y="48" width="16" height="16"/>
  <object id="2744" gid="567" x="2304" y="80" width="16" height="16"/>
  <object id="2745" gid="486" x="2192" y="48" width="16" height="16"/>
  <object id="2746" gid="565" x="2288" y="80" width="16" height="16"/>
  <object id="2747" gid="566" x="2352" y="64" width="16" height="16"/>
  <object id="2748" gid="566" x="2336" y="64" width="16" height="16"/>
  <object id="2749" gid="566" x="2320" y="64" width="16" height="16"/>
  <object id="2750" gid="566" x="2272" y="64" width="16" height="16"/>
  <object id="2751" gid="566" x="2256" y="64" width="16" height="16"/>
  <object id="2752" gid="566" x="2240" y="64" width="16" height="16"/>
  <object id="2753" gid="566" x="2224" y="64" width="16" height="16"/>
  <object id="2754" gid="566" x="2208" y="64" width="16" height="16"/>
  <object id="2755" gid="566" x="2192" y="64" width="16" height="16"/>
  <object id="2756" gid="565" x="2112" y="96" width="16" height="16"/>
  <object id="2757" gid="565" x="2032" y="80" width="16" height="16"/>
  <object id="2758" gid="565" x="1984" y="64" width="16" height="16"/>
  <object id="2759" gid="565" x="1952" y="48" width="16" height="16"/>
  <object id="2760" gid="566" x="1728" y="112" width="16" height="16"/>
  <object id="2761" gid="566" x="1744" y="112" width="16" height="16"/>
  <object id="2762" gid="566" x="1776" y="96" width="16" height="16"/>
  <object id="2763" gid="566" x="1792" y="96" width="16" height="16"/>
  <object id="2764" gid="566" x="1824" y="80" width="16" height="16"/>
  <object id="2765" gid="566" x="1840" y="80" width="16" height="16"/>
  <object id="2766" gid="566" x="1872" y="48" width="16" height="16"/>
  <object id="2767" gid="566" x="1904" y="32" width="16" height="16"/>
  <object id="2768" gid="566" x="1920" y="32" width="16" height="16"/>
  <object id="2769" gid="566" x="1936" y="32" width="16" height="16"/>
  <object id="2770" gid="566" x="1968" y="48" width="16" height="16"/>
  <object id="2771" gid="566" x="2000" y="64" width="16" height="16"/>
  <object id="2772" gid="566" x="2016" y="64" width="16" height="16"/>
  <object id="2773" gid="566" x="2048" y="80" width="16" height="16"/>
  <object id="2774" gid="566" x="2064" y="80" width="16" height="16"/>
  <object id="2775" gid="566" x="2080" y="80" width="16" height="16"/>
  <object id="2776" gid="566" x="2096" y="80" width="16" height="16"/>
  <object id="2777" gid="446" x="2352" y="32" width="16" height="16"/>
  <object id="2778" gid="405" x="2368" y="64" width="16" height="16"/>
  <object id="2779" gid="405" x="2368" y="48" width="16" height="16"/>
  <object id="2780" gid="405" x="2368" y="47" width="16" height="16"/>
  <object id="2781" gid="446" x="2354.88" y="32" width="16" height="16"/>
  <object id="2782" gid="406" x="2384" y="47.0909" width="16" height="16"/>
  <object id="2783" gid="406" x="2384" y="63.0909" width="16" height="16"/>
  <object id="2784" gid="406" x="2384" y="79.0909" width="16" height="16"/>
  <object id="2785" gid="406" x="2368" y="79.0909" width="16" height="16"/>
  <object id="2786" gid="406" x="2384" y="95.0909" width="16" height="16"/>
  <object id="2787" gid="406" x="2384" y="111.091" width="16" height="16"/>
  <object id="2788" gid="406" x="2384" y="127.091" width="16" height="16"/>
  <object id="2789" gid="366" x="2368" y="95.0909" width="16" height="16"/>
  <object id="2790" gid="406" x="2381.27" y="32" width="16" height="16"/>
  <object id="2791" gid="366" x="2368" y="63.0909" width="16" height="16"/>
  <object id="2843" gid="1451" x="848.064" y="343.499" width="160" height="174"/>
  <object id="2844" gid="1451" x="1288.06" y="422.166" width="160" height="174"/>
  <object id="2845" gid="1451" x="1200.06" y="520.833" width="160" height="174"/>
  <object id="2846" gid="1451" x="1293.4" y="552.833" width="160" height="174"/>
  <object id="2847" gid="1460" x="1386.73" y="185.833" width="56" height="56"/>
  <object id="2848" gid="1460" x="1446.73" y="445.833" width="56" height="56"/>
  <object id="2849" gid="1460" x="1081.4" y="508.499" width="56" height="56"/>
  <object id="2850" gid="1460" x="1768.06" y="232.499" width="56" height="56"/>
  <object id="2851" gid="1460" x="1773.4" y="323.166" width="56" height="56"/>
  <object id="2852" gid="1460" x="1842.73" y="315.166" width="56" height="56"/>
  <object id="2853" gid="1460" x="1905.4" y="277.833" width="56" height="56"/>
  <object id="2854" gid="1460" x="1818.73" y="393.833" width="56" height="56"/>
  <object id="2855" gid="1460" x="1912.06" y="381.833" width="56" height="56"/>
  <object id="2856" gid="1460" x="1882.73" y="459.166" width="56" height="56"/>
  <object id="2857" gid="1451" x="2124.06" y="435.499" width="160" height="174"/>
  <object id="2858" gid="1451" x="2062.73" y="488.833" width="160" height="174"/>
  <object id="2859" gid="1451" x="1974.73" y="334.166" width="160" height="174"/>
  <object id="2860" gid="1451" x="2093.4" y="231.499" width="160" height="174"/>
  <object id="2861" gid="1451" x="1854.73" y="220.833" width="160" height="174"/>
  <object id="2862" gid="1460" x="1982.73" y="456.499" width="56" height="56"/>
  <object id="2863" gid="1465" x="201.276" y="472.03" width="64" height="38"/>
  <object id="2864" gid="1465" x="497.276" y="293.03" width="64" height="38"/>
  <object id="2865" gid="1452" x="1055.67" y="1375.5" width="100" height="156"/>
  <object id="2866" gid="1452" x="897.667" y="1753.5" width="100" height="156"/>
  <object id="2867" gid="1454" x="405.667" y="1583.5" width="116" height="152"/>
  <object id="2868" gid="1454" x="297.667" y="1583.5" width="116" height="152"/>
  <object id="2869" gid="1454" x="369.667" y="1495.5" width="116" height="152"/>
  <object id="2870" gid="1454" x="269.667" y="1431.5" width="116" height="152"/>
  <object id="2871" gid="1452" x="89.6667" y="1753.5" width="100" height="156"/>
  <object id="2872" gid="1453" x="1717.67" y="1461.5" width="100" height="156"/>
  <object id="2873" gid="1453" x="1957.67" y="1701.5" width="100" height="156"/>
  <object id="2874" gid="1453" x="2205.67" y="1581.5" width="100" height="156"/>
  <object id="2875" gid="1455" x="1851.67" y="1999.5" width="116" height="152"/>
  <object id="2876" gid="1455" x="1931.67" y="2117.5" width="116" height="152"/>
  <object id="2877" gid="1455" x="2047.67" y="2157.5" width="116" height="152"/>
  <object id="2878" gid="1455" x="2237.67" y="2295.5" width="116" height="152"/>
  <object id="2879" gid="1455" x="1927.67" y="2355.5" width="116" height="152"/>
  <object id="2880" gid="1455" x="1829.67" y="2307.5" width="116" height="152"/>
  <object id="2881" gid="1455" x="1699.67" y="2361.5" width="116" height="152"/>
  <object id="2882" gid="1453" x="1096.34" y="2328.17" width="100" height="156"/>
  <object id="2883" gid="1453" x="1011" y="2288.17" width="100" height="156"/>
  <object id="2884" gid="1453" x="923" y="2277.5" width="100" height="156"/>
  <object id="2885" gid="1453" x="936.334" y="2364.17" width="100" height="156"/>
  <object id="2886" gid="1453" x="1013.67" y="2378.83" width="100" height="156"/>
  <object id="2887" gid="1454" x="573.667" y="1991.5" width="116" height="152"/>
  <object id="2888" gid="1454" x="243.667" y="2073.5" width="116" height="152"/>
  <object id="2889" gid="1454" x="368.334" y="2608.83" width="116" height="152"/>
  <object id="2890" gid="1454" x="88.3334" y="2872.83" width="116" height="152"/>
  <object id="2891" gid="1454" x="148.334" y="2854.17" width="116" height="152"/>
  <object id="2892" gid="1454" x="248.334" y="2794.17" width="116" height="152"/>
  <object id="2893" gid="1454" x="309.667" y="2942.17" width="116" height="152"/>
  <object id="2894" gid="1454" x="473.667" y="2942.17" width="116" height="152"/>
  <object id="2895" gid="1453" x="1171.67" y="2953.5" width="100" height="156"/>
  <object id="2896" gid="1453" x="1285.67" y="2957.5" width="100" height="156"/>
  <object id="2897" gid="1453" x="1459.67" y="2939.5" width="100" height="156"/>
  <object id="2898" gid="1453" x="1369.67" y="2839.5" width="100" height="156"/>
  <object id="2899" gid="1453" x="1281.67" y="2785.5" width="100" height="156"/>
  <object id="2900" gid="1453" x="1309.67" y="2673.5" width="100" height="156"/>
  <object id="2901" gid="1455" x="1954.67" y="2931.5" width="116" height="152"/>
  <object id="2902" gid="1455" x="1862.67" y="2809.5" width="116" height="152"/>
  <object id="2903" gid="1455" x="1769.67" y="2703.5" width="116" height="152"/>
  <object id="2904" gid="1455" x="1705.67" y="2668.5" width="116" height="152"/>
  <object id="2905" gid="162" x="2336" y="2720" width="16" height="16"/>
  <object id="2906" gid="162" x="2288" y="2832" width="16" height="16"/>
  <object id="2907" gid="258" x="2335" y="2722" width="16" height="16"/>
  <object id="2908" gid="298" x="2336" y="2736" width="16" height="16"/>
  <object id="2909" gid="298" x="2336" y="2752" width="16" height="16"/>
  <object id="2910" gid="337" x="2320" y="2768" width="16" height="16"/>
  <object id="2911" gid="337" x="2304" y="2768" width="16" height="16"/>
  <object id="2912" gid="376" x="2288" y="2768" width="16" height="16"/>
  <object id="2913" gid="338" x="2336" y="2768" width="16" height="16"/>
  <object id="2914" gid="298" x="2288" y="2784" width="16" height="16"/>
  <object id="2915" gid="298" x="2288" y="2800" width="16" height="16"/>
  <object id="2916" gid="298" x="2288" y="2816" width="16" height="16"/>
  <object id="2917" gid="376" x="2272" y="2832" width="16" height="16"/>
  <object id="2918" gid="298" x="2272" y="2848" width="16" height="16"/>
  <object id="2919" gid="162" x="2272" y="2864" width="16" height="16"/>
  <object id="2920" gid="162" x="2256" y="2896" width="16" height="16"/>
  <object id="2921" gid="162" x="2208" y="2896" width="16" height="16"/>
  <object id="2922" gid="162" x="2144" y="2880" width="16" height="16"/>
  <object id="2923" gid="162" x="2112" y="2864" width="16" height="16"/>
  <object id="2924" gid="162" x="2096" y="2800" width="16" height="16"/>
  <object id="2925" gid="162" x="2080" y="2768" width="16" height="16"/>
  <object id="2926" gid="162" x="2080" y="2704" width="16" height="16"/>
  <object id="2927" gid="162" x="2096" y="2672" width="16" height="16"/>
  <object id="2928" gid="162" x="2112" y="2640" width="16" height="16"/>
  <object id="2936" gid="567" x="2128" y="96" width="16" height="16"/>
  <object id="2937" gid="567" x="2176" y="80" width="16" height="16"/>
 </objectgroup>
 <objectgroup id="5" name="collision">
  <object id="2241" x="136" y="94.3333" width="160" height="173"/>
  <object id="2242" x="421" y="185" width="55.75" height="55.75"/>
  <object id="2246" x="504" y="361" width="160" height="174.333"/>
  <object id="2247" x="660" y="497.273" width="55.8182" height="56"/>
  <object id="2248" x="0.25" y="0.25" width="527.75" height="47.75"/>
  <object id="2249" x="144" y="48" width="80" height="16"/>
  <object id="2250" x="240" y="47.3611" width="207.333" height="17.2778"/>
  <object id="2251" x="256" y="64" width="80" height="16"/>
  <object id="2252" x="672" y="0" width="112" height="112"/>
  <object id="2253" x="528" y="0" width="144" height="32"/>
  <object id="2257" x="576" y="32" width="96" height="16"/>
  <object id="2259" x="592" y="48" width="80" height="16"/>
  <object id="2260" x="640" y="64" width="32" height="16"/>
  <object id="2262" x="656" y="80" width="16" height="16"/>
  <object id="2263" x="0" y="48" width="16" height="2960"/>
  <object id="2264" x="16" y="304" width="16" height="240"/>
  <object id="2266" x="32" y="336" width="16" height="80"/>
  <object id="2267" x="16" y="544" width="16" height="16"/>
  <object id="2268" x="784" y="0" width="1616" height="16"/>
  <object id="2269" x="784" y="16" width="176" height="32"/>
  <object id="2270" x="784" y="48" width="160" height="16"/>
  <object id="2272" x="784" y="64" width="96" height="16"/>
  <object id="2273" x="784" y="80" width="80" height="16"/>
  <object id="2274" x="784" y="96" width="80" height="16"/>
  <object id="2275" x="784" y="112" width="64" height="16"/>
  <object id="2276" x="1008" y="16" width="880" height="32"/>
  <object id="2278" x="1024" y="48" width="272" height="16"/>
  <object id="2279" x="1040" y="64" width="160" height="16"/>
  <object id="2280" x="1040" y="80" width="144" height="16"/>
  <object id="2281" x="1296" y="48" width="16" height="16"/>
  <object id="2282" x="1200" y="64" width="16" height="16"/>
  <object id="2285" x="1000.33" y="80.6667" width="162.333" height="171.667"/>
  <object id="2286" x="849.667" y="169.667" width="157.667" height="174.333"/>
  <object id="2287" x="1387.33" y="129" width="57" height="57.3333"/>
  <object id="2288" x="1408" y="48" width="464" height="16"/>
  <object id="2289" x="1424" y="64" width="256" height="16"/>
  <object id="2290" x="1424" y="80" width="160" height="16"/>
  <object id="2291" x="1472" y="96" width="64" height="16"/>
  <object id="2292" x="1696" y="64" width="176" height="16"/>
  <object id="2293" x="1712" y="80" width="112" height="16"/>
  <object id="2294" x="1712" y="96" width="64" height="16"/>
  <object id="2295" x="1888" y="16" width="16" height="32"/>
  <object id="2296" x="1904" y="16" width="496" height="16"/>
  <object id="2297" x="1952" y="32" width="448" height="16"/>
  <object id="2298" x="1984" y="48" width="416" height="16"/>
  <object id="2299" x="2032" y="64" width="112" height="16"/>
  <object id="2300" x="2112" y="80" width="32" height="16"/>
  <object id="2301" x="2288" y="64" width="32" height="16"/>
  <object id="2302" x="2094.33" y="57.6667" width="160.333" height="174.333"/>
  <object id="2303" x="1856" y="48.3333" width="160.333" height="172.667"/>
  <object id="2304" x="1975.67" y="159.333" width="160.333" height="175"/>
  <object id="2306" x="2064.33" y="320.333" width="159.333" height="170.667"/>
  <object id="2307" x="2133" y="264.333" width="154" height="170"/>
  <object id="2309" x="2201.38" y="262.375" width="3.90625" height="2.03125"/>
  <object id="2310" x="2384" y="0" width="16" height="3008"/>
  <object id="2311" x="1768" y="176" width="57.75" height="57"/>
  <object id="2312" x="1774.25" y="268" width="57" height="56"/>
  <object id="2313" x="1906" y="222.5" width="57" height="56"/>
  <object id="2314" x="1843.25" y="260.5" width="57" height="56"/>
  <object id="2315" x="1819.25" y="339.25" width="57" height="56"/>
  <object id="2316" x="1912.25" y="326.5" width="57" height="56"/>
  <object id="2317" x="1883" y="403.5" width="57" height="56"/>
  <object id="2318" x="1982.5" y="401.25" width="57" height="56"/>
  <object id="2319" x="1447.32" y="390.97" width="57" height="56"/>
  <object id="2320" x="1081.75" y="454" width="57" height="56"/>
  <object id="2321" x="639.5" y="1296.5" width="57" height="56"/>
  <object id="2322" x="610.167" y="1657.33" width="57" height="56"/>
  <object id="2323" x="413.833" y="1615.67" width="57" height="56"/>
  <object id="2324" x="978.25" y="1370.25" width="57" height="56"/>
  <object id="2325" x="1397.17" y="1539.33" width="57" height="56"/>
  <object id="2326" x="1868.75" y="1615.25" width="57" height="56"/>
  <object id="2327" x="2078.77" y="1593.64" width="57" height="56"/>
  <object id="2328" x="1956" y="1393.5" width="57" height="56"/>
  <object id="2329" x="1912.75" y="1356.75" width="57" height="56"/>
  <object id="2330" x="1950.25" y="1333.5" width="57" height="56"/>
  <object id="2331" x="1881.86" y="1332" width="57" height="56"/>
  <object id="2332" x="1846.41" y="1299.82" width="57" height="56"/>
  <object id="2333" x="1942" y="1250.25" width="57" height="56"/>
  <object id="2334" x="2192.77" y="2496.36" width="57" height="56"/>
  <object id="2335" x="2055.5" y="2535.82" width="57" height="56"/>
  <object id="2336" x="2011.14" y="2567.82" width="57" height="56"/>
  <object id="2337" x="1032.17" y="2649.67" width="57" height="56"/>
  <object id="2338" x="1015.5" y="2619.67" width="57" height="56"/>
  <object id="2339" x="959.167" y="2772.33" width="57" height="56"/>
  <object id="2340" x="609.5" y="2858.5" width="57" height="56"/>
  <object id="2341" x="208.5" y="2864" width="57" height="56"/>
  <object id="2342" x="279.25" y="2524.75" width="57" height="56"/>
  <object id="2343" x="511" y="2526.25" width="57" height="56"/>
  <object id="2344" x="211.958" y="2208.5" width="57" height="56"/>
  <object id="2345" x="339.833" y="2052.33" width="57" height="56"/>
  <object id="2346" x="581.167" y="2238" width="57" height="56"/>
  <object id="2348" x="1408" y="2084" width="57" height="56"/>
  <object id="2349" x="1266.75" y="2011.5" width="57" height="56"/>
  <object id="2350" x="1151.25" y="2071.5" width="57" height="56"/>
  <object id="2351" x="1102.25" y="2100" width="57" height="56"/>
  <object id="2352" x="1111.5" y="2033.75" width="57" height="56"/>
  <object id="2369" x="568.375" y="710.75" width="64.25" height="37.5"/>
  <object id="2370" x="263.375" y="872.25" width="64.25" height="37.5"/>
  <object id="2371" x="150.875" y="973.583" width="64.25" height="37.5"/>
  <object id="2372" x="1025.38" y="1025.08" width="64.25" height="37.5"/>
  <object id="2373" x="1151.88" y="760.75" width="64.25" height="37.5"/>
  <object id="2374" x="1366.04" y="881.25" width="64.25" height="37.5"/>
  <object id="2375" x="1724.79" y="969" width="64.25" height="37.5"/>
  <object id="2376" x="1831.63" y="1014.5" width="64.25" height="37.5"/>
  <object id="2377" x="2142.88" y="996.25" width="64.25" height="37.5"/>
  <object id="2378" x="1994.38" y="888.25" width="64.25" height="37.5"/>
  <object id="2379" x="1924.88" y="690.25" width="64.25" height="37.5"/>
  <object id="2380" x="1755.88" y="683.25" width="64.25" height="37.5"/>
  <object id="2381" x="1200.5" y="346.5" width="157.667" height="174.333"/>
  <object id="2382" x="1296.5" y="378.834" width="157.667" height="174.333"/>
  <object id="2383" x="1291.17" y="248.167" width="157.667" height="174.333"/>
  <object id="2384" x="1361.5" y="673.516" width="100.611" height="155.963"/>
  <object id="2385" x="88.6112" y="1597.44" width="100.611" height="155.963"/>
  <object id="2386" x="897.195" y="1597.52" width="100.611" height="155.963"/>
  <object id="2387" x="1055.03" y="1219.69" width="100.611" height="155.963"/>
  <object id="2388" x="1716.69" y="1306.02" width="100.611" height="155.963"/>
  <object id="2389" x="1956.69" y="1545.52" width="100.611" height="155.963"/>
  <object id="2390" x="2207.03" y="1426.35" width="100.611" height="155.963"/>
  <object id="2391" x="923.028" y="2121.35" width="100.611" height="155.963"/>
  <object id="2392" x="1011.03" y="2132.69" width="100.611" height="155.963"/>
  <object id="2393" x="1095.69" y="2172.02" width="100.611" height="155.963"/>
  <object id="2394" x="1013.69" y="2223.02" width="100.611" height="155.963"/>
  <object id="2395" x="936.361" y="2208.69" width="100.611" height="155.963"/>
  <object id="2396" x="1171.69" y="2798.35" width="100.611" height="155.963"/>
  <object id="2397" x="1285.69" y="2801.35" width="100.611" height="155.963"/>
  <object id="2398" x="1459.69" y="2784.02" width="100.611" height="155.963"/>
  <object id="2399" x="1369.69" y="2684.02" width="100.611" height="155.963"/>
  <object id="2400" x="1281.36" y="2630.69" width="100.611" height="155.963"/>
  <object id="2401" x="1309.69" y="2517.52" width="100.611" height="155.963"/>
  <object id="2402" x="270.25" y="1280" width="116" height="152"/>
  <object id="2403" x="370.045" y="1343.89" width="116" height="152"/>
  <object id="2404" x="407" y="1432" width="116" height="152"/>
  <object id="2405" x="293" y="1432.5" width="116" height="152"/>
  <object id="2406" x="575" y="1839.33" width="116" height="152"/>
  <object id="2407" x="243.333" y="1922" width="116" height="152"/>
  <object id="2408" x="368.167" y="2457.33" width="116" height="152"/>
  <object id="2409" x="248" y="2642" width="116" height="152"/>
  <object id="2410" x="148.667" y="2702" width="116" height="152"/>
  <object id="2411" x="88.3333" y="2721.33" width="116" height="152"/>
  <object id="2412" x="309.333" y="2790" width="116" height="152"/>
  <object id="2413" x="473.667" y="2790.33" width="116" height="152"/>
  <object id="2414" x="1955.5" y="2779" width="116" height="152"/>
  <object id="2415" x="1862.67" y="2658.67" width="116" height="152"/>
  <object id="2435" x="1694.5" y="2208.5" width="116" height="152"/>
  <object id="2436" x="1827" y="2155.5" width="116" height="152"/>
  <object id="2437" x="1927" y="2204.5" width="116" height="152"/>
  <object id="2438" x="2236.5" y="2143.5" width="116" height="152"/>
  <object id="2439" x="2047.17" y="2005.83" width="116" height="152"/>
  <object id="2440" x="1929.83" y="1966.5" width="116" height="152"/>
  <object id="2441" x="1849.83" y="1848.5" width="116" height="152"/>
  <object id="2442" x="1770.17" y="2549.75" width="116" height="152"/>
  <object id="2443" x="1705.17" y="2516.25" width="116" height="152"/>
  <object id="2445" x="1692.38" y="2711.75" width="64.25" height="37.5"/>
  <object id="2446" x="1795.13" y="2835.5" width="64.25" height="37.5"/>
  <object id="2448" x="16" y="608" width="16" height="992"/>
  <object id="2449" x="32" y="672" width="16" height="912"/>
  <object id="2451" x="48" y="704" width="16" height="848"/>
  <object id="2452" x="64" y="1184" width="16" height="320"/>
  <object id="2453" x="80" y="1200" width="16" height="256"/>
  <object id="2454" x="96" y="1216" width="16" height="176"/>
  <object id="2455" x="64" y="784" width="16" height="320"/>
  <object id="2457" x="80" y="832" width="16" height="256"/>
  <object id="2458" x="96" y="848" width="16" height="224"/>
  <object id="2459" x="112" y="960" width="16" height="80"/>
  <object id="2460" x="16" y="1792" width="16" height="640"/>
  <object id="2461" x="32" y="1808" width="16" height="544"/>
  <object id="2462" x="48" y="1856" width="16" height="416"/>
  <object id="2463" x="64" y="1904" width="16" height="352"/>
  <object id="2464" x="80" y="1968" width="16" height="240"/>
  <object id="2465" x="96" y="2080" width="16" height="64"/>
  <object id="2466" x="16" y="2560" width="16" height="448"/>
  <object id="2467" x="32" y="2592" width="16" height="192"/>
  <object id="2468" x="48" y="2624" width="16" height="48"/>
  <object id="2469" x="32" y="2928" width="16" height="80"/>
  <object id="2470" x="0" y="2960" width="2400" height="48"/>
  <object id="2471" x="2368" y="2880" width="16" height="80"/>
  <object id="2472" x="2352" y="2912" width="16" height="48"/>
  <object id="2473" x="2368" y="2720" width="16" height="48"/>
  <object id="2474" x="2368" y="2304" width="16" height="336"/>
  <object id="2475" x="2352" y="2352" width="16" height="240"/>
  <object id="2476" x="2336" y="2400" width="16" height="96"/>
  <object id="2477" x="2368" y="1824" width="16" height="352"/>
  <object id="2478" x="2352" y="1904" width="16" height="256"/>
  <object id="2479" x="2336" y="1936" width="16" height="208"/>
  <object id="2480" x="2320" y="2000" width="16" height="112"/>
  <object id="2481" x="2304" y="2016" width="16" height="32"/>
  <object id="2482" x="2368" y="1664" width="16" height="128"/>
  <object id="2483" x="2352" y="1728" width="16" height="48"/>
  <object id="2484" x="2336" y="1744" width="16" height="16"/>
  <object id="2485" x="2368" y="1088" width="16" height="496"/>
  <object id="2486" x="2352" y="1184" width="16" height="272"/>
  <object id="2487" x="2336" y="1200" width="16" height="240"/>
  <object id="2488" x="2320" y="1216" width="16" height="160"/>
  <object id="2489" x="2304" y="1248" width="16" height="80"/>
  <object id="2490" x="2368" y="688" width="16" height="368"/>
  <object id="2491" x="2352" y="720" width="16" height="288"/>
  <object id="2492" x="2336" y="736" width="16" height="16"/>
  <object id="2493" x="2336" y="784" width="16" height="160"/>
  <object id="2494" x="2320" y="848" width="16" height="80"/>
  <object id="2495" x="2368" y="176" width="16" height="384"/>
  <object id="2496" x="2352" y="208" width="16" height="144"/>
  <object id="2497" x="2352" y="416" width="16" height="112"/>
  <object id="2498" x="2336" y="464" width="16" height="48"/>
  <object id="2499" x="2336" y="224" width="16" height="80"/>
  <object id="2500" x="2320" y="240" width="16" height="16"/>
  <object id="2501" x="2352" y="64" width="32" height="32"/>
  <object id="2502" x="2368" y="96" width="16" height="32"/>
  <object id="2503" x="2352" y="528" width="16" height="16"/>
  <object id="2505" x="1248" y="2160" width="112" height="112"/>
  <object id="2506" x="1264" y="2144" width="80" height="16"/>
  <object id="2507" x="1232" y="2176" width="16" height="80"/>
  <object id="2508" x="1264" y="2272" width="80" height="16"/>
  <object id="2509" x="1360" y="2176" width="16" height="80"/>
  <object id="2510" x="893.5" y="2033.5"/>
  <object id="2511" x="2208" y="2624" width="32" height="240"/>
  <object id="2512" x="2128" y="2640" width="160" height="176"/>
  <object id="2513" x="2288" y="2640" width="16" height="112"/>
  <object id="2514" x="2304" y="2704" width="16" height="48"/>
  <object id="2515" x="2320" y="2720" width="16" height="32"/>
  <object id="2516" x="2240" y="2816" width="32" height="32"/>
  <object id="2517" x="2224" y="2864" width="32" height="16"/>
  <object id="2518" x="2240" y="2848" width="16" height="16"/>
  <object id="2519" x="2128" y="2816" width="80" height="32"/>
  <object id="2520" x="2160" y="2848" width="48" height="16"/>
  <object id="2521" x="2112" y="2672" width="16" height="112"/>
  <object id="2522" x="2096" y="2704" width="16" height="48"/>
  <object id="2840" x="161.163" y="405.636" width="56" height="55.75"/>
  <object id="2841" x="202.663" y="435.386" width="64.25" height="37.5"/>
  <object id="2842" x="499.322" y="256.568" width="64" height="37.4545"/>
  <object id="2938" x="2144" y="64" width="48" height="16"/>
 </objectgroup>
</map>
